; generated by PrusaSlicer 2.4.1+x64 on 2022-04-23 at 19:50:13 UTC

; 

; external perimeters extrusion width = 0.45mm
; perimeters extrusion width = 0.45mm
; infill extrusion width = 0.45mm
; solid infill extrusion width = 0.45mm
; top infill extrusion width = 0.40mm
; support material extrusion width = 0.35mm
; first layer extrusion width = 0.42mm

M73 P0 R55
M73 Q0 S55
M201 X1000 Y1000 Z200 E5000 ; sets maximum accelerations, mm/sec^2
M203 X200 Y200 Z12 E120 ; sets maximum feedrates, mm / sec
M204 P1250 R1250 T1250 ; sets acceleration (P, T) and retract acceleration (R), mm/sec^2
M205 X8.00 Y8.00 Z0.40 E4.50 ; sets the jerk limits, mm/sec
M205 S0 T0 ; sets the minimum extruding and travel feed rate, mm/sec
M107
;TYPE:Custom
M862.3 P "MK3S" ; printer model check
M862.1 P0.4 ; nozzle diameter check
M115 U3.10.1 ; tell printer latest fw version
G90 ; use absolute coordinates
M83 ; extruder relative mode
M104 S215 ; set extruder temp
M140 S60 ; set bed temp
M190 S60 ; wait for bed temp
M109 S215 ; wait for extruder temp
G28 W ; home all without mesh bed level
G80 ; mesh bed leveling
G1 Z0.2 F720
G1 Y-3 F1000 ; go outside print area
G92 E0
G1 X60 E9 F1000 ; intro line
G1 X100 E12.5 F1000 ; intro line
G92 E0
M221 S95

; Don't change E values below. Excessive value can damage the printer.
M907 E430 ; set extruder motor current
G21 ; set units to millimeters
G90 ; use absolute coordinates
M83 ; use relative distances for extrusion
M900 K0.05 ; Filament gcode LA 1.5
M900 K30 ; Filament gcode LA 1.0
M107
;LAYER_CHANGE
;Z:0.2
;HEIGHT:0.2
;BEFORE_LAYER_CHANGE
G92 E0.0
;0.2


G1 E-.8 F2100
G1 Z.4 F720
;AFTER_LAYER_CHANGE
;0.2
G1 X117.239 Y97.566 F10800
G1 Z.2 F720
G1 E.8 F2100
M204 S800
;TYPE:Skirt/Brim
;WIDTH:0.42
G1 F1200
G1 X118.509 Y96.434 E.05337
G1 X120.314 Y95.327 E.06638
G1 X121.885 Y94.713 E.05288
G1 X123.532 Y94.353 E.05288
G1 X124.784 Y94.254 E.03936
G1 X126.425 Y94.349 E.05153
G1 X128.115 Y94.714 E.05423
G1 X130.071 Y95.524 E.06637
G1 X131.141 Y96.18 E.03936
G1 X132.434 Y97.239 E.05239
G1 X133.566 Y98.509 E.05337
G1 X134.673 Y100.314 E.06638
G1 X135.287 Y101.885 E.05288
G1 X135.58 Y103.106 E.03936
G1 X135.74 Y104.717 E.05079
G1 X135.647 Y106.468 E.05495
G1 X135.153 Y108.526 E.06638
G1 X134.476 Y110.071 E.05288
G1 X133.566 Y111.491 E.05288
G1 X132.446 Y112.751 E.05288
G1 X131.491 Y113.566 E.03936
G1 X129.686 Y114.673 E.06637
G1 X128.115 Y115.287 E.05288
G1 X126.468 Y115.647 E.05288
G1 X125.216 Y115.746 E.03936
G1 X123.532 Y115.647 E.05288
G1 X121.474 Y115.153 E.06638
G1 X119.929 Y114.476 E.05288
G1 X118.509 Y113.566 E.05288
G1 X117.249 Y112.446 E.05288
G1 X116.434 Y111.491 E.03936
G1 X115.327 Y109.686 E.06638
G1 X114.713 Y108.115 E.05288
G1 X114.353 Y106.468 E.05288
G1 X114.254 Y105.216 E.03936
G1 X114.353 Y103.532 E.05288
G1 X114.713 Y101.885 E.05288
G1 X115.524 Y99.929 E.06638
G1 X116.18 Y98.859 E.03936
G1 X117.201 Y97.613 E.05051
M204 S1000
G1 X117.492 Y97.852 F10800
M204 S800
G1 F1200
G1 X118.754 Y96.72 E.05316
G1 X120.458 Y95.676 E.06268
G1 X121.973 Y95.08 E.05103
G1 X123.562 Y94.729 E.05103
G1 X124.813 Y94.63 E.03936
G1 X126.395 Y94.725 E.04968
G1 X128.027 Y95.08 E.05237
G1 X129.874 Y95.845 E.06267
G1 X130.944 Y96.501 E.03936
G1 X132.189 Y97.525 E.05054
G1 X133.28 Y98.754 E.05152
G1 X134.324 Y100.458 E.06268
G1 X134.92 Y101.973 E.05103
G1 X135.213 Y103.194 E.03936
G1 X135.365 Y104.747 E.04894
G1 X135.271 Y106.438 E.0531
G1 X134.805 Y108.382 E.06268
G1 X134.155 Y109.874 E.05103
G1 X133.28 Y111.246 E.05103
G1 X132.201 Y112.464 E.05103
G1 X131.246 Y113.28 E.03936
G1 X129.542 Y114.324 E.06268
G1 X128.027 Y114.92 E.05103
G1 X126.438 Y115.271 E.05103
G1 X125.187 Y115.37 E.03936
G1 X123.562 Y115.271 E.05103
G1 X121.618 Y114.805 E.06268
G1 X120.126 Y114.155 E.05103
G1 X118.754 Y113.28 E.05103
G1 X117.536 Y112.201 E.05103
G1 X116.72 Y111.246 E.03936
G1 X115.676 Y109.542 E.06268
G1 X115.08 Y108.027 E.05103
G1 X114.725 Y106.395 E.05237
G1 X114.63 Y104.813 E.04968
G1 X114.729 Y103.562 E.03936
G1 X115.195 Y101.618 E.06268
G1 X115.845 Y100.126 E.05103
G1 X116.501 Y99.056 E.03936
G1 X117.453 Y97.899 E.04699
M204 S1000
; printing object drive_shaft.stl id:0 copy 0
;WIPE_START
G1 F8640
G1 X118.754 Y96.72 E-.40522
G1 X120.064 Y95.917 E-.35478
;WIPE_END
G1 E-.04 F2100
G1 Z.6 F720
G1 X126.447 Y99.039 F10800
G1 Z.2 F720
G1 E.8 F2100
M204 S800
;TYPE:Support material
G1 F1200
G1 X126.484 Y99.396 E.01125
G1 X126.459 Y99.626 E.00726
G1 X126.333 Y99.971 E.0115
G1 X126.291 Y100.181 E.00673
G1 X126.294 Y100.321 E.0044
G1 X126.337 Y100.5 E.00577
G1 X126.438 Y100.695 E.00685
G1 X126.571 Y100.84 E.00621
G1 X126.725 Y100.942 E.00577
G1 X127.097 Y101.121 E.01296
G1 X127.272 Y101.178 E.00577
G1 X127.472 Y101.192 E.00628
G1 X127.611 Y101.171 E.0044
G1 X127.799 Y101.101 E.00628
G1 X128.006 Y100.944 E.00816
G1 X128.292 Y100.509 E.01633
G1 X128.451 Y100.351 E.00703
G1 X128.689 Y100.19 E.00901
G1 X128.924 Y100.072 E.00823
G1 X128.89 Y100.257 E.00589
G1 X128.769 Y100.595 E.01125
G1 X128.646 Y100.791 E.00726
G1 X128.285 Y101.167 E.01633
G1 X128.196 Y101.346 E.00628
G1 X128.154 Y101.556 E.0067
G1 X128.175 Y101.801 E.00773
G1 X128.247 Y101.988 E.00628
G1 X128.555 Y102.394 E.01596
G1 X128.706 Y102.542 E.00664
G1 X128.825 Y102.616 E.0044
G1 X129.014 Y102.683 E.00628
G1 X129.289 Y102.694 E.00865
G1 X129.468 Y102.65 E.00577
G1 X129.914 Y102.382 E.01633
G1 X130.126 Y102.308 E.00703
G1 X130.411 Y102.267 E.00901
G1 X130.673 Y102.263 E.00823
G1 X130.563 Y102.415 E.00589
G1 X130.307 Y102.666 E.01125
G1 X130.111 Y102.79 E.00726
G1 X129.623 Y102.972 E.01633
G1 X129.465 Y103.095 E.00628
G1 X129.342 Y103.253 E.00628
G1 X129.263 Y103.437 E.00628
G1 X129.232 Y103.649 E.00672
G1 X129.249 Y103.818 E.00532
G1 X129.333 Y104.194 E.01209
G1 X129.379 Y104.339 E.00476
G1 X129.48 Y104.512 E.00628
G1 X129.633 Y104.662 E.00671
G1 X129.793 Y104.757 E.00585
G1 X130.045 Y104.821 E.00816
G1 X130.564 Y104.773 E.01633
G1 X130.787 Y104.799 E.00703
G1 X131.061 Y104.885 E.00901
G1 X131.299 Y104.996 E.00823
G1 X131.133 Y105.084 E.00589
G1 X130.794 Y105.2 E.01125
G1 X130.564 Y105.227 E.00726
G1 X130.045 Y105.179 E.01633
G1 X129.849 Y105.221 E.00628
G1 X129.67 Y105.31 E.00628
G1 X129.48 Y105.488 E.00816
G1 X129.379 Y105.661 E.00628
G1 X129.254 Y106.154 E.01596
G1 X129.232 Y106.365 E.00663
G1 X129.263 Y106.563 E.00628
G1 X129.314 Y106.694 E.0044
G1 X129.465 Y106.905 E.00816
G1 X129.623 Y107.028 E.00628
G1 X130.111 Y107.21 E.01633
G1 X130.301 Y107.33 E.00703
G1 X130.51 Y107.526 E.00901
G1 X130.677 Y107.729 E.00823
G1 X130.489 Y107.737 E.00589
G1 X130.133 Y107.694 E.01125
G1 X129.914 Y107.618 E.00726
G1 X129.468 Y107.35 E.01633
G1 X129.273 Y107.303 E.00628
G1 X129.073 Y107.306 E.00628
G1 X128.88 Y107.358 E.00628
G1 X128.695 Y107.466 E.00671
G1 X128.573 Y107.585 E.00534
G1 X128.332 Y107.886 E.01209
G1 X128.247 Y108.012 E.00475
G1 X128.175 Y108.199 E.00628
G1 X128.152 Y108.397 E.00628
G1 X128.178 Y108.596 E.00628
G1 X128.295 Y108.846 E.00865
G1 X128.646 Y109.209 E.01583
G1 X128.765 Y109.399 E.00703
G1 X128.868 Y109.667 E.00901
G1 X128.931 Y109.922 E.00823
G1 X128.758 Y109.848 E.00589
G1 X128.456 Y109.654 E.01125
G1 X128.292 Y109.491 E.00726
G1 X128.006 Y109.056 E.01633
G1 X127.851 Y108.929 E.00628
G1 X127.684 Y108.851 E.00577
G1 X127.472 Y108.808 E.00679
G1 X127.272 Y108.822 E.00628
G1 X127.097 Y108.879 E.00577
G1 X126.75 Y109.046 E.01209
G1 X126.571 Y109.16 E.00663
G1 X126.436 Y109.307 E.00628
G1 X126.342 Y109.484 E.00628
G1 X126.301 Y109.633 E.00483
G1 X126.297 Y109.879 E.00772
G1 X126.459 Y110.374 E.01633
G1 X126.483 Y110.597 E.00703
G1 X126.46 Y110.883 E.00901
G1 X126.406 Y111.14 E.00823
G1 X126.283 Y110.998 E.00589
G1 X126.094 Y110.693 E.01125
G1 X126.017 Y110.475 E.00726
G1 X125.949 Y109.958 E.01633
G1 X125.864 Y109.777 E.00628
G1 X125.726 Y109.613 E.00672
G1 X125.52 Y109.476 E.00776
G1 X125.33 Y109.416 E.00623
G1 X124.821 Y109.404 E.01596
G1 X124.611 Y109.429 E.00663
G1 X124.466 Y109.483 E.00485
G1 X124.309 Y109.582 E.00583
G1 X124.136 Y109.777 E.00816
G1 X124.048 Y109.974 E.00678
G1 X123.983 Y110.475 E.01582
G1 X123.908 Y110.686 E.00703
G1 X123.763 Y110.934 E.00901
G1 X123.603 Y111.142 E.00823
G1 X123.553 Y110.961 E.00589
G1 X123.516 Y110.604 E.01125
G1 X123.541 Y110.374 E.00726
G1 X123.703 Y109.879 E.01633
G1 X123.703 Y109.665 E.00671
G1 X123.658 Y109.484 E.00584
G1 X123.555 Y109.296 E.00672
G1 X123.427 Y109.158 E.00592
G1 X123.275 Y109.058 E.00569
G1 X122.928 Y108.89 E.01209
G1 X122.786 Y108.836 E.00475
G1 X122.588 Y108.807 E.00628
G1 X122.389 Y108.829 E.00628
G1 X122.201 Y108.899 E.00628
G1 X121.994 Y109.056 E.00816
G1 X121.708 Y109.491 E.01633
G1 X121.549 Y109.649 E.00703
G1 X121.311 Y109.81 E.00901
G1 X121.076 Y109.928 E.00823
G1 X121.11 Y109.743 E.00589
G1 X121.231 Y109.405 E.01125
G1 X121.354 Y109.209 E.00726
G1 X121.715 Y108.833 E.01633
G1 X121.804 Y108.654 E.00628
G1 X121.846 Y108.444 E.00671
G1 X121.825 Y108.199 E.00772
G1 X121.753 Y108.012 E.00628
G1 X121.445 Y107.606 E.01596
G1 X121.294 Y107.457 E.00664
G1 X121.175 Y107.384 E.0044
G1 X120.986 Y107.317 E.00628
G1 X120.711 Y107.306 E.00865
G1 X120.532 Y107.35 E.00577
M73 P0 R54
G1 X120.086 Y107.618 E.01633
G1 X119.874 Y107.692 E.00703
G1 X119.589 Y107.733 E.00901
G1 X119.327 Y107.737 E.00823
G1 X119.437 Y107.585 E.00589
G1 X119.693 Y107.334 E.01125
G1 X119.889 Y107.21 E.00726
G1 X120.377 Y107.028 E.01633
G1 X120.544 Y106.895 E.00671
G1 X120.658 Y106.747 E.00585
G1 X120.74 Y106.549 E.00672
G1 X120.768 Y106.362 E.00591
G1 X120.751 Y106.182 E.00569
G1 X120.666 Y105.806 E.01209
G1 X120.621 Y105.661 E.00475
G1 X120.52 Y105.488 E.00628
G1 X120.379 Y105.346 E.00628
G1 X120.207 Y105.243 E.00628
G1 X119.955 Y105.179 E.00816
G1 X119.436 Y105.227 E.01633
G1 X119.213 Y105.201 E.00703
G1 X118.939 Y105.115 E.00901
G1 X118.701 Y105.004 E.00823
G1 X118.867 Y104.916 E.00589
G1 X119.206 Y104.8 E.01125
G1 X119.436 Y104.773 E.00726
G1 X119.955 Y104.821 E.01633
G1 X120.151 Y104.779 E.00628
G1 X120.341 Y104.681 E.00671
G1 X120.52 Y104.512 E.00772
G1 X120.621 Y104.339 E.00628
G1 X120.746 Y103.846 E.01596
G1 X120.768 Y103.635 E.00663
G1 X120.748 Y103.482 E.00484
G1 X120.686 Y103.306 E.00584
G1 X120.522 Y103.083 E.00869
G1 X120.376 Y102.971 E.00578
G1 X119.889 Y102.79 E.01628
G1 X119.699 Y102.67 E.00703
G1 X119.49 Y102.474 E.00901
G1 X119.323 Y102.271 E.00823
G1 X119.511 Y102.263 E.00589
G1 X119.867 Y102.306 E.01125
G1 X120.086 Y102.382 E.00726
G1 X120.532 Y102.65 E.01633
G1 X120.727 Y102.697 E.00628
G1 X120.927 Y102.694 E.00628
G1 X121.12 Y102.642 E.00628
G1 X121.305 Y102.534 E.00671
G1 X121.427 Y102.415 E.00534
G1 X121.668 Y102.114 E.01209
G1 X121.753 Y101.988 E.00475
G1 X121.825 Y101.801 E.00628
G1 X121.848 Y101.588 E.00672
G1 X121.821 Y101.402 E.00591
G1 X121.715 Y101.167 E.00808
G1 X121.354 Y100.791 E.01633
G1 X121.235 Y100.601 E.00703
G1 X121.132 Y100.333 E.00901
G1 X121.069 Y100.078 E.00823
G1 X121.242 Y100.152 E.00589
G1 X121.544 Y100.346 E.01125
G1 X121.708 Y100.509 E.00726
G1 X121.994 Y100.944 E.01633
G1 X122.149 Y101.071 E.00628
G1 X122.331 Y101.155 E.00628
G1 X122.528 Y101.192 E.00628
G1 X122.773 Y101.167 E.00772
G1 X123.25 Y100.954 E.01639
G1 X123.429 Y100.84 E.00664
G1 X123.527 Y100.741 E.0044
G1 X123.635 Y100.572 E.00628
G1 X123.706 Y100.321 E.00816
G1 X123.703 Y100.121 E.00628
G1 X123.541 Y99.626 E.01633
G1 X123.517 Y99.403 E.00703
G1 X123.54 Y99.117 E.00901
G1 X123.594 Y98.86 E.00823
G1 X123.717 Y99.002 E.00589
G1 X123.906 Y99.307 E.01125
G1 X123.983 Y99.525 E.00726
G1 X124.051 Y100.042 E.01633
G1 X124.162 Y100.261 E.00772
G1 X124.263 Y100.378 E.00483
G1 X124.425 Y100.496 E.00628
G1 X124.625 Y100.573 E.00671
G1 X124.793 Y100.595 E.00534
G1 X125.207 Y100.595 E.01296
G1 X125.389 Y100.571 E.00577
G1 X125.562 Y100.503 E.00584
G1 X125.737 Y100.378 E.00672
G1 X125.864 Y100.223 E.00628
G1 X125.944 Y100.055 E.00584
G1 X125.981 Y99.89 E.00529
G1 X126.017 Y99.525 E.0115
G1 X126.092 Y99.314 E.00703
G1 X126.237 Y99.066 E.00901
G1 X126.397 Y98.858 E.00823
G1 X126.432 Y98.985 E.00412
M204 S1000
;WIPE_START
G1 F8640
G1 X126.397 Y98.858 E-.03034
G1 X126.237 Y99.066 E-.06061
G1 X126.092 Y99.314 E-.06638
G1 X126.017 Y99.525 E-.05179
G1 X125.981 Y99.89 E-.08468
G1 X125.944 Y100.055 E-.03894
G1 X125.864 Y100.223 E-.04302
G1 X125.737 Y100.378 E-.04626
G1 X125.562 Y100.503 E-.0495
G1 X125.389 Y100.571 E-.04298
G1 X125.207 Y100.595 E-.0425
G1 X124.793 Y100.595 E-.09541
G1 X124.625 Y100.573 E-.03931
G1 X124.425 Y100.496 E-.04941
G1 X124.359 Y100.448 E-.01887
;WIPE_END
G1 E-.04 F2100
G1 Z.6 F720
G1 X129.19 Y105.694 F10800
G1 Z.2 F720
G1 E.8 F2100
M204 S800
G1 F1200
G1 X129.19 Y104.688 E.03155
G1 X129.063 Y104.465 E.00804
G1 X129.015 Y104.317 E.00486
G1 X128.923 Y103.92 E.0128
G1 X128.893 Y103.695 E.0071
G1 X128.939 Y103.335 E.0114
G1 X129.005 Y103.164 E.00574
G1 X129.081 Y103.034 E.00472
G1 X128.932 Y103.014 E.00472
G1 X128.771 Y102.963 E.00531
G1 X128.771 Y107.037 E.12773
G1 X128.532 Y107.166 E.00852
G1 X128.352 Y107.325 E.00753
G1 X128.352 Y102.675 E.1458
G1 X128.065 Y102.325 E.01419
G1 X127.933 Y102.118 E.00768
G1 X127.933 Y107.882 E.1807
G1 X127.826 Y108.209 E.01081
G1 X127.812 Y108.392 E.00574
G1 X127.824 Y108.542 E.00472
G1 X127.514 Y108.471 E.00999
G1 X127.514 Y101.529 E.21768
G1 X127.215 Y101.513 E.00938
G1 X127.095 Y101.482 E.0039
G1 X127.095 Y108.518 E.2206
G1 X126.676 Y108.706 E.01441
G1 X126.676 Y101.294 E.23243
G1 X126.426 Y101.158 E.00892
G1 X126.257 Y101.005 E.00714
G1 X126.257 Y108.995 E.25051
G1 X126.154 Y109.118 E.00504
G1 X126.061 Y109.276 E.00574
G1 X126.008 Y109.417 E.00472
G1 X125.838 Y109.272 E.007
G1 X125.838 Y100.728 E.26788
G1 X125.677 Y100.825 E.00589
G1 X125.419 Y100.912 E.00853
G1 X125.419 Y109.088 E.25638
G1 X125.228 Y109.066 E.00603
G1 X125 Y109.068 E.00714
G1 X125 Y100.932 E.25508
G1 X124.772 Y100.934 E.00714
G1 X124.581 Y100.911 E.00603
G1 X124.581 Y109.088 E.25638
G1 X124.322 Y109.176 E.00857
G1 X124.162 Y109.272 E.00585
G1 X124.162 Y100.728 E.26788
G1 X123.992 Y100.583 E.007
G1 X123.939 Y100.724 E.00472
G1 X123.846 Y100.882 E.00574
G1 X123.743 Y101.005 E.00504
G1 X123.743 Y108.995 E.25051
G1 X123.572 Y108.841 E.0072
G1 X123.324 Y108.706 E.00886
G1 X123.324 Y101.294 E.23243
G1 X122.905 Y101.482 E.0144
G1 X122.905 Y108.518 E.22061
G1 X122.785 Y108.487 E.0039
G1 X122.486 Y108.471 E.00938
G1 X122.486 Y101.529 E.21768
G1 X122.319 Y101.504 E.0053
G1 X122.176 Y101.458 E.00472
G1 X122.174 Y101.791 E.01042
G1 X122.067 Y102.118 E.01081
G1 X122.067 Y107.882 E.1807
G1 X121.935 Y107.675 E.00768
G1 X121.648 Y107.325 E.01419
G1 X121.648 Y102.675 E.1458
G1 X121.468 Y102.834 E.00753
G1 X121.229 Y102.963 E.00852
G1 X121.229 Y107.037 E.12773
G1 X121.068 Y106.986 E.00531
G1 X120.919 Y106.966 E.00472
G1 X120.995 Y106.836 E.00472
G1 X121.067 Y106.641 E.00652
G1 X121.107 Y106.279 E.01143
G1 X120.985 Y105.683 E.01908
G1 X120.937 Y105.535 E.00486
G1 X120.81 Y105.312 E.00804
G1 X120.81 Y104.306 E.03155
M204 S1000
;WIPE_START
G1 F8640
G1 X120.81 Y105.312 E-.23236
G1 X120.937 Y105.535 E-.0592
G1 X120.985 Y105.683 E-.0358
G1 X121.107 Y106.279 E-.14049
G1 X121.067 Y106.641 E-.08417
G1 X120.995 Y106.836 E-.04798
G1 X120.919 Y106.966 E-.03474
G1 X121.068 Y106.986 E-.03474
G1 X121.229 Y107.037 E-.03912
G1 X121.229 Y106.814 E-.05138
;WIPE_END
G1 E-.04 F2100
G1 Z.6 F720
G1 X129.926 Y108.928 F10800
G1 Z.2 F720
G1 E.8 F2100
M204 S800
;TYPE:Perimeter
G1 F1200
G1 X130.458 Y109.004 E.01685
G1 X130.993 Y108.979 E.0168
G1 X130.834 Y109.238 E.00954
G1 X130.212 Y109.969 E.03009
G1 X130.166 Y109.649 E.01013
G1 X130.07 Y109.275 E.01209
G1 X129.949 Y108.984 E.0099
M204 S1000
;WIPE_START
G1 F8640
G1 X130.458 Y109.004 E-.11763
G1 X130.993 Y108.979 E-.12375
G1 X130.834 Y109.238 E-.07027
G1 X130.212 Y109.969 E-.22156
G1 X130.166 Y109.649 E-.07458
G1 X130.07 Y109.275 E-.08906
G1 X129.965 Y109.023 E-.06315
;WIPE_END
G1 E-.04 F2100
G1 Z.6 F720
G1 X128.669 Y111.184 F10800
G1 Z.2 F720
G1 E.8 F2100
M204 S800
G1 F1200
G1 X128.274 Y111.425 E.01451
G1 X127.543 Y111.729 E.02481
G1 X127.638 Y111.429 E.00987
G1 X127.714 Y111.05 E.01213
G1 X127.732 Y110.674 E.01181
G1 X128.17 Y110.971 E.0166
G1 X128.614 Y111.16 E.01513
M204 S1000
;WIPE_START
G1 F8640
