; generated by PrusaSlicer 2.4.1+x64 on 2022-04-23 at 22:02:12 UTC

; 

; external perimeters extrusion width = 0.45mm
; perimeters extrusion width = 0.45mm
; infill extrusion width = 0.45mm
; solid infill extrusion width = 0.45mm
; top infill extrusion width = 0.40mm
; support material extrusion width = 0.35mm
; first layer extrusion width = 0.42mm

M73 P0 R35
M73 Q0 S35
M201 X1000 Y1000 Z200 E5000 ; sets maximum accelerations, mm/sec^2
M203 X200 Y200 Z12 E120 ; sets maximum feedrates, mm / sec
M204 P1250 R1250 T1250 ; sets acceleration (P, T) and retract acceleration (R), mm/sec^2
M205 X8.00 Y8.00 Z0.40 E4.50 ; sets the jerk limits, mm/sec
M205 S0 T0 ; sets the minimum extruding and travel feed rate, mm/sec
M107
;TYPE:Custom
M862.3 P "MK3S" ; printer model check
M862.1 P0.4 ; nozzle diameter check
M115 U3.10.1 ; tell printer latest fw version
G90 ; use absolute coordinates
M83 ; extruder relative mode
M104 S215 ; set extruder temp
M140 S60 ; set bed temp
M190 S60 ; wait for bed temp
M109 S215 ; wait for extruder temp
G28 W ; home all without mesh bed level
G80 ; mesh bed leveling
G1 Z0.2 F720
G1 Y-3 F1000 ; go outside print area
G92 E0
G1 X60 E9 F1000 ; intro line
G1 X100 E12.5 F1000 ; intro line
G92 E0
M221 S95

; Don't change E values below. Excessive value can damage the printer.
M907 E430 ; set extruder motor current
G21 ; set units to millimeters
G90 ; use absolute coordinates
M83 ; use relative distances for extrusion
M900 K0.05 ; Filament gcode LA 1.5
M900 K30 ; Filament gcode LA 1.0
M107
;LAYER_CHANGE
;Z:0.2
;HEIGHT:0.2
;BEFORE_LAYER_CHANGE
G92 E0.0
;0.2


G1 E-.8 F2100
G1 Z.4 F720
;AFTER_LAYER_CHANGE
;0.2
G1 X117.238 Y85.805 F10800
G1 Z.2 F720
G1 E.8 F2100
M204 S800
;TYPE:Skirt/Brim
;WIDTH:0.42
G1 F1200
G1 X118.297 Y84.513 E.05239
G1 X119.568 Y83.38 E.05337
G1 X121.373 Y82.274 E.06638
G1 X122.943 Y81.66 E.05288
G1 X124.591 Y81.299 E.05288
G1 X125.842 Y81.201 E.03936
G1 X127.483 Y81.296 E.05153
G1 X129.174 Y81.66 E.05423
G1 X131.13 Y82.47 E.06637
G1 X132.2 Y83.126 E.03936
G1 X133.492 Y84.185 E.05239
G1 X134.625 Y85.455 E.05337
G1 X135.731 Y87.26 E.06638
G1 X136.345 Y88.831 E.05288
G1 X136.638 Y90.052 E.03936
G1 X136.799 Y91.664 E.05079
G1 X136.706 Y93.414 E.05495
G1 X136.212 Y95.472 E.06638
G1 X135.535 Y97.017 E.05288
G1 X134.625 Y98.437 E.05288
G1 X133.504 Y99.697 E.05288
G1 X132.55 Y100.513 E.03936
G1 X130.745 Y101.619 E.06637
G1 X129.174 Y102.233 E.05288
G1 X127.526 Y102.593 E.05288
G1 X126.275 Y102.692 E.03936
G1 X124.591 Y102.593 E.05288
G1 X122.532 Y102.099 E.06638
G1 X120.988 Y101.423 E.05288
G1 X119.568 Y100.513 E.05288
G1 X118.307 Y99.392 E.05288
G1 X117.492 Y98.437 E.03936
G1 X116.386 Y96.632 E.06638
G1 X115.772 Y95.061 E.05288
G1 X115.411 Y93.414 E.05288
G1 X115.313 Y92.162 E.03936
G1 X115.411 Y90.479 E.05288
G1 X115.772 Y88.831 E.05288
G1 X116.582 Y86.875 E.06638
G1 X117.207 Y85.856 E.03748
M204 S1000
G1 X117.528 Y86.053 F10800
M204 S800
G1 F1200
G1 X118.584 Y84.758 E.0524
G1 X119.813 Y83.667 E.05152
G1 X121.517 Y82.622 E.06268
G1 X123.032 Y82.026 E.05103
G1 X124.621 Y81.675 E.05103
G1 X125.872 Y81.577 E.03936
G1 X127.454 Y81.672 E.04968
G1 X129.086 Y82.026 E.05237
G1 X130.933 Y82.791 E.06267
G1 X132.003 Y83.447 E.03936
G1 X133.247 Y84.472 E.05054
G1 X134.338 Y85.7 E.05152
G1 X135.383 Y87.405 E.06268
G1 X135.978 Y88.919 E.05103
G1 X136.271 Y90.14 E.03936
G1 X136.423 Y91.693 E.04894
G1 X136.33 Y93.384 E.0531
G1 X135.863 Y95.328 E.06268
G1 X135.213 Y96.82 E.05103
G1 X134.338 Y98.192 E.05103
G1 X133.259 Y99.411 E.05103
G1 X132.305 Y100.226 E.03936
G1 X130.6 Y101.27 E.06268
G1 X129.086 Y101.866 E.05103
G1 X127.497 Y102.218 E.05103
G1 X126.245 Y102.316 E.03936
G1 X124.621 Y102.218 E.05103
G1 X122.677 Y101.751 E.06268
G1 X121.185 Y101.101 E.05103
G1 X119.812 Y100.226 E.05103
G1 X118.594 Y99.147 E.05103
G1 X117.779 Y98.192 E.03936
G1 X116.734 Y96.488 E.06268
G1 X116.139 Y94.973 E.05103
G1 X115.784 Y93.341 E.05237
G1 X115.689 Y91.76 E.04968
G1 X115.787 Y90.508 E.03936
G1 X116.254 Y88.564 E.06268
G1 X116.904 Y87.072 E.05103
G1 X117.497 Y86.104 E.0356
M204 S1000
; printing object drive_shaft.stl id:0 copy 0
;WIPE_START
G1 F8640
G1 X118.584 Y84.758 E-.39962
G1 X119.751 Y83.721 E-.36038
;WIPE_END
G1 E-.04 F2100
G1 Z.6 F720
G1 X127.506 Y85.985 F10800
G1 Z.2 F720
G1 E.8 F2100
M204 S800
;TYPE:Support material
G1 F1200
G1 X127.543 Y86.342 E.01125
G1 X127.517 Y86.572 E.00726
G1 X127.392 Y86.917 E.0115
G1 X127.349 Y87.127 E.00673
G1 X127.353 Y87.268 E.0044
G1 X127.396 Y87.447 E.00577
G1 X127.496 Y87.641 E.00685
G1 X127.63 Y87.787 E.00621
G1 X127.784 Y87.888 E.00577
G1 X128.156 Y88.067 E.01296
G1 X128.331 Y88.124 E.00577
G1 X128.531 Y88.138 E.00628
G1 X128.67 Y88.118 E.0044
G1 X128.857 Y88.047 E.00628
G1 X129.065 Y87.89 E.00816
G1 X129.35 Y87.455 E.01633
G1 X129.509 Y87.297 E.00703
G1 X129.748 Y87.136 E.00901
G1 X129.982 Y87.019 E.00823
G1 X129.949 Y87.204 E.00589
G1 X129.827 Y87.541 E.01125
G1 X129.705 Y87.738 E.00726
G1 X129.344 Y88.113 E.01633
G1 X129.255 Y88.293 E.00628
G1 X129.212 Y88.502 E.0067
G1 X129.233 Y88.748 E.00773
G1 X129.306 Y88.935 E.00628
G1 X129.613 Y89.34 E.01596
G1 X129.764 Y89.489 E.00664
G1 X129.883 Y89.563 E.0044
G1 X130.072 Y89.63 E.00628
G1 X130.348 Y89.64 E.00865
G1 X130.527 Y89.596 E.00577
G1 X130.973 Y89.328 E.01633
G1 X131.185 Y89.255 E.00703
G1 X131.469 Y89.213 E.00901
G1 X131.732 Y89.209 E.00823
G1 X131.621 Y89.361 E.00589
G1 X131.365 Y89.613 E.01125
G1 X131.17 Y89.736 E.00726
G1 X130.682 Y89.918 E.01633
G1 X130.523 Y90.041 E.00628
G1 X130.401 Y90.2 E.00628
G1 X130.321 Y90.383 E.00628
G1 X130.291 Y90.596 E.00672
G1 X130.307 Y90.765 E.00532
G1 X130.392 Y91.141 E.01209
G1 X130.438 Y91.285 E.00476
G1 X130.539 Y91.458 E.00628
G1 X130.691 Y91.609 E.00671
G1 X130.852 Y91.703 E.00585
G1 X131.104 Y91.768 E.00816
G1 X131.622 Y91.72 E.01633
G1 X131.845 Y91.745 E.00703
G1 X132.119 Y91.832 E.00901
G1 X132.358 Y91.942 E.00823
G1 X132.192 Y92.031 E.00589
G1 X131.852 Y92.146 E.01125
G1 X131.622 Y92.173 E.00726
G1 X131.104 Y92.125 E.01633
G1 X130.908 Y92.167 E.00628
G1 X130.729 Y92.257 E.00628
G1 X130.539 Y92.434 E.00816
G1 X130.438 Y92.607 E.00628
G1 X130.312 Y93.101 E.01596
G1 X130.29 Y93.311 E.00663
G1 X130.321 Y93.509 E.00628
G1 X130.372 Y93.64 E.0044
G1 X130.523 Y93.851 E.00816
G1 X130.682 Y93.974 E.00628
G1 X131.17 Y94.156 E.01633
G1 X131.359 Y94.276 E.00703
G1 X131.569 Y94.473 E.00901
G1 X131.736 Y94.675 E.00823
G1 X131.548 Y94.683 E.00589
G1 X131.192 Y94.64 E.01125
G1 X130.973 Y94.564 E.00726
G1 X130.527 Y94.296 E.01633
G1 X130.332 Y94.249 E.00628
G1 X130.132 Y94.252 E.00628
G1 X129.938 Y94.305 E.00628
G1 X129.754 Y94.413 E.00671
G1 X129.631 Y94.531 E.00534
G1 X129.39 Y94.832 E.01209
G1 X129.306 Y94.958 E.00475
G1 X129.233 Y95.145 E.00628
G1 X129.21 Y95.344 E.00628
G1 X129.237 Y95.542 E.00628
G1 X129.354 Y95.792 E.00865
G1 X129.705 Y96.155 E.01583
G1 X129.823 Y96.345 E.00703
G1 X129.927 Y96.613 E.00901
G1 X129.989 Y96.868 E.00823
G1 X129.817 Y96.794 E.00589
G1 X129.514 Y96.601 E.01125
G1 X129.35 Y96.437 E.00726
G1 X129.065 Y96.002 E.01633
G1 X128.91 Y95.875 E.00628
G1 X128.743 Y95.797 E.00577
G1 X128.531 Y95.755 E.00679
G1 X128.331 Y95.768 E.00628
G1 X128.156 Y95.825 E.00577
G1 X127.808 Y95.992 E.01209
G1 X127.63 Y96.106 E.00663
G1 X127.495 Y96.254 E.00628
G1 X127.4 Y96.43 E.00628
G1 X127.36 Y96.579 E.00483
G1 X127.355 Y96.825 E.00772
G1 X127.517 Y97.32 E.01633
G1 X127.542 Y97.543 E.00703
G1 X127.519 Y97.83 E.00901
G1 X127.465 Y98.086 E.00823
G1 X127.341 Y97.945 E.00589
G1 X127.153 Y97.639 E.01125
G1 X127.076 Y97.421 E.00726
G1 X127.007 Y96.905 E.01633
G1 X126.922 Y96.723 E.00628
G1 X126.785 Y96.559 E.00672
G1 X126.578 Y96.422 E.00776
G1 X126.389 Y96.363 E.00623
G1 X125.88 Y96.35 E.01596
G1 X125.67 Y96.376 E.00663
G1 X125.524 Y96.429 E.00485
G1 X125.367 Y96.529 E.00583
G1 X125.195 Y96.723 E.00816
G1 X125.106 Y96.921 E.00678
G1 X125.041 Y97.421 E.01582
G1 X124.967 Y97.632 E.00703
G1 X124.822 Y97.881 E.00901
G1 X124.661 Y98.088 E.00823
G1 X124.612 Y97.907 E.00589
G1 X124.574 Y97.55 E.01125
G1 X124.6 Y97.32 E.00726
G1 X124.762 Y96.825 E.01633
G1 X124.762 Y96.611 E.00671
G1 X124.717 Y96.43 E.00584
G1 X124.614 Y96.242 E.00672
G1 X124.485 Y96.104 E.00592
G1 X124.333 Y96.005 E.00569
G1 X123.986 Y95.837 E.01209
G1 X123.845 Y95.782 E.00475
G1 X123.647 Y95.753 E.00628
G1 X123.448 Y95.775 E.00628
G1 X123.26 Y95.845 E.00628
G1 X123.053 Y96.002 E.00816
G1 X122.767 Y96.437 E.01633
G1 X122.608 Y96.596 E.00703
G1 X122.369 Y96.756 E.00901
G1 X122.135 Y96.874 E.00823
G1 X122.169 Y96.689 E.00589
G1 X122.29 Y96.351 E.01125
G1 X122.413 Y96.155 E.00726
G1 X122.773 Y95.779 E.01633
G1 X122.862 Y95.6 E.00628
G1 X122.905 Y95.39 E.00671
G1 X122.884 Y95.145 E.00772
G1 X122.812 Y94.958 E.00628
G1 X122.504 Y94.552 E.01596
G1 X122.353 Y94.404 E.00664
G1 X122.234 Y94.33 E.0044
G1 X122.045 Y94.263 E.00628
G1 X121.769 Y94.252 E.00865
G1 X121.59 Y94.296 E.00577
G1 X121.144 Y94.564 E.01633
G1 X120.932 Y94.638 E.00703
G1 X120.648 Y94.679 E.00901
G1 X120.385 Y94.683 E.00823
G1 X120.496 Y94.532 E.00589
G1 X120.752 Y94.28 E.01125
G1 X120.948 Y94.156 E.00726
G1 X121.436 Y93.974 E.01633
G1 X121.603 Y93.841 E.00671
G1 X121.716 Y93.693 E.00585
G1 X121.799 Y93.495 E.00672
G1 X121.827 Y93.309 E.00591
G1 X121.81 Y93.128 E.00569
G1 X121.725 Y92.752 E.01209
G1 X121.679 Y92.607 E.00475
G1 X121.578 Y92.434 E.00628
G1 X121.437 Y92.292 E.00628
G1 X121.265 Y92.189 E.00628
G1 X121.013 Y92.125 E.00816
G1 X120.495 Y92.173 E.01633
G1 X120.272 Y92.147 E.00703
G1 X119.998 Y92.061 E.00901
G1 X119.76 Y91.951 E.00823
G1 X119.925 Y91.862 E.00589
G1 X120.265 Y91.746 E.01125
G1 X120.495 Y91.72 E.00726
G1 X121.013 Y91.768 E.01633
G1 X121.209 Y91.726 E.00628
G1 X121.4 Y91.628 E.00671
G1 X121.578 Y91.458 E.00772
G1 X121.679 Y91.285 E.00628
G1 X121.805 Y90.792 E.01596
G1 X121.827 Y90.581 E.00663
G1 X121.807 Y90.428 E.00484
G1 X121.745 Y90.253 E.00584
G1 X121.58 Y90.03 E.00869
G1 X121.434 Y89.917 E.00578
G1 X120.948 Y89.736 E.01628
G1 X120.758 Y89.617 E.00703
G1 X120.548 Y89.42 E.00901
G1 X120.381 Y89.217 E.00823
G1 X120.569 Y89.209 E.00589
G1 X120.925 Y89.252 E.01125
G1 X121.144 Y89.328 E.00726
G1 X121.59 Y89.596 E.01633
G1 X121.785 Y89.643 E.00628
G1 X121.986 Y89.64 E.00628
G1 X122.179 Y89.588 E.00628
G1 X122.364 Y89.48 E.00671
G1 X122.486 Y89.361 E.00534
G1 X122.727 Y89.06 E.01209
G1 X122.812 Y88.935 E.00475
G1 X122.884 Y88.748 E.00628
G1 X122.906 Y88.535 E.00672
G1 X122.879 Y88.348 E.00591
G1 X122.773 Y88.113 E.00808
G1 X122.413 Y87.738 E.01633
G1 X122.294 Y87.547 E.00703
G1 X122.19 Y87.279 E.00901
G1 X122.128 Y87.024 E.00823
G1 X122.3 Y87.098 E.00589
G1 X122.603 Y87.292 E.01125
G1 X122.767 Y87.455 E.00726
G1 X123.053 Y87.89 E.01633
G1 X123.208 Y88.017 E.00628
G1 X123.389 Y88.102 E.00628
G1 X123.586 Y88.138 E.00628
G1 X123.831 Y88.114 E.00772
G1 X124.309 Y87.901 E.01639
G1 X124.487 Y87.787 E.00664
G1 X124.586 Y87.687 E.0044
G1 X124.693 Y87.518 E.00628
G1 X124.764 Y87.268 E.00816
G1 X124.762 Y87.067 E.00628
G1 X124.6 Y86.572 E.01633
G1 X124.575 Y86.35 E.00703
G1 X124.598 Y86.063 E.00901
G1 X124.653 Y85.806 E.00823
G1 X124.776 Y85.948 E.00589
G1 X124.964 Y86.253 E.01125
G1 X125.041 Y86.472 E.00726
G1 X125.11 Y86.988 E.01633
G1 X125.221 Y87.208 E.00772
G1 X125.322 Y87.324 E.00483
G1 X125.484 Y87.443 E.00628
G1 X125.683 Y87.52 E.00671
G1 X125.852 Y87.541 E.00534
G1 X126.265 Y87.541 E.01296
G1 X126.448 Y87.517 E.00577
G1 X126.621 Y87.449 E.00584
G1 X126.795 Y87.324 E.00672
G1 X126.922 Y87.169 E.00628
G1 X127.002 Y87.001 E.00584
G1 X127.04 Y86.837 E.00529
G1 X127.076 Y86.472 E.0115
G1 X127.15 Y86.26 E.00703
G1 X127.296 Y86.012 E.00901
G1 X127.456 Y85.804 E.00823
G1 X127.491 Y85.931 E.00412
M204 S1000
;WIPE_START
G1 F8640
G1 X127.456 Y85.804 E-.03034
G1 X127.296 Y86.012 E-.06061
G1 X127.15 Y86.26 E-.06638
G1 X127.076 Y86.472 E-.05179
G1 X127.04 Y86.837 E-.08468
G1 X127.002 Y87.001 E-.03894
G1 X126.922 Y87.169 E-.04302
G1 X126.795 Y87.324 E-.04626
G1 X126.621 Y87.449 E-.0495
G1 X126.448 Y87.517 E-.04298
G1 X126.265 Y87.541 E-.0425
G1 X125.852 Y87.541 E-.09541
G1 X125.683 Y87.52 E-.03931
G1 X125.484 Y87.443 E-.04941
G1 X125.418 Y87.394 E-.01887
;WIPE_END
G1 E-.04 F2100
G1 Z.6 F720
G1 X130.248 Y92.64 F10800
G1 Z.2 F720
G1 E.8 F2100
M204 S800
G1 F1200
G1 X130.248 Y91.634 E.03155
G1 X130.122 Y91.411 E.00804
G1 X130.074 Y91.264 E.00486
G1 X129.981 Y90.866 E.0128
G1 X129.952 Y90.641 E.0071
G1 X129.997 Y90.281 E.0114
G1 X130.063 Y90.11 E.00574
G1 X130.14 Y89.981 E.00472
G1 X129.991 Y89.96 E.00472
G1 X129.829 Y89.909 E.00531
G1 X129.829 Y93.983 E.12773
G1 X129.59 Y94.112 E.00852
G1 X129.41 Y94.271 E.00753
G1 X129.41 Y89.621 E.1458
G1 X129.124 Y89.271 E.01419
G1 X128.991 Y89.065 E.00768
G1 X128.991 Y94.828 E.1807
G1 X128.885 Y95.156 E.01081
G1 X128.87 Y95.338 E.00574
G1 X128.883 Y95.488 E.00472
G1 X128.572 Y95.418 E.00999
G1 X128.572 Y88.475 E.21768
G1 X128.274 Y88.46 E.00938
G1 X128.153 Y88.428 E.0039
G1 X128.153 Y95.464 E.2206
G1 X127.734 Y95.653 E.01441
G1 X127.734 Y88.24 E.23243
G1 X127.485 Y88.104 E.00892
G1 X127.315 Y87.951 E.00714
G1 X127.315 Y95.941 E.25051
G1 X127.212 Y96.064 E.00504
G1 X127.12 Y96.222 E.00574
G1 X127.067 Y96.363 E.00472
G1 X126.897 Y96.218 E.007
G1 X126.897 Y87.675 E.26788
G1 X126.735 Y87.771 E.00589
M73 P1 R35
M73 Q1 S35
G1 X126.478 Y87.858 E.00853
G1 X126.478 Y96.035 E.25638
G1 X126.286 Y96.012 E.00603
G1 X126.059 Y96.014 E.00714
G1 X126.059 Y87.879 E.25508
G1 X125.831 Y87.88 E.00714
G1 X125.64 Y87.858 E.00603
G1 X125.64 Y96.035 E.25638
G1 X125.38 Y96.122 E.00857
G1 X125.221 Y96.218 E.00585
G1 X125.221 Y87.675 E.26788
G1 X125.051 Y87.53 E.007
G1 X124.997 Y87.67 E.00472
G1 X124.905 Y87.828 E.00574
G1 X124.802 Y87.951 E.00504
G1 X124.802 Y95.941 E.25051
G1 X124.631 Y95.787 E.0072
G1 X124.383 Y95.653 E.00886
G1 X124.383 Y88.24 E.23243
G1 X123.964 Y88.428 E.0144
G1 X123.964 Y95.464 E.22061
G1 X123.843 Y95.433 E.0039
G1 X123.545 Y95.418 E.00938
G1 X123.545 Y88.475 E.21768
G1 X123.377 Y88.45 E.0053
M73 P1 R34
G1 X123.234 Y88.405 E.00472
G1 X123.233 Y88.737 E.01042
G1 X123.126 Y89.065 E.01081
G1 X123.126 Y94.828 E.1807
G1 X122.993 Y94.622 E.00768
G1 X122.707 Y94.271 E.01419
G1 X122.707 Y89.621 E.1458
G1 X122.527 Y89.78 E.00753
G1 X122.288 Y89.909 E.00852
G1 X122.288 Y93.983 E.12773
G1 X122.126 Y93.933 E.00531
G1 X121.977 Y93.912 E.00472
G1 X122.054 Y93.782 E.00472
G1 X122.126 Y93.587 E.00652
G1 X122.165 Y93.225 E.01143
G1 X122.044 Y92.629 E.01908
G1 X121.995 Y92.482 E.00486
G1 X121.869 Y92.259 E.00804
G1 X121.869 Y91.252 E.03155
M204 S1000
;WIPE_START
G1 F8640
G1 X121.869 Y92.259 E-.23236
G1 X121.995 Y92.482 E-.0592
G1 X122.044 Y92.629 E-.0358
G1 X122.165 Y93.225 E-.14049
G1 X122.126 Y93.587 E-.08417
G1 X122.054 Y93.782 E-.04798
G1 X121.977 Y93.912 E-.03474
G1 X122.126 Y93.933 E-.03474
G1 X122.288 Y93.983 E-.03912
G1 X122.288 Y93.761 E-.05138
;WIPE_END
G1 E-.04 F2100
G1 Z.6 F720
G1 X130.984 Y95.875 F10800
G1 Z.2 F720
G1 E.8 F2100
M204 S800
;TYPE:Perimeter
G1 F1200
G1 X131.517 Y95.95 E.01685
G1 X132.052 Y95.925 E.0168
G1 X131.892 Y96.184 E.00954
G1 X131.27 Y96.915 E.03009
G1 X131.225 Y96.595 E.01013
G1 X131.129 Y96.222 E.01209
G1 X131.008 Y95.93 E.0099
M204 S1000
;WIPE_START
G1 F8640
G1 X131.517 Y95.95 E-.11763
G1 X132.052 Y95.925 E-.12375
G1 X131.892 Y96.184 E-.07027
G1 X131.27 Y96.915 E-.22156
G1 X131.225 Y96.595 E-.07458
G1 X131.129 Y96.222 E-.08906
G1 X131.024 Y95.969 E-.06315
;WIPE_END
G1 E-.04 F2100
G1 Z.6 F720
G1 X129.727 Y98.13 F10800
G1 Z.2 F720
G1 E.8 F2100
M204 S800
G1 F1200
G1 X129.332 Y98.371 E.01451
G1 X128.602 Y98.676 E.02481
G1 X128.696 Y98.376 E.00987
G1 X128.772 Y97.996 E.01213
G1 X128.79 Y97.62 E.01181
G1 X129.228 Y97.917 E.0166
G1 X129.672 Y98.107 E.01513
M204 S1000
;WIPE_START
G1 F8640
G1 X129.332 Y98.371 E-.09946
G1 X128.602 Y98.676 E-.1827
G1 X128.696 Y98.376 E-.07268
G1 X128.772 Y97.996 E-.08935
G1 X128.79 Y97.62 E-.08696
G1 X129.228 Y97.917 E-.12224
G1 X129.653 Y98.098 E-.10661
;WIPE_END
G1 E-.04 F2100
G1 Z.6 F720
G1 X126.683 Y99.109 F10800
G1 Z.2 F720
G1 E.8 F2100
M204 S800
G1 F1200
G1 X126.059 Y99.157 E.01964
G1 X125.436 Y99.11 E.01957
G1 X125.647 Y98.882 E.00972
G1 X125.878 Y98.576 E.01204
