; generated by PrusaSlicer 2.4.1+x64 on 2022-04-23 at 19:09:42 UTC

; 

; external perimeters extrusion width = 0.45mm
; perimeters extrusion width = 0.45mm
; infill extrusion width = 0.45mm
; solid infill extrusion width = 0.45mm
; top infill extrusion width = 0.40mm
; first layer extrusion width = 0.42mm

; external perimeters extrusion width = 0.45mm
; perimeters extrusion width = 0.45mm
; infill extrusion width = 0.45mm
; solid infill extrusion width = 0.45mm
; top infill extrusion width = 0.40mm
; first layer extrusion width = 0.42mm

M73 P0 R26
M73 Q0 S26
M201 X1000 Y1000 Z200 E5000 ; sets maximum accelerations, mm/sec^2
M203 X200 Y200 Z12 E120 ; sets maximum feedrates, mm / sec
M204 P1250 R1250 T1250 ; sets acceleration (P, T) and retract acceleration (R), mm/sec^2
M205 X8.00 Y8.00 Z0.40 E4.50 ; sets the jerk limits, mm/sec
M205 S0 T0 ; sets the minimum extruding and travel feed rate, mm/sec
M107
;TYPE:Custom
M862.3 P "MK3S" ; printer model check
M862.1 P0.4 ; nozzle diameter check
M115 U3.10.1 ; tell printer latest fw version
G90 ; use absolute coordinates
M83 ; extruder relative mode
M104 S215 ; set extruder temp
M140 S60 ; set bed temp
M190 S60 ; wait for bed temp
M109 S215 ; wait for extruder temp
G28 W ; home all without mesh bed level
G80 ; mesh bed leveling
G1 Z0.2 F720
G1 Y-3 F1000 ; go outside print area
G92 E0
G1 X60 E9 F1000 ; intro line
G1 X100 E12.5 F1000 ; intro line
G92 E0
M221 S95

; Don't change E values below. Excessive value can damage the printer.
M907 E430 ; set extruder motor current
G21 ; set units to millimeters
G90 ; use absolute coordinates
M83 ; use relative distances for extrusion
M900 K0.05 ; Filament gcode LA 1.5
M900 K30 ; Filament gcode LA 1.0
M107
;LAYER_CHANGE
;Z:0.2
;HEIGHT:0.2
;BEFORE_LAYER_CHANGE
G92 E0.0
;0.2


G1 E-.8 F2100
G1 Z.4 F720
;AFTER_LAYER_CHANGE
;0.2
G1 X102.01 Y105.672 F10800
G1 Z.2 F720
G1 E.8 F2100
M204 S800
;TYPE:Skirt/Brim
;WIDTH:0.42
G1 F1200
G1 X103.42 Y104.635 E.0549
G1 X105.309 Y103.739 E.06555
G1 X106.903 Y103.315 E.05171
G1 X108.101 Y103.169 E.03785
G1 X128.151 Y101.759 E.63021
G1 X129.829 Y101.925 E.05288
G1 X131.461 Y102.351 E.05288
G1 X133.006 Y103.028 E.05288
G1 X134.426 Y103.938 E.05288
G1 X135.686 Y105.059 E.05288
G1 X136.755 Y106.363 E.05288
G1 X137.607 Y107.819 E.05288
G1 X138.221 Y109.389 E.05288
G1 X138.582 Y111.037 E.05288
G1 X138.68 Y112.721 E.05288
G1 X138.514 Y114.399 E.05288
G1 X138.221 Y115.62 E.03936
G1 X137.634 Y117.127 E.05072
G1 X136.755 Y118.646 E.05502
G1 X135.686 Y119.95 E.05288
G1 X134.426 Y121.071 E.05288
G1 X133.006 Y121.981 E.05288
G1 X131.05 Y122.791 E.06638
G1 X129.402 Y123.152 E.05288
G1 X128.151 Y123.25 E.03936
G1 X108.101 Y123.625 E.62876
G1 X106.468 Y123.391 E.05171
G1 X105.309 Y123.055 E.03784
G1 X103.42 Y122.159 E.06555
G1 X102.084 Y121.193 E.05171
G1 X101.213 Y120.357 E.03785
G1 X99.957 Y118.685 E.06555
G1 X99.223 Y117.209 E.05171
G1 X98.84 Y116.064 E.03785
G1 X98.541 Y114.442 E.05171
G1 X98.505 Y112.794 E.05171
G1 X98.84 Y110.73 E.06555
G1 X99.396 Y109.178 E.05171
G1 X100.194 Y107.734 E.05171
G1 X100.919 Y106.769 E.03785
G1 X101.967 Y105.715 E.04661
M204 S1000
G1 X102.234 Y105.981 F10800
M204 S800
G1 F1200
G1 X103.634 Y104.946 E.05461
G1 X105.414 Y104.101 E.06176
G1 X106.948 Y103.689 E.04981
G1 X108.146 Y103.543 E.03785
G1 X128.121 Y102.135 E.62786
G1 X129.741 Y102.292 E.05103
G1 X131.317 Y102.7 E.05103
G1 X132.809 Y103.35 E.05103
G1 X134.181 Y104.225 E.05103
G1 X135.399 Y105.304 E.05103
G1 X136.434 Y106.56 E.05103
G1 X137.259 Y107.963 E.05103
G1 X137.855 Y109.477 E.05103
G1 X138.206 Y111.066 E.05103
G1 X138.305 Y112.691 E.05103
G1 X138.148 Y114.311 E.05103
G1 X137.739 Y115.886 E.05103
G1 X137.09 Y117.378 E.05103
G1 X136.434 Y118.449 E.03936
G1 X135.444 Y119.653 E.04886
G1 X134.181 Y120.784 E.05317
G1 X132.809 Y121.659 E.05103
G1 X130.962 Y122.424 E.06268
G1 X129.373 Y122.776 E.05103
G1 X128.121 Y122.874 E.03936
G1 X108.146 Y123.251 E.62641
G1 X106.573 Y123.029 E.04981
M73 P1 R26
M73 Q1 S26
G1 X105.414 Y122.693 E.03784
G1 X103.634 Y121.849 E.06176
G1 X102.345 Y120.921 E.04981
G1 X101.474 Y120.085 E.03785
G1 X100.291 Y118.51 E.06175
G1 X99.58 Y117.09 E.04981
G1 X99.198 Y115.945 E.03785
G1 X98.913 Y114.382 E.04981
G1 X98.882 Y112.794 E.04981
G1 X99.198 Y110.85 E.06175
G1 X99.73 Y109.353 E.04981
G1 X100.496 Y107.961 E.04981
G1 X101.221 Y106.996 E.03785
G1 X102.192 Y106.024 E.04308
M204 S1000
; printing object mod_point85.stl id:1 copy 0
;WIPE_START
G1 F8640
G1 X103.634 Y104.946 E-.4159
G1 X104.981 Y104.307 E-.3441
;WIPE_END
G1 E-.04 F2100
G1 Z.6 F720
G1 X132.861 Y116.433 F10800
G1 Z.2 F720
G1 E.8 F2100
M204 S800
;TYPE:Perimeter
G1 F1200
G1 X133.393 Y116.508 E.01685
G1 X133.928 Y116.483 E.0168
G1 X133.768 Y116.742 E.00954
G1 X133.146 Y117.473 E.03009
G1 X133.101 Y117.153 E.01012
G1 X133.005 Y116.78 E.0121
G1 X132.884 Y116.488 E.00991
M204 S1000
;WIPE_START
G1 F8640
G1 X133.393 Y116.508 E-.11763
G1 X133.928 Y116.483 E-.12373
G1 X133.768 Y116.742 E-.07027
G1 X133.146 Y117.473 E-.22156
G1 X133.101 Y117.153 E-.07455
G1 X133.005 Y116.78 E-.08907
G1 X132.9 Y116.527 E-.06319
;WIPE_END
G1 E-.04 F2100
G1 Z.6 F720
G1 X130.666 Y118.178 F10800
G1 Z.2 F720
G1 E.8 F2100
M204 S800
G1 F1200
G1 X131.104 Y118.475 E.0166
G1 X131.604 Y118.688 E.01701
G1 X131.208 Y118.929 E.01451
G1 X130.478 Y119.234 E.02481
G1 X130.573 Y118.934 E.00987
G1 X130.649 Y118.554 E.01214
G1 X130.664 Y118.238 E.00993
M204 S1000
;WIPE_START
G1 F8640
G1 X131.104 Y118.475 E-.11564
G1 X131.604 Y118.688 E-.1253
G1 X131.208 Y118.929 E-.10687
G1 X130.478 Y119.234 E-.1827
G1 X130.573 Y118.934 E-.07265
G1 X130.649 Y118.554 E-.0894
G1 X130.662 Y118.262 E-.06744
;WIPE_END
G1 E-.04 F2100
G1 Z.6 F720
G1 X127.935 Y118.805 F10800
G1 Z.2 F720
G1 E.8 F2100
M204 S800
G1 F1200
G1 X128.208 Y119.268 E.01687
G1 X128.559 Y119.668 E.01667
G1 X127.935 Y119.715 E.01964
G1 X127.312 Y119.668 E.01957
G1 X127.524 Y119.441 E.00972
G1 X127.755 Y119.134 E.01204
G1 X127.906 Y118.858 E.00988
M204 S1000
;WIPE_START
G1 F8640
G1 X128.208 Y119.268 E-.11778
G1 X128.559 Y119.668 E-.12274
G1 X127.935 Y119.715 E-.14467
G1 X127.312 Y119.668 E-.1441
G1 X127.524 Y119.441 E-.07159
G1 X127.755 Y119.134 E-.08868
G1 X127.901 Y118.866 E-.07044
;WIPE_END
G1 E-.04 F2100
G1 Z.6 F720
G1 X125.202 Y118.178 F10800
G1 Z.2 F720
G1 E.8 F2100
M204 S800
G1 F1200
G1 X125.244 Y118.708 E.01667
G1 X125.394 Y119.235 E.01718
G1 X124.661 Y118.929 E.02489
G1 X124.268 Y118.69 E.01444
G1 X124.556 Y118.576 E.00972
G1 X124.899 Y118.398 E.0121
G1 X125.154 Y118.213 E.00988
M204 S1000
;WIPE_START
G1 F8640
G1 X125.244 Y118.708 E-.11613
G1 X125.394 Y119.235 E-.12653
G1 X124.661 Y118.929 E-.1833
G1 X124.268 Y118.69 E-.10632
G1 X124.556 Y118.576 E-.0716
G1 X124.899 Y118.398 E-.08907
G1 X125.134 Y118.228 E-.06706
;WIPE_END
G1 E-.04 F2100
G1 Z.6 F720
G1 X121.943 Y116.485 F10800
G1 Z.2 F720
G1 E.8 F2100
M204 S800
G1 F1200
G1 X122.257 Y116.509 E.00987
G1 X122.64 Y116.497 E.01204
G1 X123.009 Y116.433 E.01174
G1 X122.817 Y116.938 E.01694
G1 X122.725 Y117.475 E.01708
G1 X122.101 Y116.742 E.03016
G1 X121.974 Y116.536 E.00759
M204 S1000
;WIPE_START
G1 F8640
G1 X122.257 Y116.509 E-.06553
G1 X122.64 Y116.497 E-.08865
G1 X123.009 Y116.433 E-.08643
G1 X122.817 Y116.938 E-.12477
G1 X122.725 Y117.475 E-.12576
G1 X122.101 Y116.742 E-.22214
G1 X121.995 Y116.57 E-.04674
;WIPE_END
G1 E-.04 F2100
G1 Z.6 F720
G1 X120.8 Y113.483 F10800
G1 Z.2 F720
G1 E.8 F2100
M204 S800
G1 F1200
G1 X121.08 Y113.647 E.01017
G1 X121.432 Y113.804 E.01208
G1 X121.794 Y113.907 E.01181
G1 X121.407 Y114.269 E.01661
G1 X121.077 Y114.732 E.01784
G1 X120.805 Y113.543 E.03826
M204 S1000
;WIPE_START
G1 F8640
G1 X121.08 Y113.647 E-.06789
G1 X121.432 Y113.804 E-.08896
G1 X121.794 Y113.907 E-.08698
G1 X121.407 Y114.269 E-.12232
G1 X121.077 Y114.732 E-.1314
G1 X120.823 Y113.624 E-.26245
;WIPE_END
G1 E-.04 F2100
G1 Z.6 F720
G1 X121.076 Y110.279 F10800
G1 Z.2 F720
G1 E.8 F2100
M204 S800
G1 F1200
G1 X121.263 Y110.558 E.01053
G1 X121.513 Y110.854 E.01216
G1 X121.796 Y111.103 E.01181
G1 X121.289 Y111.261 E.01667
G1 X120.8 Y111.528 E.01747
G1 X120.812 Y111.378 E.00472
G1 X121.062 Y110.337 E.03357
M204 S1000
;WIPE_START
G1 F8640
G1 X121.263 Y110.558 E-.06894
G1 X121.513 Y110.854 E-.08955
G1 X121.796 Y111.103 E-.08698
G1 X121.289 Y111.261 E-.12274
G1 X120.8 Y111.528 E-.12863
G1 X120.812 Y111.378 E-.03475
G1 X121.043 Y110.416 E-.22841
;WIPE_END
G1 E-.04 F2100
G1 Z.6 F720
G1 X121.941 Y108.526 F10800
G1 Z.2 F720
G1 E.8 F2100
M204 S800
G1 F1200
G1 X122.101 Y108.266 E.00954
G1 X122.723 Y107.536 E.03008
G1 X122.769 Y107.856 E.01012
G1 X122.864 Y108.229 E.0121
G1 X123.009 Y108.576 E.01179
G1 X122.477 Y108.501 E.01685
G1 X122.001 Y108.523 E.01492
M204 S1000
;WIPE_START
G1 F8640
G1 X122.101 Y108.266 E-.06351
G1 X122.723 Y107.536 E-.22155
G1 X122.769 Y107.856 E-.07455
G1 X122.864 Y108.229 E-.08907
G1 X123.009 Y108.576 E-.0868
G1 X122.477 Y108.501 E-.1241
G1 X122.042 Y108.521 E-.10041
;WIPE_END
G1 E-.04 F2100
G1 Z.6 F720
G1 X124.266 Y106.321 F10800
G1 Z.2 F720
G1 E.8 F2100
M204 S800
G1 F1200
G1 X124.661 Y106.08 E.01451
G1 X125.391 Y105.775 E.02481
G1 X125.297 Y106.075 E.00987
G1 X125.221 Y106.455 E.01214
G1 X125.203 Y106.831 E.01181
G1 X124.765 Y106.533 E.0166
G1 X124.321 Y106.344 E.01513
M204 S1000
;WIPE_START
G1 F8640
G1 X124.661 Y106.08 E-.09946
G1 X125.391 Y105.775 E-.1827
G1 X125.297 Y106.075 E-.07265
G1 X125.221 Y106.455 E-.0894
G1 X125.203 Y106.831 E-.08695
G1 X124.765 Y106.533 E-.12227
G1 X124.341 Y106.352 E-.10657
;WIPE_END
G1 E-.04 F2100
G1 Z.6 F720
G1 X127.31 Y105.341 F10800
G1 Z.2 F720
G1 E.8 F2100
M204 S800
G1 F1200
G1 X127.934 Y105.294 E.01962
G1 X128.556 Y105.342 E.01957
G1 X128.346 Y105.568 E.00969
G1 X128.115 Y105.875 E.01204
G1 X127.932 Y106.208 E.01191
G1 X127.67 Y105.75 E.01655
G1 X127.35 Y105.386 E.01519
M204 S1000
;WIPE_START
G1 F8640
G1 X127.934 Y105.294 E-.13661
G1 X128.556 Y105.342 E-.14415
G1 X128.346 Y105.568 E-.07138
G1 X128.115 Y105.875 E-.08868
G1 X127.932 Y106.208 E-.08771
G1 X127.67 Y105.75 E-.12186
G1 X127.356 Y105.394 E-.10961
;WIPE_END
G1 E-.04 F2100
G1 Z.6 F720
G1 X130.125 Y107.681 F10800
M73 P1 R25
G1 Z.2 F720
G1 E.8 F2100
M204 S800
;TYPE:External perimeter
G1 F1200
G1 X130.348 Y107.788 E.00774
G1 X130.819 Y107.183 E.02406
G1 X131.17 Y106.932 E.01352
G1 X131.469 Y106.777 E.01058
G1 X132.024 Y106.558 E.0187
G1 X132.819 Y107.203 E.03209
G1 X132.686 Y107.977 E.02462
G1 X132.586 Y108.268 E.00965
G1 X132.465 Y108.534 E.00915
G1 X131.994 Y109.106 E.02324
G1 X132.149 Y109.296 E.0077
G1 X132.844 Y108.962 E.02419
G1 X133.267 Y108.888 E.01348
G1 X133.605 Y108.878 E.01058
G1 X134.199 Y108.922 E.01869
G1 X134.636 Y109.847 E.03208
G1 X134.177 Y110.49 E.02477
G1 X133.766 Y110.875 E.01768
G1 X133.072 Y111.21 E.02415
G1 X133.126 Y111.451 E.00774
G1 X133.894 Y111.442 E.02406
G1 X134.309 Y111.56 E.01352
G1 X134.617 Y111.698 E.01059
G1 X135.128 Y111.997 E.01858
G1 X135.128 Y113.019 E.03204
G1 X134.433 Y113.399 E.02484
G1 X133.895 Y113.567 E.01767
G1 X133.124 Y113.567 E.02418
G1 X133.066 Y113.805 E.00769
G1 X133.742 Y114.117 E.02332
G1 X134.087 Y114.419 E.01437
G1 X134.305 Y114.678 E.01062
G1 X134.633 Y115.168 E.0185
G1 X134.196 Y116.094 E.03208
G1 X133.405 Y116.13 E.02483
G1 X133.099 Y116.097 E.00963
G1 X132.814 Y116.038 E.00914
G1 X132.155 Y115.707 E.02313
G1 X132.001 Y115.9 E.00773
G1 X132.481 Y116.502 E.02416
G1 X132.647 Y116.9 E.01349
G1 X132.731 Y117.227 E.01059
G1 X132.813 Y117.811 E.01848
G1 X132.019 Y118.455 E.03209
G1 X131.286 Y118.143 E.02497
G1 X130.82 Y117.827 E.01766
G1 X130.339 Y117.224 E.02418
G1 X130.117 Y117.328 E.00769
G1 X130.295 Y118.05 E.02332
G1 X130.273 Y118.508 E.01437
G1 X130.207 Y118.84 E.01061
G1 X130.029 Y119.404 E.01853
G1 X129.033 Y119.635 E.03207
G1 X128.511 Y119.042 E.02477
G1 X128.347 Y118.782 E.00964
G1 X128.214 Y118.522 E.00914
G1 X128.062 Y117.801 E.02313
G1 X127.816 Y117.801 E.00773
G1 X127.644 Y118.552 E.02416
G1 X127.437 Y118.929 E.01349
G1 X127.234 Y119.198 E.01058
G1 X126.829 Y119.633 E.01863
G1 X125.833 Y119.402 E.03207
G1 X125.617 Y118.641 E.0248
G1 X125.573 Y118.079 E.01768
G1 X125.744 Y117.327 E.02419
G1 X125.524 Y117.218 E.00769
G1 X125.071 Y117.807 E.02332
G1 X124.7 Y118.077 E.01437
G1 X124.4 Y118.232 E.0106
G1 X123.848 Y118.45 E.01859
G1 X123.051 Y117.804 E.03218
G1 X123.184 Y117.032 E.02456
G1 X123.284 Y116.741 E.00965
G1 X123.404 Y116.475 E.00915
G1 X123.876 Y115.903 E.02324
G1 X123.721 Y115.713 E.0077
G1 X123.026 Y116.047 E.02419
G1 X122.602 Y116.121 E.01348
G1 X122.265 Y116.131 E.01058
G1 X121.671 Y116.087 E.01869
G1 X121.233 Y115.162 E.03208
G1 X121.692 Y114.519 E.02477
G1 X122.104 Y114.133 E.01768
G1 X122.798 Y113.799 E.02415
G1 X122.743 Y113.558 E.00774
G1 X121.976 Y113.567 E.02406
G1 X121.561 Y113.449 E.01352
G1 X121.252 Y113.311 E.01059
G1 X120.741 Y113.012 E.01858
G1 X120.741 Y111.99 E.03204
G1 X121.437 Y111.61 E.02484
G1 X121.975 Y111.442 E.01767
G1 X122.746 Y111.442 E.02418
G1 X122.803 Y111.203 E.00769
G1 X122.127 Y110.892 E.02333
G1 X121.783 Y110.59 E.01437
G1 X121.565 Y110.331 E.01062
G1 X121.237 Y109.84 E.0185
G1 X121.674 Y108.915 E.03208
G1 X122.465 Y108.879 E.02483
G1 X122.77 Y108.912 E.00963
G1 X123.056 Y108.971 E.00914
G1 X123.715 Y109.302 E.02313
G1 X123.868 Y109.109 E.00773
G1 X123.388 Y108.507 E.02416
G1 X123.223 Y108.109 E.01349
G1 X123.139 Y107.782 E.01059
G1 X123.056 Y107.198 E.01849
G1 X123.851 Y106.553 E.03209
G1 X124.584 Y106.866 E.02497
G1 X125.049 Y107.182 E.01766
G1 X125.53 Y107.785 E.02418
G1 X125.752 Y107.681 E.00769
G1 X125.575 Y106.959 E.02332
G1 X125.596 Y106.501 E.01437
G1 X125.663 Y106.169 E.01061
G1 X125.84 Y105.607 E.01848
G1 X126.838 Y105.376 E.03213
G1 X127.361 Y105.971 E.02484
G1 X127.654 Y106.481 E.01846
G1 X127.808 Y107.212 E.02341
G1 X128.054 Y107.209 E.0077
G1 X128.226 Y106.457 E.02419
G1 X128.433 Y106.08 E.01349
G1 X128.635 Y105.811 E.01058
G1 X129.04 Y105.376 E.01863
G1 X130.036 Y105.607 E.03207
G1 X130.252 Y106.368 E.02481
G1 X130.297 Y106.93 E.01768
G1 X130.139 Y107.623 E.02227
M204 S1000
G1 X130.368 Y107.634 F10800
G1 X130.667 Y106.829
M204 S800
;TYPE:Perimeter
G1 F1200
G1 X130.625 Y106.301 E.01659
G1 X130.476 Y105.774 E.01718
G1 X131.208 Y106.08 E.02489
G1 X131.602 Y106.319 E.01444
G1 X131.313 Y106.433 E.00972
G1 X130.972 Y106.61 E.01203
G1 X130.716 Y106.794 E.0099
M204 S1000
;WIPE_START
G1 F8640
G1 X130.625 Y106.301 E-.11561
G1 X130.476 Y105.774 E-.12653
G1 X131.208 Y106.08 E-.18329
G1 X131.602 Y106.319 E-.10632
G1 X131.313 Y106.433 E-.07159
G1 X130.972 Y106.61 E-.08861
G1 X130.733 Y106.781 E-.06805
;WIPE_END
G1 E-.04 F2100
G1 Z.6 F720
G1 X132.86 Y108.576 F10800
G1 Z.2 F720
G1 E.8 F2100
M204 S800
G1 F1200
G1 X133.052 Y108.071 E.01694
G1 X133.145 Y107.534 E.01708
G1 X133.768 Y108.266 E.03017
G1 X133.927 Y108.524 E.00947
G1 X133.613 Y108.5 E.00987
G1 X133.229 Y108.512 E.01204
G1 X132.92 Y108.566 E.00985
M204 S1000
;WIPE_START
G1 F8640
G1 X133.052 Y108.071 E-.11831
G1 X133.145 Y107.534 E-.12581
G1 X133.768 Y108.266 E-.22216
G1 X133.927 Y108.524 E-.06975
G1 X133.613 Y108.5 E-.07269
G1 X133.229 Y108.512 E-.08865
G1 X132.962 Y108.558 E-.06264
;WIPE_END
G1 E-.04 F2100
G1 Z.6 F720
G1 X134.076 Y111.102 F10800
G1 Z.2 F720
G1 E.8 F2100
M204 S800
G1 F1200
G1 X134.462 Y110.74 E.01661
G1 X134.793 Y110.277 E.01784
G1 X135.057 Y111.378 E.03552
G1 X135.07 Y111.526 E.00465
G1 X134.79 Y111.362 E.01017
G1 X134.438 Y111.205 E.01208
G1 X134.133 Y111.118 E.00993
M204 S1000
;WIPE_START
G1 F8640
G1 X134.462 Y110.74 E-.11579
G1 X134.793 Y110.277 E-.1314
G1 X135.057 Y111.378 E-.26159
G1 X135.07 Y111.526 E-.03422
G1 X134.79 Y111.362 E-.07489
G1 X134.438 Y111.205 E-.08896
G1 X134.217 Y111.142 E-.05314
;WIPE_END
G1 E-.04 F2100
G1 Z.6 F720
G1 X134.073 Y113.906 F10800
G1 Z.2 F720
G1 E.8 F2100
M204 S800
G1 F1200
G1 X134.581 Y113.748 E.01667
G1 X135.07 Y113.481 E.01747
G1 X135.057 Y113.631 E.00472
G1 X134.793 Y114.73 E.03546
G1 X134.607 Y114.451 E.01053
G1 X134.357 Y114.155 E.01216
G1 X134.119 Y113.946 E.00993
M204 S1000
;WIPE_START
G1 F8640
G1 X134.581 Y113.748 E-.11613
G1 X135.07 Y113.481 E-.12863
G1 X135.057 Y113.631 E-.03475
G1 X134.793 Y114.73 E-.2611
G1 X134.607 Y114.451 E-.07758
