; generated by PrusaSlicer 2.4.1+x64 on 2022-05-06 at 18:17:21 UTC

; 

; external perimeters extrusion width = 0.45mm
; perimeters extrusion width = 0.45mm
; infill extrusion width = 0.45mm
; solid infill extrusion width = 0.45mm
; top infill extrusion width = 0.40mm
; support material extrusion width = 0.35mm
; first layer extrusion width = 0.42mm

M73 P0 R29
M73 Q0 S29
M201 X1000 Y1000 Z200 E5000 ; sets maximum accelerations, mm/sec^2
M203 X200 Y200 Z12 E120 ; sets maximum feedrates, mm / sec
M204 P1250 R1250 T1250 ; sets acceleration (P, T) and retract acceleration (R), mm/sec^2
M205 X8.00 Y8.00 Z0.40 E4.50 ; sets the jerk limits, mm/sec
M205 S0 T0 ; sets the minimum extruding and travel feed rate, mm/sec
M107
;TYPE:Custom
M862.3 P "MK3S" ; printer model check
M862.1 P0.4 ; nozzle diameter check
M115 U3.10.1 ; tell printer latest fw version
G90 ; use absolute coordinates
M83 ; extruder relative mode
M104 S210 ; set extruder temp
M140 S60 ; set bed temp
M190 S60 ; wait for bed temp
M109 S210 ; wait for extruder temp
G28 W ; home all without mesh bed level
G80 ; mesh bed leveling
G1 Z0.2 F720
G1 Y-3 F1000 ; go outside print area
G92 E0
G1 X60 E9 F1000 ; intro line
G1 X100 E12.5 F1000 ; intro line
G92 E0
M221 S95

; Don't change E values below. Excessive value can damage the printer.

G21 ; set units to millimeters
G90 ; use absolute coordinates
M83 ; use relative distances for extrusion
M900 K0.05 ; Filament gcode LA 1.5
M900 K30 ; Filament gcode LA 1.0
M107
;LAYER_CHANGE
;Z:0.2
;HEIGHT:0.2
;BEFORE_LAYER_CHANGE
G92 E0.0
;0.2


G1 E-.8 F2100
G1 Z.4 F720
;AFTER_LAYER_CHANGE
;0.2
G1 X100.095 Y84.799 F10800
G1 Z.2 F720
G1 E.8 F2100
M204 S800
;TYPE:Skirt/Brim
;WIDTH:0.42
G1 F1200
G1 X104.799 Y80.095 E.20859
G1 X106.48 Y79.398 E.05704
G1 X143.318 Y79.398 E1.15505
G1 X144.953 Y80.049 E.05516
G1 X149.905 Y84.799 E.21515
G1 X150.602 Y86.48 E.05704
G1 X150.602 Y123.52 E1.16138
G1 X149.905 Y125.201 E.05704
G1 X147.436 Y127.667 E.10941
G1 X144.927 Y129.974 E.10687
G1 X143.318 Y130.602 E.05415
G1 X106.682 Y130.602 E1.14873
G1 X105.047 Y129.951 E.05516
G1 X100.095 Y125.201 E.21515
G1 X99.398 Y123.52 E.05704
G1 X99.398 Y86.48 E1.16138
G1 X100.072 Y84.854 E.05516
M204 S1000
;WIPE_START
G1 F8640
G1 X102.391 Y82.519 E-.76
;WIPE_END
G1 E-.04 F2100
G1 Z.6 F720
G1 X108.5 Y92.013 F10800
G1 Z.2 F720
G1 E.8 F2100
M204 S800
G1 F1200
G1 X109.721 Y90.574 E.05918
G1 X111.321 Y89.049 E.06928
G1 X113.124 Y87.665 E.07126
G1 X115.049 Y86.493 E.07067
G1 X117.087 Y85.534 E.07061
M73 Q1 S29
G1 X119.239 Y84.792 E.07139
M73 P1 R29
G1 X121.739 Y84.241 E.08026
G1 X123.897 Y84.016 E.06804
G1 X126.084 Y84.015 E.06857
G1 X128.322 Y84.251 E.07057
G1 X130.525 Y84.726 E.07066
G1 X132.664 Y85.435 E.07064
M73 P1 R28
G1 X134.717 Y86.368 E.07071
G1 X136.912 Y87.689 E.08033
G1 X138.716 Y89.081 E.07145
G1 X140.356 Y90.656 E.0713
G1 X141.802 Y92.382 E.07059
G1 X143.045 Y94.234 E.06994
G1 X144.085 Y96.208 E.06996
G1 X144.916 Y98.3 E.07059
G1 X145.514 Y100.449 E.06995
G1 X145.883 Y102.67 E.07059
G1 X146.013 Y104.898 E.06997
G1 X145.905 Y107.13 E.07007
G1 X145.49 Y109.658 E.08033
G1 X144.865 Y111.85 E.07145
G1 X144.009 Y113.955 E.07127
G1 X142.964 Y115.901 E.06926
G1 X141.721 Y117.726 E.06924
G1 X140.292 Y119.411 E.06926
G1 X138.695 Y120.937 E.06928
G1 X136.893 Y122.323 E.07126
G1 X134.951 Y123.507 E.07132
G1 X132.913 Y124.466 E.07062
G1 X130.761 Y125.208 E.07139
G1 X128.262 Y125.759 E.08024
G1 X126.124 Y125.983 E.06739
G1 X123.959 Y125.987 E.0679
G1 X121.7 Y125.752 E.0712
G1 X119.496 Y125.279 E.07067
G1 X117.337 Y124.566 E.0713
G1 X115.283 Y123.632 E.07073
G1 X113.088 Y122.311 E.08033
G1 X111.284 Y120.919 E.07145
G1 X109.644 Y119.344 E.0713
G1 X108.198 Y117.618 E.07059
G1 X106.955 Y115.766 E.06994
G1 X105.915 Y113.792 E.06996
G1 X105.084 Y111.7 E.07059
G1 X104.486 Y109.551 E.06995
G1 X104.117 Y107.33 E.07059
G1 X103.987 Y105.102 E.06997
G1 X104.095 Y102.87 E.07007
G1 X104.51 Y100.342 E.08033
G1 X105.135 Y98.15 E.07145
G1 X105.991 Y96.045 E.07127
G1 X107.047 Y94.081 E.06989
G1 X108.291 Y92.258 E.06924
G1 X108.461 Y92.058 E.00819
M204 S1000
G1 X108.748 Y92.302 F10800
M204 S800
G1 F1200
G1 X109.989 Y90.84 E.06013
G1 X111.574 Y89.329 E.06865
G1 X113.345 Y87.971 E.06999
G1 X115.236 Y86.82 E.0694
G1 X117.238 Y85.88 E.06935
G1 X119.352 Y85.152 E.07009
G1 X121.789 Y84.615 E.07824
G1 X123.927 Y84.392 E.0674
G1 X126.074 Y84.392 E.06733
G1 X128.272 Y84.625 E.06931
G1 X130.435 Y85.093 E.06939
G1 X132.536 Y85.789 E.06938
G1 X134.55 Y86.707 E.06942
G1 X136.69 Y87.995 E.0783
G1 X138.462 Y89.36 E.07015
G1 X140.074 Y90.907 E.07002
G1 X141.495 Y92.6 E.06932
G1 X142.716 Y94.419 E.06868
G1 X143.738 Y96.357 E.0687
G1 X144.556 Y98.411 E.06933
G1 X145.144 Y100.521 E.06869
G1 X145.508 Y102.702 E.06932
G1 X145.636 Y104.91 E.06933
G1 X145.529 Y107.101 E.06879
G1 X145.125 Y109.566 E.07831
G1 X144.512 Y111.717 E.07015
G1 X143.672 Y113.786 E.07
G1 X142.647 Y115.697 E.06801
G1 X141.427 Y117.49 E.06799
G1 X140.011 Y119.16 E.06863
G1 X138.442 Y120.658 E.06802
G1 X136.672 Y122.018 E.06999
G1 X134.764 Y123.18 E.07004
G1 X132.762 Y124.12 E.06934
G1 X130.648 Y124.848 E.07009
G1 X128.212 Y125.385 E.07823
G1 X126.094 Y125.607 E.06675
G1 X123.968 Y125.61 E.06667
G1 X121.749 Y125.378 E.06995
G1 X119.585 Y124.913 E.0694
G1 X117.465 Y124.211 E.07003
G1 X115.45 Y123.293 E.06944
G1 X113.31 Y122.005 E.0783
G1 X111.538 Y120.64 E.07015
G1 X109.926 Y119.093 E.07002
G1 X108.505 Y117.4 E.06932
G1 X107.284 Y115.581 E.06868
G1 X106.262 Y113.643 E.0687
G1 X105.444 Y111.589 E.06933
G1 X104.856 Y109.479 E.06869
G1 X104.492 Y107.298 E.06932
G1 X104.364 Y105.09 E.06933
G1 X104.471 Y102.899 E.06879
G1 X104.875 Y100.434 E.07831
G1 X105.488 Y98.283 E.07015
G1 X106.328 Y96.214 E.07
G1 X107.364 Y94.285 E.06864
G1 X108.585 Y92.494 E.06799
G1 X108.709 Y92.348 E.006
M204 S1000
G1 X108.997 Y92.592 F10800
M204 S800
G1 F1200
G1 X110.257 Y91.106 E.06108
G1 X111.811 Y89.622 E.06739
G1 X113.55 Y88.287 E.06872
G1 X115.423 Y87.148 E.06876
G1 X117.389 Y86.225 E.06807
G1 X119.464 Y85.512 E.0688
G1 X121.839 Y84.989 E.07624
G1 X123.936 Y84.769 E.06614
G1 X126.064 Y84.769 E.0667
G1 X128.222 Y84.999 E.06805
G1 X130.346 Y85.459 E.06812
G1 X132.407 Y86.144 E.06811
G1 X134.384 Y87.046 E.06813
G1 X136.469 Y88.3 E.07628
G1 X138.209 Y89.64 E.06885
G1 X139.792 Y91.157 E.06875
G1 X141.188 Y92.819 E.06805
G1 X142.398 Y94.62 E.06805
G1 X143.4 Y96.523 E.06743
G1 X144.202 Y98.541 E.06807
G1 X144.778 Y100.613 E.06743
G1 X145.134 Y102.754 E.06806
G1 X145.259 Y104.921 E.06807
G1 X145.153 Y107.072 E.06751
G1 X144.759 Y109.473 E.0763
G1 X144.159 Y111.585 E.06885
G1 X143.335 Y113.617 E.06873
G1 X142.329 Y115.494 E.06676
G1 X141.121 Y117.27 E.06736
G1 X139.73 Y118.908 E.06738
G1 X138.189 Y120.378 E.06677
G1 X136.45 Y121.713 E.06873
G1 X134.577 Y122.852 E.06876
G1 X132.611 Y123.775 E.06807
G1 X130.536 Y124.488 E.0688
G1 X128.162 Y125.011 E.07623
G1 X126.084 Y125.23 E.0655
G1 X123.978 Y125.233 E.06605
G1 X121.799 Y125.004 E.06869
G1 X119.675 Y124.546 E.06813
G1 X117.593 Y123.856 E.06875
G1 X115.616 Y122.954 E.06815
G1 X113.531 Y121.7 E.07628
G1 X111.791 Y120.36 E.06885
G1 X110.208 Y118.843 E.06875
M73 Q1 S28
G1 X108.812 Y117.181 E.06805
G1 X107.602 Y115.38 E.06805
M73 P2 R28
M73 Q2 S28
G1 X106.6 Y113.477 E.06743
G1 X105.798 Y111.459 E.06807
G1 X105.222 Y109.387 E.06743
G1 X104.866 Y107.246 E.06806
G1 X104.741 Y105.079 E.06807
G1 X104.847 Y102.928 E.06751
G1 X105.241 Y100.527 E.0763
G1 X105.841 Y98.415 E.06885
G1 X106.665 Y96.383 E.06873
G1 X107.681 Y94.489 E.06739
G1 X108.958 Y92.638 E.07053
M204 S1000
G1 X109.246 Y92.881 F10800
M204 S800
G1 F1200
G1 X110.538 Y91.357 E.06264
G1 X112.064 Y89.902 E.06613
G1 X113.771 Y88.593 E.06745
G1 X115.61 Y87.475 E.06748
G1 X117.539 Y86.571 E.0668
G1 X119.576 Y85.872 E.06751
G1 X121.889 Y85.363 E.07424
G1 X123.947 Y85.146 E.06488
G1 X126.034 Y85.145 E.06546
G1 X128.152 Y85.37 E.06678
G1 X130.256 Y85.826 E.06748
G1 X132.278 Y86.498 E.06683
G1 X134.218 Y87.384 E.06685
G1 X136.247 Y88.605 E.07427
G1 X137.955 Y89.919 E.06756
G1 X139.51 Y91.408 E.06747
G1 X140.88 Y93.038 E.06679
G1 X142.069 Y94.805 E.06678
G1 X143.054 Y96.672 E.06617
G1 X143.841 Y98.652 E.0668
G1 X144.412 Y100.704 E.06679
G1 X144.76 Y102.805 E.06679
G1 X144.882 Y104.932 E.0668
G1 X144.777 Y107.042 E.06623
G1 X144.393 Y109.38 E.07429
G1 X143.805 Y111.453 E.06756
G1 X142.998 Y113.448 E.06747
G1 X142.012 Y115.29 E.06551
G1 X140.826 Y117.034 E.06611
G1 X139.463 Y118.642 E.06612
G1 X137.936 Y120.098 E.06614
G1 X136.229 Y121.407 E.06746
G1 X134.39 Y122.525 E.06748
G1 X132.461 Y123.429 E.0668
G1 X130.424 Y124.128 E.06751
G1 X128.112 Y124.637 E.07423
G1 X126.054 Y124.854 E.06486
G1 X123.987 Y124.856 E.06481
G1 X121.849 Y124.63 E.06743
G1 X119.764 Y124.18 E.06685
G1 X117.722 Y123.502 E.06748
G1 X115.782 Y122.616 E.06686
G1 X113.753 Y121.395 E.07427
G1 X112.045 Y120.081 E.06756
G1 X110.49 Y118.592 E.06747
G1 X109.12 Y116.962 E.06679
G1 X107.931 Y115.195 E.06678
G1 X106.946 Y113.328 E.06617
G1 X106.159 Y111.348 E.0668
G1 X105.588 Y109.296 E.06679
G1 X105.24 Y107.195 E.06679
G1 X105.118 Y105.068 E.0668
G1 X105.223 Y102.958 E.06623
G1 X105.607 Y100.62 E.07429
G1 X106.195 Y98.547 E.06756
G1 X107.002 Y96.552 E.06746
G1 X107.998 Y94.693 E.06613
G1 X109.207 Y92.927 E.0671
M204 S1000
G1 X109.494 Y93.17 F10800
M204 S800
G1 F1200
G1 X110.819 Y91.609 E.06421
G1 X112.317 Y90.182 E.06487
G1 X113.992 Y88.898 E.06618
G1 X115.797 Y87.803 E.0662
G1 X117.69 Y86.917 E.06552
G1 X119.688 Y86.233 E.06622
G1 X121.939 Y85.737 E.07225
G1 X123.976 Y85.522 E.06424
G1 X126.024 Y85.522 E.06421
G1 X128.102 Y85.744 E.06552
G1 X130.166 Y86.192 E.06621
G1 X132.149 Y86.853 E.06556
G1 X134.051 Y87.723 E.06557
G1 X136.026 Y88.911 E.07227
G1 X137.702 Y90.199 E.06626
G1 X139.228 Y91.658 E.0662
G1 X140.573 Y93.257 E.06552
G1 X141.74 Y94.99 E.06552
G1 X142.715 Y96.839 E.06554
G1 X143.487 Y98.781 E.06553
G1 X144.046 Y100.795 E.06552
G1 X144.387 Y102.857 E.06552
G1 X144.505 Y104.944 E.06554
G1 X144.401 Y107.013 E.06496
G1 X144.028 Y109.288 E.07229
G1 X143.452 Y111.321 E.06626
G1 X142.66 Y113.279 E.0662
G1 X141.684 Y115.103 E.06488
G1 X140.52 Y116.813 E.06486
G1 X139.182 Y118.391 E.06487
G1 X137.683 Y119.818 E.06488
G1 X136.008 Y121.102 E.06619
G1 X134.203 Y122.197 E.0662
G1 X132.31 Y123.083 E.06552
G1 X130.312 Y123.767 E.06622
G1 X128.061 Y124.263 E.07225
G1 X126.044 Y124.477 E.06361
G1 X123.997 Y124.479 E.06419
G1 X121.898 Y124.256 E.06616
G1 X119.854 Y123.814 E.06558
G1 X117.851 Y123.147 E.06621
G1 X115.949 Y122.277 E.06557
G1 X113.974 Y121.089 E.07227
G1 X112.298 Y119.801 E.06626
G1 X110.772 Y118.342 E.0662
G1 X109.427 Y116.743 E.06552
G1 X108.26 Y115.01 E.06552
G1 X107.285 Y113.161 E.06554
G1 X106.513 Y111.219 E.06553
G1 X105.954 Y109.205 E.06552
G1 X105.613 Y107.143 E.06552
G1 X105.495 Y105.056 E.06554
G1 X105.599 Y102.987 E.06496
G1 X105.972 Y100.712 E.07229
G1 X106.548 Y98.679 E.06626
G1 X107.339 Y96.721 E.06619
G1 X108.316 Y94.897 E.06487
G1 X109.458 Y93.219 E.06366
M204 S1000
G1 X109.769 Y93.43 F10800
M204 S800
G1 F1200
G1 X111.1 Y91.861 E.06451
G1 X112.569 Y90.462 E.06361
G1 X114.213 Y89.204 E.06491
G1 X115.984 Y88.131 E.06493
G1 X117.84 Y87.263 E.06425
G1 X119.8 Y86.593 E.06494
G1 X121.989 Y86.111 E.07027
G1 X123.986 Y85.899 E.06298
G1 X126.014 Y85.899 E.06358
G1 X128.052 Y86.117 E.06426
G1 X130.075 Y86.558 E.06493
G1 X132.02 Y87.207 E.06429
G1 X133.885 Y88.061 E.06429
G1 X135.805 Y89.217 E.07028
G1 X137.449 Y90.478 E.06497
G1 X138.946 Y91.909 E.06492
G1 X140.266 Y93.476 E.06425
G1 X141.412 Y95.175 E.06425
G1 X142.369 Y96.988 E.06427
G1 X143.126 Y98.892 E.06426
G1 X143.676 Y100.867 E.06426
G1 X144.011 Y102.888 E.06425
G1 X144.127 Y104.935 E.06427
G1 X144.025 Y106.983 E.06431
G1 X143.662 Y109.196 E.0703
G1 X143.098 Y111.19 E.06497
G1 X142.323 Y113.11 E.06492
G1 X141.356 Y114.916 E.06424
G1 X140.214 Y116.592 E.0636
G1 X138.901 Y118.139 E.06362
G1 X137.431 Y119.538 E.06362
G1 X135.787 Y120.796 E.06492
G1 X134.016 Y121.869 E.06493
G1 X132.16 Y122.737 E.06425
G1 X130.2 Y123.407 E.06494
G1 X128.011 Y123.889 E.07027
G1 X126.034 Y124.1 E.06236
G1 X124.026 Y124.103 E.06293
M73 P3 R28
G1 X121.968 Y123.886 E.06489
M73 Q3 S28
G1 X119.944 Y123.447 E.06494
G1 X117.98 Y122.793 E.06493
G1 X116.115 Y121.939 E.06429
G1 X114.195 Y120.783 E.07028
G1 X112.551 Y119.522 E.06497
G1 X111.054 Y118.091 E.06492
G1 X109.734 Y116.524 E.06425
G1 X108.588 Y114.825 E.06425
G1 X107.631 Y113.012 E.06427
G1 X106.874 Y111.108 E.06426
G1 X106.324 Y109.133 E.06426
G1 X105.989 Y107.112 E.06425
G1 X105.873 Y105.065 E.06427
G1 X105.975 Y103.017 E.06431
G1 X106.338 Y100.804 E.0703
G1 X106.902 Y98.81 E.06497
G1 X107.677 Y96.89 E.06492
G1 X108.633 Y95.101 E.06362
G1 X109.735 Y93.48 E.06146
M204 S1000
G1 X110.047 Y93.692 F10800
M204 S800
G1 F1200
G1 X111.38 Y92.113 E.06481
G1 X112.822 Y90.743 E.06235
G1 X114.434 Y89.51 E.06364
G1 X116.171 Y88.459 E.06365
G1 X117.991 Y87.609 E.06298
G1 X119.912 Y86.953 E.06365
G1 X122.039 Y86.485 E.0683
G1 X123.996 Y86.276 E.06172
G1 X125.984 Y86.275 E.06232
G1 X127.982 Y86.488 E.06299
G1 X129.966 Y86.919 E.06365
G1 X131.891 Y87.562 E.06365
G1 X133.718 Y88.399 E.063
G1 X135.584 Y89.522 E.0683
G1 X137.196 Y90.758 E.06368
G1 X138.664 Y92.16 E.06365
G1 X139.959 Y93.695 E.06298
G1 X141.083 Y95.36 E.06298
G1 X142.03 Y97.155 E.06363
G1 X142.772 Y99.022 E.06299
G1 X143.31 Y100.958 E.06299
G1 X143.637 Y102.94 E.06299
G1 X143.75 Y104.946 E.063
G1 X143.648 Y106.953 E.06303
G1 X143.296 Y109.104 E.06832
G1 X142.745 Y111.058 E.06368
G1 X141.986 Y112.941 E.06364
G1 X141.039 Y114.712 E.06298
G1 X139.92 Y116.356 E.06234
G1 X138.634 Y117.873 E.06236
G1 X137.178 Y119.257 E.06299
G1 X135.566 Y120.49 E.06364
G1 X133.829 Y121.541 E.06365
G1 X132.009 Y122.391 E.06298
G1 X130.088 Y123.047 E.06365
G1 X127.961 Y123.515 E.0683
G1 X126.004 Y123.724 E.06172
G1 X124.036 Y123.726 E.06169
G1 X122.018 Y123.512 E.06362
G1 X120.034 Y123.081 E.06366
G1 X118.109 Y122.438 E.06365
G1 X116.282 Y121.601 E.063
G1 X114.416 Y120.478 E.0683
G1 X112.804 Y119.242 E.06368
G1 X111.336 Y117.84 E.06365
G1 X110.041 Y116.305 E.06298
G1 X108.917 Y114.64 E.06298
G1 X107.97 Y112.845 E.06363
G1 X107.228 Y110.978 E.06299
G1 X106.69 Y109.042 E.06299
G1 X106.363 Y107.06 E.06299
G1 X106.25 Y105.054 E.063
G1 X106.352 Y103.047 E.06303
G1 X106.704 Y100.896 E.06832
G1 X107.255 Y98.942 E.06368
G1 X108.014 Y97.059 E.06364
G1 X108.961 Y95.287 E.06298
G1 X110.013 Y93.741 E.05863
M204 S1000
G1 X110.325 Y93.954 F10800
M204 S800
G1 F1200
G1 X111.661 Y92.365 E.06509
G1 X113.074 Y91.023 E.06109
G1 X114.655 Y89.816 E.06237
G1 X116.357 Y88.786 E.06237
G1 X118.141 Y87.955 E.06171
G1 X120.023 Y87.313 E.06237
G1 X122.089 Y86.859 E.06633
G1 X124.026 Y86.652 E.06107
G1 X125.974 Y86.652 E.06107
G1 X127.931 Y86.862 E.06173
G1 X129.875 Y87.285 E.06238
G1 X131.762 Y87.916 E.06237
G1 X133.551 Y88.738 E.06172
G1 X135.363 Y89.828 E.06633
G1 X136.943 Y91.038 E.06239
G1 X138.383 Y92.411 E.06237
G1 X139.653 Y93.915 E.06171
G1 X140.754 Y95.546 E.06171
G1 X141.684 Y97.304 E.06236
G1 X142.411 Y99.133 E.06172
G1 X142.939 Y101.03 E.06172
G1 X143.261 Y102.971 E.06171
G1 X143.373 Y104.957 E.06236
G1 X143.272 Y106.924 E.06174
G1 X142.93 Y109.012 E.06634
G1 X142.391 Y110.927 E.06239
G1 X141.648 Y112.773 E.06237
G1 X140.721 Y114.509 E.06171
G1 X139.626 Y116.12 E.06108
G1 X138.353 Y117.621 E.06172
G1 X136.926 Y118.977 E.06172
G1 X135.345 Y120.184 E.06236
G1 X133.643 Y121.214 E.06237
G1 X131.859 Y122.045 E.06171
G1 X129.977 Y122.687 E.06237
G1 X127.911 Y123.141 E.06633
G1 X125.974 Y123.348 E.06108
G1 X124.046 Y123.349 E.06044
G1 X122.068 Y123.138 E.06236
G1 X120.125 Y122.715 E.06238
G1 X118.238 Y122.084 E.06237
G1 X116.449 Y121.262 E.06172
G1 X114.637 Y120.172 E.06633
G1 X113.057 Y118.962 E.06239
G1 X111.617 Y117.589 E.06237
G1 X110.347 Y116.085 E.06171
G1 X109.246 Y114.454 E.06171
G1 X108.316 Y112.696 E.06236
G1 X107.589 Y110.867 E.06172
G1 X107.061 Y108.97 E.06172
G1 X106.739 Y107.029 E.06171
G1 X106.627 Y105.043 E.06236
G1 X106.728 Y103.076 E.06174
G1 X107.07 Y100.988 E.06634
G1 X107.609 Y99.073 E.06239
G1 X108.352 Y97.227 E.06237
G1 X109.279 Y95.491 E.06171
G1 X110.291 Y94.003 E.05643
