; generated by PrusaSlicer 2.4.1+x64 on 2022-05-06 at 19:34:01 UTC

; 

; external perimeters extrusion width = 0.45mm
; perimeters extrusion width = 0.45mm
; infill extrusion width = 0.45mm
; solid infill extrusion width = 0.45mm
; top infill extrusion width = 0.40mm
; support material extrusion width = 0.35mm
; first layer extrusion width = 0.42mm

M73 P0 R29
M73 Q0 S29
M201 X1000 Y1000 Z200 E5000 ; sets maximum accelerations, mm/sec^2
M203 X200 Y200 Z12 E120 ; sets maximum feedrates, mm / sec
M204 P1250 R1250 T1250 ; sets acceleration (P, T) and retract acceleration (R), mm/sec^2
M205 X8.00 Y8.00 Z0.40 E4.50 ; sets the jerk limits, mm/sec
M205 S0 T0 ; sets the minimum extruding and travel feed rate, mm/sec
M107
;TYPE:Custom
M862.3 P "MK3S" ; printer model check
M862.1 P0.4 ; nozzle diameter check
M115 U3.10.1 ; tell printer latest fw version
G90 ; use absolute coordinates
M83 ; extruder relative mode
M104 S210 ; set extruder temp
M140 S60 ; set bed temp
M190 S60 ; wait for bed temp
M109 S210 ; wait for extruder temp
G28 W ; home all without mesh bed level
G80 ; mesh bed leveling
G1 Z0.2 F720
G1 Y-3 F1000 ; go outside print area
G92 E0
G1 X60 E9 F1000 ; intro line
G1 X100 E12.5 F1000 ; intro line
G92 E0
M221 S95

; Don't change E values below. Excessive value can damage the printer.

G21 ; set units to millimeters
G90 ; use absolute coordinates
M83 ; use relative distances for extrusion
M900 K0.05 ; Filament gcode LA 1.5
M900 K30 ; Filament gcode LA 1.0
M107
;LAYER_CHANGE
;Z:0.2
;HEIGHT:0.2
;BEFORE_LAYER_CHANGE
G92 E0.0
;0.2


G1 E-.8 F2100
G1 Z.4 F720
;AFTER_LAYER_CHANGE
;0.2
G1 X100.248 Y84.863 F10800
G1 Z.2 F720
G1 E.8 F2100
M204 S800
;TYPE:Skirt/Brim
;WIDTH:0.42
G1 F1200
G1 X104.863 Y80.248 E.2046
G1 X106.543 Y79.552 E.05704
G1 X143.457 Y79.552 E1.15739
G1 X145.138 Y80.248 E.05704
G1 X149.752 Y84.863 E.2046
G1 X150.448 Y86.543 E.05704
G1 X150.448 Y123.457 E1.15739
G1 X149.752 Y125.138 E.05704
G1 X147.373 Y127.513 E.10542
G1 X144.864 Y129.821 E.10687
G1 X143.255 Y130.448 E.05415
G1 X106.745 Y130.448 E1.14474
G1 X105.136 Y129.821 E.05415
G1 X102.627 Y127.513 E.10687
G1 X100.248 Y125.138 E.10542
G1 X99.552 Y123.457 E.05704
G1 X99.552 Y86.543 E1.15739
G1 X100.225 Y84.918 E.05516
M204 S1000
; printing object motor_faceplate_vp2_mesh.stl id:0 copy 0
;WIPE_START
G1 F8640
G1 X102.545 Y82.582 E-.76
;WIPE_END
G1 E-.04 F2100
G1 Z.6 F720
G1 X104.056 Y86.543 F10800
G1 Z.2 F720
G1 E.8 F2100
M204 S800
;TYPE:Support material interface
;WIDTH:0.35
G1 F1200
G1 X103.703 Y86.543 E.00903
G1 X103.703 Y91.158 E.11782
G1 X103.196 Y91.158 E.01295
G1 X103.196 Y86.543 E.11782
G1 X102.689 Y86.543 E.01295
G1 X102.689 Y91.158 E.11782
G1 X102.181 Y91.158 E.01295
M73 P1 R29
M73 Q1 S29
G1 X102.181 Y86.543 E.11782
G1 X101.929 Y86.543 E.00644
G1 X101.929 Y91.158 E.11782
G1 X102.028 Y91.158 E.00252
M204 S1000
;WIPE_START
G1 F8640
G1 X101.929 Y91.158 E-.02279
G1 X101.929 Y87.965 E-.73721
;WIPE_END
G1 E-.04 F2100
G1 Z.6 F720
G1 X104.236 Y100.386 F10800
G1 Z.2 F720
G1 E.8 F2100
M204 S800
G1 F1200
G1 X104.236 Y91.158 E.23563
G1 X104.21 Y91.158 E.00068
G1 X104.21 Y86.543 E.11782
G1 X104.236 Y86.543 E.00068
G1 X104.236 Y84.236 E.05891
G1 X104.717 Y84.236 E.01227
G1 X104.717 Y100.386 E.41236
G1 X105.224 Y100.386 E.01295
G1 X105.224 Y84.236 E.41236
G1 X105.731 Y84.236 E.01295
G1 X105.731 Y100.386 E.41236
G1 X106.238 Y100.386 E.01295
G1 X106.238 Y84.236 E.41236
G1 X106.499 Y84.236 E.00667
M204 S1000
;WIPE_START
G1 F8640
G1 X106.238 Y84.236 E-.06036
G1 X106.238 Y87.266 E-.69964
;WIPE_END
G1 E-.04 F2100
G1 Z.6 F720
G1 X106.543 Y82.311 F10800
G1 Z.2 F720
G1 E.8 F2100
M204 S800
G1 F1200
G1 X106.543 Y81.929 E.00975
G1 X106.745 Y81.929 E.00515
G1 X106.745 Y128.071 E1.17817
G1 X107.252 Y128.071 E.01295
G1 X107.252 Y81.929 E1.17817
G1 X107.759 Y81.929 E.01295
M73 P1 R28
G1 X107.759 Y128.071 E1.17817
G1 X108.266 Y128.071 E.01295
G1 X108.266 Y107.387 E.52814
G1 X108.174 Y106.818 E.01471
G1 X108.076 Y104.989 E.04679
G1 X108.174 Y103.182 E.0462
G1 X108.266 Y102.613 E.01471
G1 X108.266 Y81.929 E.52814
G1 X108.773 Y81.929 E.01295
G1 X108.773 Y100.274 E.46842
G1 X108.512 Y101.216 E.02495
M204 S1000
;WIPE_START
G1 F8640
G1 X108.773 Y100.274 E-.22563
G1 X108.773 Y97.96 E-.53437
;WIPE_END
G1 E-.04 F2100
G1 Z.6 F720
G1 X109.019 Y99.452 F10800
G1 Z.2 F720
G1 E.8 F2100
M204 S800
G1 F1200
G1 X109.281 Y98.796 E.01803
G1 X109.281 Y81.929 E.43067
G1 X109.788 Y81.929 E.01295
G1 X109.788 Y97.615 E.40053
G1 X109.645 Y97.884 E.00775
M73 P2 R28
M73 Q2 S29
G1 X109.526 Y98.179 E.00815
M204 S1000
;WIPE_START
G1 F8640
G1 X109.645 Y97.884 E-.07366
G1 X109.788 Y97.615 E-.07009
G1 X109.788 Y94.947 E-.61625
;WIPE_END
G1 E-.04 F2100
G1 Z.6 F720
G1 X110.015 Y97.187 F10800
G1 Z.2 F720
G1 E.8 F2100
M204 S800
G1 F1200
G1 X110.295 Y96.659 E.01526
G1 X110.295 Y81.929 E.37611
G1 X110.802 Y81.929 E.01295
G1 X110.802 Y95.827 E.35487
G1 X111.309 Y95.079 E.02307
G1 X111.309 Y84.236 E.27687
G1 X111.158 Y84.236 E.00386
G1 X111.158 Y81.929 E.05891
M204 S1000
;WIPE_START
G1 F8640
G1 X111.158 Y84.236 E-.53271
G1 X111.309 Y84.236 E-.03494
G1 X111.309 Y85.069 E-.19235
;WIPE_END
G1 E-.04 F2100
G1 Z.6 F720
G1 X111.462 Y84.236 F10800
G1 Z.2 F720
G1 E.8 F2100
M204 S800
G1 F1200
G1 X111.816 Y84.236 E.00903
G1 X111.816 Y94.418 E.25997
G1 X112.323 Y93.821 E.02
G1 X112.323 Y84.236 E.24472
G1 X112.83 Y84.236 E.01295
G1 X112.83 Y93.25 E.23017
G1 X113.337 Y92.77 E.01783
G1 X113.337 Y84.236 E.2179
G1 X113.844 Y84.236 E.01295
G1 X113.844 Y92.29 E.20564
G1 X114.053 Y92.094 E.0073
G1 X114.351 Y91.867 E.00958
G1 X114.351 Y84.236 E.19484
G1 X114.858 Y84.236 E.01295
G1 X114.858 Y91.482 E.185
G1 X115.366 Y91.096 E.01626
G1 X115.366 Y84.236 E.17516
G1 X115.873 Y84.236 E.01295
G1 X115.873 Y90.769 E.16681
G1 X116.38 Y90.464 E.01511
G1 X116.38 Y84.236 E.15902
G1 X116.887 Y84.236 E.01295
G1 X116.887 Y90.159 E.15123
G1 X117.083 Y90.042 E.00583
M73 Q2 S28
G1 X117.394 Y89.899 E.00874
G1 X117.394 Y84.236 E.14458
G1 X117.901 Y84.236 E.01295
G1 X117.901 Y89.664 E.13859
G1 X118.408 Y89.429 E.01427
G1 X118.408 Y84.236 E.1326
G1 X118.915 Y84.236 E.01295
G1 X118.915 Y89.217 E.12719
G1 X119.422 Y89.047 E.01366
G1 X119.422 Y84.236 E.12283
G1 X119.929 Y84.236 E.01295
G1 X119.929 Y88.876 E.11846
G1 X120.436 Y88.705 E.01366
G1 X120.436 Y84.236 E.1141
G1 X120.943 Y84.236 E.01295
G1 X120.943 Y88.589 E.11114
G1 X121.45 Y88.477 E.01326
G1 X121.45 Y84.236 E.10829
G1 X121.958 Y84.236 E.01295
G1 X121.958 Y88.366 E.10544
G1 X122.251 Y88.301 E.00767
G1 X122.465 Y88.277 E.0055
G1 X122.465 Y84.236 E.10317
G1 X122.693 Y84.236 E.00583
G1 X122.693 Y84.668 E.01102
M204 S1000
;WIPE_START
G1 F8640
G1 X122.693 Y84.236 E-.09961
G1 X122.465 Y84.236 E-.05272
G1 X122.465 Y86.868 E-.60766
;WIPE_END
G1 E-.04 F2100
G1 Z.6 F720
G1 X122.71 Y86.543 F10800
G1 Z.2 F720
G1 E.8 F2100
M204 S800
G1 F1200
G1 X122.972 Y86.543 E.00667
G1 X122.972 Y88.222 E.04285
G1 X123.479 Y88.166 E.01302
G1 X123.479 Y86.543 E.04144
G1 X123.986 Y86.543 E.01295
G1 X123.986 Y88.111 E.04004
G1 X124.493 Y88.101 E.01295
G1 X124.493 Y86.543 E.03976
G1 X125 Y86.543 E.01295
G1 X125 Y88.101 E.03976
G1 X125.507 Y88.101 E.01295
G1 X125.507 Y86.543 E.03976
G1 X126.014 Y86.543 E.01295
G1 X126.014 Y88.111 E.04004
G1 X126.521 Y88.166 E.01302
G1 X126.521 Y86.543 E.04144
G1 X127.028 Y86.543 E.01295
G1 X127.028 Y88.222 E.04285
G1 X127.535 Y88.277 E.01302
G1 X127.535 Y86.543 E.04426
G1 X128.042 Y86.543 E.01295
G1 X128.042 Y88.366 E.04653
G1 X128.55 Y88.477 E.01326
G1 X128.55 Y86.543 E.04938
G1 X129.057 Y86.543 E.01295
G1 X129.057 Y88.589 E.05223
G1 X129.564 Y88.705 E.01328
G1 X129.564 Y86.543 E.05519
G1 X129.614 Y86.543 E.00129
G1 X129.614 Y84.236 E.05891
G1 X130.071 Y84.236 E.01166
G1 X130.071 Y88.876 E.11846
G1 X130.578 Y89.047 E.01366
G1 X130.578 Y84.236 E.12283
G1 X131.085 Y84.236 E.01295
G1 X131.085 Y89.217 E.12719
G1 X131.275 Y89.283 E.00512
G1 X131.592 Y89.429 E.00893
G1 X131.592 Y84.236 E.1326
G1 X132.099 Y84.236 E.01295
G1 X132.099 Y89.664 E.13859
G1 X132.606 Y89.899 E.01427
G1 X132.606 Y84.236 E.14458
G1 X133.113 Y84.236 E.01295
G1 X133.113 Y90.159 E.15123
G1 X133.62 Y90.464 E.01511
G1 X133.62 Y84.236 E.15902
G1 X134.127 Y84.236 E.01295
G1 X134.127 Y90.769 E.16681
G1 X134.488 Y90.986 E.01074
G1 X134.635 Y91.096 E.00468
G1 X134.635 Y84.236 E.17516
G1 X135.142 Y84.236 E.01295
G1 X135.142 Y91.482 E.185
G1 X135.649 Y91.867 E.01626
G1 X135.649 Y84.236 E.19484
G1 X136.156 Y84.236 E.01295
M73 P3 R28
M73 Q3 S28
G1 X136.156 Y92.29 E.20564
G1 X136.663 Y92.77 E.01783
G1 X136.663 Y84.236 E.2179
G1 X137.17 Y84.236 E.01295
G1 X137.17 Y93.25 E.23017
G1 X137.294 Y93.37 E.00441
G1 X137.677 Y93.821 E.01509
G1 X137.677 Y84.236 E.24472
G1 X138.184 Y84.236 E.01295
G1 X138.184 Y94.418 E.25997
G1 X138.466 Y94.749 E.01111
G1 X138.691 Y95.079 E.01021
G1 X138.691 Y84.236 E.27687
G1 X138.842 Y84.236 E.00386
G1 X138.842 Y81.929 E.05891
G1 X139.198 Y81.929 E.00908
G1 X139.198 Y95.827 E.35487
G1 X139.495 Y96.265 E.01351
G1 X139.705 Y96.659 E.0114
G1 X139.705 Y81.929 E.37611
G1 X140.059 Y81.929 E.00903
M204 S1000
;WIPE_START
G1 F8640
G1 X139.705 Y81.929 E-.08163
G1 X139.705 Y84.867 E-.67837
;WIPE_END
G1 E-.04 F2100
G1 Z.6 F720
G1 X143.457 Y82.311 F10800
G1 Z.2 F720
G1 E.8 F2100
M204 S800
G1 F1200
G1 X143.457 Y81.929 E.00975
G1 X143.255 Y81.929 E.00515
G1 X143.255 Y128.071 E1.17817
G1 X142.748 Y128.071 E.01295
G1 X142.748 Y81.929 E1.17817
G1 X142.241 Y81.929 E.01295
G1 X142.241 Y128.071 E1.17817
G1 X141.734 Y128.071 E.01295
G1 X141.734 Y107.387 E.52814
G1 X141.826 Y106.818 E.01471
G1 X141.924 Y105.011 E.0462
G1 X141.826 Y103.182 E.04679
G1 X141.734 Y102.613 E.01471
G1 X141.734 Y81.929 E.52814
G1 X141.227 Y81.929 E.01295
G1 X141.227 Y100.274 E.46842
G1 X141.386 Y100.848 E.0152
M204 S1000
;WIPE_START
G1 F8640
G1 X141.227 Y100.274 E-.13744
G1 X141.227 Y97.578 E-.62256
;WIPE_END
G1 E-.04 F2100
G1 Z.6 F720
G1 X140.981 Y99.452 F10800
G1 Z.2 F720
G1 E.8 F2100
M204 S800
G1 F1200
G1 X140.719 Y98.796 E.01803
G1 X140.719 Y81.929 E.43067
G1 X140.212 Y81.929 E.01295
G1 X140.212 Y97.615 E.40053
G1 X140.364 Y97.904 E.00834
M204 S1000
;WIPE_START
M73 P4 R28
M73 Q4 S28
G1 F8640
G1 X140.212 Y97.615 E-.07538
G1 X140.212 Y94.65 E-.68462
;WIPE_END
G1 E-.04 F2100
G1 Z.6 F720
G1 X143.501 Y100.386 F10800
G1 Z.2 F720
G1 E.8 F2100
M204 S800
G1 F1200
G1 X143.762 Y100.386 E.00667
G1 X143.762 Y84.236 E.41236
G1 X144.269 Y84.236 E.01295
G1 X144.269 Y100.386 E.41236
G1 X144.776 Y100.386 E.01295
G1 X144.776 Y84.236 E.41236
G1 X145.283 Y84.236 E.01295
G1 X145.283 Y100.386 E.41236
G1 X145.764 Y100.386 E.01227
G1 X145.764 Y91.158 E.23563
G1 X145.79 Y91.158 E.00068
G1 X145.79 Y86.543 E.11782
G1 X145.764 Y86.543 E.00068
G1 X145.764 Y84.236 E.05891
M204 S1000
;WIPE_START
G1 F8640
G1 X145.764 Y86.543 E-.53271
G1 X145.79 Y86.543 E-.00612
G1 X145.79 Y87.501 E-.22117
;WIPE_END
G1 E-.04 F2100
G1 Z.6 F720
G1 X145.944 Y86.543 F10800
G1 Z.2 F720
G1 E.8 F2100
M204 S800
G1 F1200
G1 X146.297 Y86.543 E.00903
G1 X146.297 Y91.158 E.11782
G1 X146.804 Y91.158 E.01295
G1 X146.804 Y86.543 E.11782
G1 X147.311 Y86.543 E.01295
G1 X147.311 Y91.158 E.11782
G1 X147.819 Y91.158 E.01295
G1 X147.819 Y86.543 E.11782
G1 X148.071 Y86.543 E.00644
G1 X148.071 Y91.158 E.11782
G1 X147.972 Y91.158 E.00252
M204 S1000
;WIPE_START
G1 F8640
G1 X148.071 Y91.158 E-.0228
G1 X148.071 Y87.965 E-.7372
;WIPE_END
G1 E-.04 F2100
G1 Z.6 F720
G1 X145.944 Y118.842 F10800
G1 Z.2 F720
G1 E.8 F2100
M204 S800
G1 F1200
G1 X146.297 Y118.842 E.00903
G1 X146.297 Y123.457 E.11782
G1 X146.804 Y123.457 E.01295
G1 X146.804 Y118.842 E.11782
G1 X147.311 Y118.842 E.01295
G1 X147.311 Y123.457 E.11782
G1 X147.819 Y123.457 E.01295
G1 X147.819 Y118.842 E.11782
G1 X148.071 Y118.842 E.00644
G1 X148.071 Y123.457 E.11782
G1 X147.972 Y123.457 E.00252
M204 S1000
;WIPE_START
G1 F8640
G1 X148.071 Y123.457 E-.0228
G1 X148.071 Y120.264 E-.7372
;WIPE_END
G1 E-.04 F2100
G1 Z.6 F720
G1 X143.501 Y125.764 F10800
G1 Z.2 F720
G1 E.8 F2100
M204 S800
G1 F1200
G1 X143.762 Y125.764 E.00667
G1 X143.762 Y109.614 E.41236
G1 X144.269 Y109.614 E.01295
G1 X144.269 Y125.764 E.41236
G1 X144.776 Y125.764 E.01295
G1 X144.776 Y109.614 E.41236
G1 X145.283 Y109.614 E.01295
G1 X145.283 Y125.764 E.41236
G1 X145.764 Y125.764 E.01227
G1 X145.764 Y123.457 E.05891
G1 X145.79 Y123.457 E.00068
G1 X145.79 Y118.842 E.11782
G1 X145.764 Y118.842 E.00068
G1 X145.764 Y109.614 E.23563
M204 S1000
;WIPE_START
G1 F8640
G1 X145.764 Y112.906 E-.76
;WIPE_END
G1 E-.04 F2100
G1 Z.6 F720
G1 X141.488 Y108.784 F10800
G1 Z.2 F720
G1 E.8 F2100
M204 S800
G1 F1200
G1 X141.227 Y109.726 E.02495
G1 X141.227 Y128.071 E.46842
G1 X140.719 Y128.071 E.01295
G1 X140.719 Y111.204 E.43067
M204 S1000
G1 X140.474 Y111.821 F10800
M204 S800
G1 F1200
G1 X140.355 Y112.116 E.00815
G1 X140.212 Y112.385 E.00775
M73 P4 R27
G1 X140.212 Y128.071 E.40053
G1 X139.705 Y128.071 E.01295
G1 X139.705 Y113.341 E.37611
G1 X139.495 Y113.735 E.0114
G1 X139.198 Y114.173 E.01351
G1 X139.198 Y128.071 E.35487
G1 X138.842 Y128.071 E.00908
M73 P5 R27
M73 Q5 S28
G1 X138.842 Y125.764 E.05891
G1 X138.691 Y125.764 E.00386
G1 X138.691 Y114.921 E.27687
G1 X138.466 Y115.251 E.01021
G1 X138.184 Y115.582 E.01111
G1 X138.184 Y125.764 E.25997
G1 X137.677 Y125.764 E.01295
G1 X137.677 Y116.179 E.24472
G1 X137.294 Y116.63 E.01509
G1 X137.17 Y116.75 E.00441
G1 X137.17 Y125.764 E.23017
G1 X136.663 Y125.764 E.01295
G1 X136.663 Y117.23 E.2179
G1 X136.156 Y117.71 E.01783
G1 X136.156 Y125.764 E.20564
G1 X135.649 Y125.764 E.01295
G1 X135.649 Y118.133 E.19484
G1 X135.142 Y118.518 E.01626
G1 X135.142 Y125.764 E.185
G1 X134.634 Y125.764 E.01295
G1 X134.635 Y118.904 E.17516
G1 X134.488 Y119.014 E.00468
G1 X134.127 Y119.231 E.01074
G1 X134.127 Y125.764 E.16681
G1 X133.62 Y125.764 E.01295
G1 X133.62 Y119.536 E.15902
G1 X133.113 Y119.841 E.01511
G1 X133.113 Y125.764 E.15123
G1 X132.606 Y125.764 E.01295
G1 X132.606 Y120.101 E.14458
G1 X132.099 Y120.336 E.01427
G1 X132.099 Y125.764 E.13859
G1 X131.592 Y125.764 E.01295
G1 X131.592 Y120.571 E.1326
G1 X131.275 Y120.717 E.00893
G1 X131.085 Y120.783 E.00512
G1 X131.085 Y125.764 E.12719
G1 X130.578 Y125.764 E.01295
G1 X130.578 Y120.953 E.12283
G1 X130.071 Y121.124 E.01366
G1 X130.071 Y125.764 E.11846
G1 X129.614 Y125.764 E.01166
G1 X129.614 Y123.457 E.05891
G1 X129.564 Y123.457 E.00129
G1 X129.564 Y121.295 E.05519
G1 X129.057 Y121.411 E.01328
G1 X129.057 Y123.457 E.05223
G1 X128.55 Y123.457 E.01295
G1 X128.55 Y121.523 E.04938
G1 X128.042 Y121.634 E.01326
G1 X128.042 Y123.457 E.04653
G1 X127.535 Y123.457 E.01295
G1 X127.535 Y121.723 E.04426
G1 X127.028 Y121.778 E.01302
G1 X127.028 Y123.457 E.04285
G1 X126.521 Y123.457 E.01295
G1 X126.521 Y121.834 E.04144
G1 X126.014 Y121.889 E.01302
G1 X126.014 Y123.457 E.04004
G1 X125.507 Y123.457 E.01295
G1 X125.507 Y121.899 E.03976
G1 X125 Y121.899 E.01295
G1 X125 Y123.457 E.03976
G1 X124.493 Y123.457 E.01295
G1 X124.493 Y121.899 E.03976
G1 X123.986 Y121.889 E.01295
G1 X123.986 Y123.457 E.04004
G1 X123.479 Y123.457 E.01295
G1 X123.479 Y121.834 E.04144
G1 X122.972 Y121.778 E.01302
G1 X122.972 Y123.457 E.04285
G1 X122.465 Y123.457 E.01295
G1 X122.465 Y121.723 E.04426
G1 X122.251 Y121.699 E.0055
G1 X121.958 Y121.634 E.00767
G1 X121.958 Y123.457 E.04653
G1 X121.45 Y123.457 E.01295
G1 X121.45 Y121.523 E.04938
G1 X120.943 Y121.411 E.01326
G1 X120.943 Y123.457 E.05223
G1 X120.59 Y123.457 E.00903
M204 S1000
;WIPE_START
G1 F8640
G1 X120.943 Y123.457 E-.08163
G1 X120.943 Y121.411 E-.47236
G1 X121.45 Y121.523 E-.11989
G1 X121.45 Y121.896 E-.08612
;WIPE_END
G1 E-.04 F2100
G1 Z.6 F720
G1 X120.793 Y121.378 F10800
G1 Z.2 F720
G1 E.8 F2100
M204 S800
G1 F1200
G1 X120.436 Y121.295 E.00936
G1 X120.436 Y123.457 E.05519
G1 X120.386 Y123.457 E.00129
G1 X120.386 Y125.764 E.05891
G1 X119.929 Y125.764 E.01166
G1 X119.929 Y121.124 E.11846
G1 X119.422 Y120.953 E.01366
G1 X119.422 Y125.764 E.12283
G1 X118.915 Y125.764 E.01295
G1 X118.915 Y120.783 E.12719
G1 X118.725 Y120.717 E.00512
G1 X118.408 Y120.571 E.00893
G1 X118.408 Y125.764 E.1326
G1 X117.901 Y125.764 E.01295
G1 X117.901 Y120.336 E.13859
G1 X117.394 Y120.101 E.01427
G1 X117.394 Y125.764 E.14458
G1 X116.887 Y125.764 E.01295
