; generated by PrusaSlicer 2.4.1+x64 on 2022-04-24 at 00:15:43 UTC

; 

; external perimeters extrusion width = 0.45mm
; perimeters extrusion width = 0.45mm
; infill extrusion width = 0.45mm
; solid infill extrusion width = 0.45mm
; top infill extrusion width = 0.40mm
; first layer extrusion width = 0.42mm

M73 P0 R8
M73 Q0 S8
M201 X1000 Y1000 Z200 E5000 ; sets maximum accelerations, mm/sec^2
M203 X200 Y200 Z12 E120 ; sets maximum feedrates, mm / sec
M204 P1250 R1250 T1250 ; sets acceleration (P, T) and retract acceleration (R), mm/sec^2
M205 X8.00 Y8.00 Z0.40 E4.50 ; sets the jerk limits, mm/sec
M205 S0 T0 ; sets the minimum extruding and travel feed rate, mm/sec
M107
;TYPE:Custom
M862.3 P "MK3S" ; printer model check
M862.1 P0.4 ; nozzle diameter check
M115 U3.10.1 ; tell printer latest fw version
G90 ; use absolute coordinates
M83 ; extruder relative mode
M104 S215 ; set extruder temp
M140 S60 ; set bed temp
M190 S60 ; wait for bed temp
M109 S215 ; wait for extruder temp
G28 W ; home all without mesh bed level
G80 ; mesh bed leveling
G1 Z0.2 F720
G1 Y-3 F1000 ; go outside print area
G92 E0
G1 X60 E9 F1000 ; intro line
G1 X100 E12.5 F1000 ; intro line
G92 E0
M221 S95

; Don't change E values below. Excessive value can damage the printer.
M907 E430 ; set extruder motor current
G21 ; set units to millimeters
G90 ; use absolute coordinates
M83 ; use relative distances for extrusion
M900 K0.05 ; Filament gcode LA 1.5
M900 K30 ; Filament gcode LA 1.0
M107
;LAYER_CHANGE
;Z:0.2
;HEIGHT:0.2
;BEFORE_LAYER_CHANGE
G92 E0.0
;0.2


G1 E-.8 F2100
M73 P1 R8
M73 Q1 S8
G1 Z.4 F720
;AFTER_LAYER_CHANGE
;0.2
G1 X119.091 Y100.431 F10800
G1 Z.2 F720
G1 E.8 F2100
M204 S800
;TYPE:Skirt/Brim
;WIDTH:0.42
G1 F1095
G1 X119.813 Y99.575 E.0351
G1 X120.472 Y99.015 E.02712
G1 X121.857 Y98.189 E.05056
G1 X123.395 Y97.674 E.05087
G1 X124.151 Y97.55 E.02402
G1 X125.772 Y97.544 E.05083
G1 X127.357 Y97.887 E.05083
G1 X128.817 Y98.555 E.05033
G1 X129.54 Y99.043 E.02738
G1 X130.72 Y100.167 E.05106
G1 X131.625 Y101.512 E.05083
G1 X132.219 Y103.02 E.05083
G1 X132.475 Y104.612 E.05056
G1 X132.386 Y106.203 E.04995
G1 X132.219 Y106.98 E.02493
G1 X131.625 Y108.488 E.05083
G1 X130.72 Y109.833 E.05083
G1 X129.691 Y110.848 E.04529
G1 X128.831 Y111.438 E.03271
G1 X127.357 Y112.113 E.05083
G1 X125.772 Y112.456 E.05083
G1 X124.151 Y112.45 E.05083
G1 X122.577 Y112.099 E.05056
G1 X121.115 Y111.418 E.05059
G1 X119.819 Y110.43 E.0511
G1 X118.782 Y109.204 E.05032
G1 X118.377 Y108.535 E.02453
G1 X117.771 Y107.031 E.05083
G1 X117.505 Y105.448 E.05033
G1 X117.585 Y103.813 E.05133
G1 X118.014 Y102.25 E.05083
G1 X118.768 Y100.815 E.05083
G1 X119.053 Y100.477 E.01385
M204 S1000
G1 X119.335 Y100.692 F10800
M204 S800
G1 F1095
G1 X119.592 Y100.354 E.01329
G1 X120.716 Y99.303 E.04828
G1 X122.033 Y98.522 E.04801
G1 X122.678 Y98.265 E.02177
G1 X124.172 Y97.926 E.04801
G1 X125.711 Y97.916 E.04828
G1 X127.217 Y98.237 E.04828
M73 Q2 S8
G1 X128.606 Y98.867 E.0478
G1 X129.33 Y99.356 E.02738
G1 X130.446 Y100.426 E.04849
G1 X131.302 Y101.706 E.04828
G1 X131.862 Y103.14 E.04828
M73 P2 R8
G1 X132.1 Y104.653 E.04801
G1 X132.012 Y106.162 E.0474
G1 X131.862 Y106.86 E.02237
G1 X131.302 Y108.294 E.04828
G1 X130.446 Y109.574 E.04828
G1 X129.462 Y110.548 E.04342
G1 X128.619 Y111.126 E.03203
G1 X127.217 Y111.763 E.04828
G1 X125.711 Y112.084 E.04828
G1 X124.172 Y112.074 E.04828
G1 X122.678 Y111.735 E.04801
G1 X121.29 Y111.084 E.04807
G1 X120.062 Y110.142 E.04855
G1 X119.082 Y108.976 E.04774
G1 X118.719 Y108.377 E.02197
G1 X118.14 Y106.95 E.04828
G1 X117.882 Y105.448 E.0478
G1 X117.954 Y103.894 E.04875
G1 X118.356 Y102.408 E.04828
G1 X119.068 Y101.043 E.04828
G1 X119.299 Y100.74 E.01195
M204 S1000
G1 X119.599 Y100.968 F10800
M204 S800
G1 F1095
G1 X119.892 Y100.582 E.01517
G1 X120.961 Y99.59 E.04573
G1 X122.21 Y98.855 E.04546
G1 X122.779 Y98.628 E.01921
G1 X124.192 Y98.303 E.04546
G1 X125.65 Y98.288 E.04573
G1 X127.078 Y98.587 E.04573
G1 X128.395 Y99.18 E.04528
G1 X129.119 Y99.668 E.02738
G1 X130.172 Y100.685 E.04591
G1 X130.978 Y101.901 E.04573
G1 X131.505 Y103.261 E.04573
G1 X131.725 Y104.694 E.04546
G1 X131.637 Y106.121 E.04485
G1 X131.505 Y106.739 E.01982
G1 X130.979 Y108.099 E.04573
G1 X130.172 Y109.315 E.04573
G1 X129.232 Y110.249 E.04154
G1 X128.408 Y110.814 E.03135
G1 X127.078 Y111.413 E.04573
G1 X125.65 Y111.712 E.04573
G1 X124.192 Y111.697 E.04573
G1 X122.779 Y111.372 E.04546
G1 X121.466 Y110.751 E.04554
G1 X120.306 Y109.854 E.04599
G1 X119.383 Y108.748 E.04516
G1 X119.061 Y108.219 E.01941
G1 X118.508 Y106.869 E.04573
G1 X118.259 Y105.447 E.04528
G1 X118.322 Y103.975 E.04617
G1 X118.698 Y102.566 E.04573
G1 X119.368 Y101.271 E.04573
G1 X119.563 Y101.015 E.01007
M204 S1000
G1 X119.863 Y101.244 F10800
M204 S800
G1 F1095
G1 X120.192 Y100.811 E.01705
G1 X121.205 Y99.878 E.04318
G1 X122.387 Y99.188 E.04291
G1 X122.88 Y98.991 E.01666
G1 X124.212 Y98.679 E.04291
G1 X125.589 Y98.66 E.04318
G1 X126.938 Y98.938 E.04318
G1 X128.184 Y99.492 E.04275
G1 X128.908 Y99.981 E.02738
G1 X129.898 Y100.945 E.04333
G1 X130.655 Y102.095 E.04318
G1 X131.147 Y103.381 E.04318
G1 X131.35 Y104.734 E.04291
M73 Q3 S8
G1 X131.262 Y106.08 E.04229
G1 X131.147 Y106.619 E.01726
G1 X130.655 Y107.905 E.04318
G1 X129.898 Y109.055 E.04318
G1 X129.003 Y109.949 E.03967
G1 X128.196 Y110.502 E.03067
M73 P3 R8
G1 X126.938 Y111.062 E.04318
G1 X125.589 Y111.34 E.04318
G1 X124.212 Y111.321 E.04318
G1 X122.88 Y111.009 E.04291
G1 X121.642 Y110.417 E.04301
G1 X120.549 Y109.566 E.04344
G1 X119.683 Y108.52 E.04259
G1 X119.403 Y108.06 E.01686
G1 X118.876 Y106.788 E.04318
G1 X118.637 Y105.446 E.04275
G1 X118.69 Y104.057 E.0436
G1 X119.04 Y102.725 E.04318
G1 X119.668 Y101.499 E.04318
G1 X119.826 Y101.291 E.00818
M204 S1000
; printing object spacers-Body (Meshed).stl id:0 copy 0
;WIPE_START
G1 F8640
G1 X120.192 Y100.811 E-.13945
G1 X121.205 Y99.878 E-.31798
G1 X122.337 Y99.217 E-.30258
;WIPE_END
G1 E-.04 F2100
G1 Z.6 F720
G1 X122.333 Y103.524 F10800
G1 Z.2 F720
G1 E.8 F2100
M204 S800
;TYPE:Perimeter
G1 F1095
G1 X122.836 Y102.848 E.02642
G1 X123.466 Y102.364 E.02491
G1 X124.2 Y102.06 E.02491
G1 X124.988 Y101.956 E.02491
G1 X125.776 Y102.06 E.02491
G1 X126.51 Y102.364 E.02491
G1 X127.141 Y102.848 E.02491
G1 X127.624 Y103.478 E.02491
G1 X127.928 Y104.212 E.02491
G1 X128.032 Y105 E.02491
G1 X127.928 Y105.788 E.02491
G1 X127.624 Y106.522 E.02491
G1 X127.141 Y107.152 E.02491
G1 X126.51 Y107.636 E.02491
G1 X125.776 Y107.94 E.02491
G1 X124.988 Y108.044 E.02491
G1 X124.2 Y107.94 E.02491
G1 X123.466 Y107.636 E.02491
G1 X122.836 Y107.152 E.02491
G1 X122.352 Y106.522 E.02491
G1 X122.048 Y105.788 E.02491
G1 X121.944 Y105 E.02491
G1 X122.048 Y104.212 E.02491
G1 X122.31 Y103.579 E.02148
M204 S1000
G1 X122.682 Y103.668 F10800
M204 S800
;TYPE:External perimeter
G1 F1095
G1 X123.105 Y103.117 E.0218
G1 X123.657 Y102.693 E.0218
G1 X124.299 Y102.427 E.0218
G1 X124.988 Y102.336 E.0218
G1 X125.678 Y102.427 E.0218
G1 X126.32 Y102.693 E.0218
G1 X126.872 Y103.117 E.0218
G1 X127.295 Y103.668 E.0218
G1 X127.561 Y104.311 E.0218
G1 X127.652 Y105 E.0218
G1 X127.561 Y105.689 E.0218
G1 X127.295 Y106.332 E.0218
G1 X126.872 Y106.883 E.0218
G1 X126.32 Y107.307 E.0218
G1 X125.678 Y107.573 E.0218
G1 X124.988 Y107.664 E.0218
G1 X124.299 Y107.573 E.0218
G1 X123.657 Y107.307 E.0218
G1 X123.105 Y106.883 E.0218
G1 X122.682 Y106.332 E.0218
G1 X122.415 Y105.689 E.0218
G1 X122.325 Y105 E.0218
G1 X122.415 Y104.311 E.0218
G1 X122.659 Y103.724 E.01992
M204 S1000
G1 X122.482 Y103.322 F10800
G1 X122.239 Y103.346
M204 S800
;TYPE:Perimeter
G1 F1095
G1 X122.659 Y102.794 E.02175
G1 X123.188 Y102.345 E.02175
G1 X123.801 Y102.02 E.02175
G1 X124.469 Y101.834 E.02175
G1 X125.162 Y101.796 E.02175
G1 X125.847 Y101.909 E.02175
G1 X126.491 Y102.165 E.02175
G1 X127.065 Y102.555 E.02175
G1 X127.542 Y103.058 E.02175
G1 X127.9 Y103.653 E.02175
G1 X128.122 Y104.31 E.02175
G1 X128.197 Y105 E.02175
G1 X128.122 Y105.69 E.02175
G1 X127.9 Y106.347 E.02175
G1 X127.542 Y106.942 E.02175
G1 X127.065 Y107.445 E.02175
G1 X126.491 Y107.835 E.02175
G1 X125.847 Y108.091 E.02175
G1 X125.162 Y108.204 E.02175
G1 X124.469 Y108.166 E.02175
G1 X123.801 Y107.98 E.02175
G1 X123.188 Y107.655 E.02175
G1 X122.659 Y107.206 E.02175
G1 X122.239 Y106.654 E.02175
G1 X121.948 Y106.024 E.02175
G1 X121.799 Y105.347 E.02175
G1 X121.799 Y104.653 E.02175
G1 X121.948 Y103.976 E.02175
G1 X122.214 Y103.4 E.01987
M204 S1000
G1 X121.914 Y103.15 F10800
M204 S800
;TYPE:External perimeter
G1 F1095
G1 X122.384 Y102.533 E.02432
G1 X122.975 Y102.031 E.02432
G1 X123.66 Y101.667 E.02432
G1 X124.408 Y101.46 E.02432
G1 X125.183 Y101.418 E.02432
G1 X125.948 Y101.543 E.02432
G1 X126.669 Y101.83 E.02432
M73 Q4 S8
G1 X127.311 Y102.266 E.02432
G1 X127.844 Y102.829 E.02432
G1 X128.244 Y103.494 E.02432
G1 X128.492 Y104.229 E.02432
G1 X128.576 Y105 E.02432
G1 X128.492 Y105.771 E.02432
G1 X128.244 Y106.506 E.02432
G1 X127.844 Y107.171 E.02432
M73 P4 R8
G1 X127.311 Y107.734 E.02432
G1 X126.669 Y108.17 E.02432
G1 X125.948 Y108.457 E.02432
G1 X125.183 Y108.582 E.02432
G1 X124.408 Y108.54 E.02432
G1 X123.66 Y108.333 E.02432
G1 X122.975 Y107.969 E.02432
G1 X122.384 Y107.467 E.02432
G1 X121.914 Y106.85 E.02432
G1 X121.588 Y106.146 E.02432
G1 X121.422 Y105.388 E.02432
G1 X121.422 Y104.612 E.02432
G1 X121.588 Y103.854 E.02432
G1 X121.889 Y103.205 E.02244
M204 S1000
G1 X122.314 Y103.158 F10800
; stop printing object spacers-Body (Meshed).stl id:0 copy 0
M106 S84.15
;LAYER_CHANGE
;Z:0.35
;HEIGHT:0.15
;BEFORE_LAYER_CHANGE
G92 E0.0
;0.35


;WIPE_START
G1 F8640
G1 X122.384 Y102.533 E-.19268
G1 X122.975 Y102.031 E-.17913
G1 X123.66 Y101.667 E-.17913
G1 X124.408 Y101.46 E-.17913
G1 X124.537 Y101.453 E-.02993
;WIPE_END
G1 E-.04 F2100
G1 Z.6 F720
;AFTER_LAYER_CHANGE
;0.35
G1 X124.523 Y97.548 F10800
G1 Z.35 F720
G1 E.8 F2100
;TYPE:Skirt/Brim
G1 F1093
G1 X125.772 Y97.544 E.03021
G1 X127.357 Y97.887 E.03921
G1 X128.817 Y98.555 E.03882
G1 X129.54 Y99.043 E.02112
G1 X130.72 Y100.167 E.03939
G1 X131.625 Y101.512 E.03921
G1 X132.219 Y103.02 E.03921
G1 X132.475 Y104.612 E.039
G1 X132.386 Y106.203 E.03853
G1 X132.219 Y106.98 E.01923
G1 X131.625 Y108.488 E.03921
G1 X130.72 Y109.833 E.03921
G1 X129.691 Y110.848 E.03494
G1 X128.831 Y111.438 E.02523
G1 X127.357 Y112.113 E.03921
G1 X125.772 Y112.456 E.03921
G1 X124.151 Y112.45 E.03921
G1 X122.577 Y112.099 E.039
G1 X121.115 Y111.418 E.03902
G1 X119.819 Y110.43 E.03941
G1 X118.782 Y109.204 E.03881
G1 X118.377 Y108.535 E.01892
G1 X117.771 Y107.031 E.03921
G1 X117.505 Y105.448 E.03882
G1 X117.585 Y103.813 E.03959
G1 X118.014 Y102.25 E.03921
G1 X118.768 Y100.815 E.03921
G1 X119.813 Y99.575 E.03921
G1 X120.472 Y99.015 E.02092
G1 X121.857 Y98.189 E.039
G1 X123.395 Y97.674 E.03923
G1 X124.151 Y97.55 E.01853
G1 X124.463 Y97.548 E.00755
G1 X124.466 Y97.924 F10800
G1 F1093
G1 X125.711 Y97.916 E.03012
G1 X127.217 Y98.237 E.03724
G1 X128.606 Y98.867 E.03687
G1 X129.33 Y99.356 E.02112
G1 X130.446 Y100.426 E.0374
G1 X131.302 Y101.706 E.03724
G1 X131.862 Y103.14 E.03724
G1 X132.1 Y104.653 E.03703
G1 X132.012 Y106.162 E.03656
G1 X131.862 Y106.86 E.01726
G1 X131.302 Y108.294 E.03724
G1 X130.446 Y109.574 E.03724
G1 X129.462 Y110.548 E.03349
G1 X128.619 Y111.126 E.02471
G1 X127.217 Y111.763 E.03724
G1 X125.711 Y112.084 E.03724
G1 X124.172 Y112.074 E.03724
M73 Q5 S8
G1 X122.678 Y111.735 E.03703
G1 X121.29 Y111.084 E.03707
G1 X120.062 Y110.142 E.03745
G1 X119.082 Y108.976 E.03682
G1 X118.719 Y108.377 E.01695
M73 P5 R8
G1 X118.14 Y106.95 E.03724
G1 X117.882 Y105.448 E.03687
G1 X117.954 Y103.894 E.0376
G1 X118.356 Y102.408 E.03724
G1 X119.068 Y101.043 E.03724
G1 X119.592 Y100.354 E.02092
G1 X120.716 Y99.303 E.03724
G1 X122.033 Y98.522 E.03703
G1 X122.678 Y98.265 E.01679
G1 X124.172 Y97.926 E.03703
G1 X124.406 Y97.924 E.00567
G1 X124.41 Y98.3 F10800
G1 F1093
G1 X125.65 Y98.288 E.03001
G1 X127.078 Y98.587 E.03527
G1 X128.395 Y99.18 E.03492
G1 X129.119 Y99.668 E.02112
G1 X130.172 Y100.685 E.03541
G1 X130.978 Y101.901 E.03527
G1 X131.505 Y103.261 E.03527
G1 X131.725 Y104.694 E.03506
G1 X131.637 Y106.121 E.03459
G1 X131.505 Y106.739 E.01529
G1 X130.979 Y108.099 E.03527
G1 X130.172 Y109.315 E.03527
G1 X129.232 Y110.249 E.03204
G1 X128.408 Y110.814 E.02418
G1 X127.078 Y111.413 E.03527
G1 X125.65 Y111.712 E.03527
G1 X124.192 Y111.697 E.03527
G1 X122.779 Y111.372 E.03506
G1 X121.466 Y110.751 E.03513
G1 X120.306 Y109.854 E.03548
G1 X119.383 Y108.748 E.03484
G1 X119.061 Y108.219 E.01498
G1 X118.508 Y106.869 E.03527
G1 X118.259 Y105.447 E.03492
G1 X118.322 Y103.975 E.03562
G1 X118.698 Y102.566 E.03527
G1 X119.368 Y101.271 E.03527
G1 X119.892 Y100.582 E.02092
G1 X120.961 Y99.59 E.03527
G1 X122.21 Y98.855 E.03506
G1 X122.779 Y98.628 E.01482
G1 X124.192 Y98.303 E.03506
G1 X124.35 Y98.301 E.00381
G1 X124.355 Y98.677 F10800
G1 F1093
G1 X125.589 Y98.66 E.02986
G1 X126.938 Y98.938 E.03331
G1 X128.184 Y99.492 E.03298
G1 X128.908 Y99.981 E.02112
G1 X129.898 Y100.945 E.03342
G1 X130.655 Y102.095 E.0333
G1 X131.147 Y103.381 E.0333
G1 X131.35 Y104.734 E.0331
G1 X131.262 Y106.08 E.03262
G1 X131.147 Y106.619 E.01332
G1 X130.655 Y107.905 E.0333
G1 X129.898 Y109.055 E.0333
G1 X129.003 Y109.949 E.0306
G1 X128.196 Y110.502 E.02365
G1 X126.938 Y111.062 E.03331
G1 X125.589 Y111.34 E.0333
G1 X124.212 Y111.321 E.0333
G1 X122.88 Y111.009 E.0331
G1 X121.642 Y110.417 E.03318
G1 X120.549 Y109.566 E.03351
G1 X119.683 Y108.52 E.03285
G1 X119.403 Y108.06 E.013
G1 X118.876 Y106.788 E.0333
G1 X118.637 Y105.446 E.03297
G1 X118.69 Y104.057 E.03363
M73 Q6 S8
G1 X119.04 Y102.725 E.0333
G1 X119.668 Y101.499 E.0333
G1 X120.192 Y100.811 E.02092
G1 X121.205 Y99.878 E.03331
G1 X122.387 Y99.188 E.03309
M73 P6 R8
G1 X122.88 Y98.991 E.01285
G1 X124.212 Y98.679 E.0331
G1 X124.295 Y98.678 E.00199
; printing object spacers-Body (Meshed).stl id:0 copy 0
;WIPE_START
G1 F8640
G1 X125.589 Y98.66 E-.29893
G1 X126.938 Y98.938 E-.31798
G1 X127.504 Y99.19 E-.14309
;WIPE_END
G1 E-.04 F2100
G1 Z.75 F720
G1 X124.917 Y102.111 F10800
G1 Z.35 F720
G1 E.8 F2100
M204 S800
;TYPE:Perimeter
;WIDTH:0.45
G1 F1093
G1 X124.97 Y102.104 E.00139
G1 X125.736 Y102.2 E.02012
G1 X126.437 Y102.49 E.01977
G1 X127.038 Y102.951 E.01971
G1 X127.498 Y103.551 E.01971
G1 X127.788 Y104.25 E.01971
G1 X127.887 Y105 E.01971
G1 X127.788 Y105.75 E.01971
G1 X127.498 Y106.449 E.01971
G1 X127.038 Y107.049 E.01971
G1 X126.437 Y107.51 E.01971
G1 X125.738 Y107.8 E.01971
G1 X124.988 Y107.898 E.01971
G1 X124.238 Y107.8 E.01971
G1 X123.539 Y107.51 E.01971
G1 X122.939 Y107.049 E.01971
G1 X122.478 Y106.449 E.01971
G1 X122.189 Y105.75 E.01971
G1 X122.09 Y105 E.01971
G1 X122.189 Y104.25 E.01971
G1 X122.478 Y103.551 E.01971
G1 X122.939 Y102.951 E.01971
G1 X123.539 Y102.49 E.01971
G1 X124.238 Y102.2 E.01971
G1 X124.857 Y102.119 E.01628
M204 S1000
G1 X124.971 Y102.525 F10800
M204 S800
;TYPE:External perimeter
G1 F1093
G1 X125.629 Y102.607 E.01725
G1 X126.227 Y102.855 E.01687
G1 X126.74 Y103.249 E.01685
G1 X127.133 Y103.762 E.01685
G1 X127.381 Y104.359 E.01685
G1 X127.465 Y105 E.01685
G1 X127.381 Y105.641 E.01685
G1 X127.133 Y106.238 E.01685
G1 X126.74 Y106.751 E.01685
G1 X126.227 Y107.145 E.01685
G1 X125.629 Y107.393 E.01685
G1 X124.988 Y107.477 E.01685
G1 X124.347 Y107.393 E.01685
G1 X123.75 Y107.145 E.01685
G1 X123.237 Y106.751 E.01685
G1 X122.843 Y106.238 E.01685
G1 X122.596 Y105.641 E.01685
G1 X122.511 Y105 E.01685
G1 X122.596 Y104.359 E.01685
G1 X122.843 Y103.762 E.01685
G1 X123.237 Y103.249 E.01685
G1 X123.75 Y102.855 E.01685
G1 X124.347 Y102.607 E.01685
G1 X124.912 Y102.533 E.01484
M204 S1000
G1 X125.17 Y102.178 F10800
G1 X125.191 Y101.655
M204 S800
;TYPE:Perimeter
G1 F1093
G1 X125.885 Y101.769 E.01832
G1 X126.559 Y102.037 E.01889
G1 X127.159 Y102.444 E.01889
G1 X127.658 Y102.971 E.01889
G1 X128.032 Y103.592 E.01889
G1 X128.263 Y104.279 E.01889
G1 X128.342 Y105 E.01889
G1 X128.263 Y105.721 E.01889
G1 X128.032 Y106.408 E.01889
G1 X127.659 Y107.028 E.01885
G1 X127.141 Y107.568 E.0195
G1 X126.559 Y107.963 E.01832
G1 X125.885 Y108.231 E.01889
G1 X125.17 Y108.348 E.01889
G1 X124.446 Y108.309 E.01889
G1 X123.747 Y108.115 E.01889
G1 X123.106 Y107.776 E.01889
