; generated by PrusaSlicer 2.4.1+x64 on 2022-04-23 at 16:32:12 UTC

; 

; external perimeters extrusion width = 0.45mm
; perimeters extrusion width = 0.45mm
; infill extrusion width = 0.45mm
; solid infill extrusion width = 0.45mm
; top infill extrusion width = 0.40mm
; support material extrusion width = 0.35mm
; first layer extrusion width = 0.42mm

M73 P0 R55
M73 Q0 S56
M201 X1000 Y1000 Z200 E5000 ; sets maximum accelerations, mm/sec^2
M203 X200 Y200 Z12 E120 ; sets maximum feedrates, mm / sec
M204 P1250 R1250 T1250 ; sets acceleration (P, T) and retract acceleration (R), mm/sec^2
M205 X8.00 Y8.00 Z0.40 E4.50 ; sets the jerk limits, mm/sec
M205 S0 T0 ; sets the minimum extruding and travel feed rate, mm/sec
M107
;TYPE:Custom
M862.3 P "MK3S" ; printer model check
M862.1 P0.4 ; nozzle diameter check
M115 U3.10.1 ; tell printer latest fw version
G90 ; use absolute coordinates
M83 ; extruder relative mode
M104 S215 ; set extruder temp
M140 S60 ; set bed temp
M190 S60 ; wait for bed temp
M109 S215 ; wait for extruder temp
G28 W ; home all without mesh bed level
G80 ; mesh bed leveling
G1 Z0.2 F720
G1 Y-3 F1000 ; go outside print area
G92 E0
G1 X60 E9 F1000 ; intro line
G1 X100 E12.5 F1000 ; intro line
G92 E0
M221 S95

; Don't change E values below. Excessive value can damage the printer.
M907 E430 ; set extruder motor current
G21 ; set units to millimeters
G90 ; use absolute coordinates
M83 ; use relative distances for extrusion
M900 K0.05 ; Filament gcode LA 1.5
M900 K30 ; Filament gcode LA 1.0
M107
;LAYER_CHANGE
;Z:0.2
;HEIGHT:0.2
;BEFORE_LAYER_CHANGE
G92 E0.0
;0.2


M73 Q0 S55
G1 E-.8 F2100
G1 Z.4 F720
;AFTER_LAYER_CHANGE
;0.2
G1 X125.352 Y110.675 F10800
G1 Z.2 F720
G1 E.8 F2100
M204 S800
;TYPE:Skirt/Brim
;WIDTH:0.42
G1 F1200
G1 X126.914 Y109.174 E.06793
G1 X128.34 Y108.236 E.0535
G1 X129.879 Y107.55 E.05285
G1 X131.509 Y107.121 E.05285
G1 X132.684 Y106.978 E.03709
G1 X134.369 Y107.005 E.05285
G1 X136.028 Y107.303 E.05285
G1 X138.054 Y108.07 E.06792
G1 X139.513 Y108.956 E.05351
G1 X140.429 Y109.704 E.03709
G1 X141.535 Y110.892 E.05088
G1 X142.512 Y112.341 E.0548
G1 X143.209 Y113.876 E.05285
G1 X143.733 Y115.999 E.06859
G1 X143.828 Y117.682 E.05285
G1 X143.655 Y119.338 E.0522
G1 X143.37 Y120.501 E.03755
G1 X142.751 Y122.06 E.05258
G1 X141.879 Y123.519 E.05331
G1 X140.606 Y124.999 E.0612
G1 X139.098 Y126.191 E.06028
G1 X138.073 Y126.783 E.03709
G1 X136.512 Y127.418 E.05285
G1 X134.869 Y127.795 E.05285
G1 X132.684 Y127.883 E.06858
G1 X131.016 Y127.64 E.05285
G1 X129.879 Y127.31 E.03709
G1 X128.353 Y126.631 E.05239
G1 X126.539 Y125.382 E.06904
G1 X125.352 Y124.185 E.05285
G1 X124.372 Y122.814 E.05285
G1 X123.625 Y121.303 E.05285
G1 X123.25 Y120.181 E.03709
G1 X122.902 Y118.043 E.06793
G1 X122.94 Y116.337 E.0535
G1 X123.25 Y114.68 E.05285
G1 X123.815 Y113.114 E.0522
G1 X124.369 Y112.052 E.03755
G1 X125.317 Y110.724 E.05116
M204 S1000
G1 X125.616 Y110.952 F10800
M204 S800
G1 F1200
G1 X126.801 Y109.751 E.05291
G1 X128.501 Y108.577 E.06479
G1 X129.984 Y107.913 E.05095
G1 X131.569 Y107.493 E.0514
G1 X133.172 Y107.334 E.0505
G1 X134.354 Y107.382 E.03709
G1 X135.953 Y107.672 E.05095
G1 X137.885 Y108.405 E.06479
G1 X139.274 Y109.248 E.05095
G1 X140.19 Y109.996 E.03709
G1 X141.253 Y111.142 E.04898
G1 X142.193 Y112.543 E.0529
G1 X142.862 Y114.023 E.05095
G1 X143.286 Y115.592 E.05095
G1 X143.452 Y117.652 E.06479
G1 X143.357 Y118.831 E.03709
G1 X143.003 Y120.417 E.05095
G1 X142.399 Y121.926 E.05095
G1 X141.561 Y123.318 E.05095
G1 X140.191 Y124.864 E.06478
G1 X138.909 Y125.865 E.05096
G1 X137.484 Y126.646 E.05095
G1 X136.378 Y127.065 E.03709
G1 X134.794 Y127.425 E.05095
G1 X132.729 Y127.509 E.06479
G1 X131.12 Y127.277 E.05095
G1 X129.984 Y126.948 E.03709
G1 X128.501 Y126.284 E.05096
G1 X126.801 Y125.11 E.06479
G1 X125.654 Y123.959 E.05095
G1 X124.706 Y122.639 E.05095
G1 X123.983 Y121.184 E.05095
G1 X123.608 Y120.062 E.03709
G1 X123.312 Y118.463 E.05096
G1 X123.277 Y116.839 E.05095
G1 X123.608 Y114.799 E.06479
G1 X124.156 Y113.27 E.05095
G1 X124.706 Y112.222 E.03709
G1 X125.581 Y111.001 E.0471
M204 S1000
G1 X125.888 Y111.222 F10800
M204 S800
G1 F1200
G1 X125.955 Y111.128 E.00362
G1 X127.062 Y110.023 E.04905
G1 X128.663 Y108.918 E.061
G1 X130.089 Y108.275 E.04905
G1 X131.615 Y107.867 E.04951
G1 X133.157 Y107.711 E.0486
G1 X134.339 Y107.759 E.03709
G1 X135.877 Y108.042 E.04905
G1 X137.696 Y108.731 E.061
G1 X139.036 Y109.54 E.04905
G1 X139.952 Y110.288 E.03709
G1 X140.97 Y111.392 E.04708
G1 X141.874 Y112.744 E.051
G1 X142.516 Y114.171 E.04905
G1 X142.981 Y116.06 E.061
G1 X143.076 Y117.622 E.04905
G1 X142.981 Y118.801 E.03709
G1 X142.637 Y120.327 E.04905
G1 X142.052 Y121.778 E.04905
G1 X141.242 Y123.116 E.04905
G1 X139.952 Y124.572 E.06099
G1 X138.721 Y125.538 E.04906
G1 X137.696 Y126.129 E.03709
G1 X136.245 Y126.713 E.04905
G1 X134.718 Y127.056 E.04905
G1 X132.774 Y127.134 E.061
G1 X131.6 Y126.992 E.03709
G1 X130.089 Y126.586 E.04905
G1 X128.663 Y125.943 E.04906
G1 X127.062 Y124.838 E.06099
G1 X125.955 Y123.732 E.04905
G1 X125.04 Y122.463 E.04905
G1 X124.49 Y121.416 E.03709
G1 X123.966 Y119.942 E.04905
G1 X123.684 Y118.403 E.04906
G1 X123.684 Y116.458 E.06099
G1 X123.966 Y114.919 E.04905
G1 X124.34 Y113.797 E.03709
G1 X125.04 Y112.397 E.04905
G1 X125.852 Y111.271 E.04355
M204 S1000
; printing object stepper_housing_drive_shaft_mesh.stl id:0 copy 0
;WIPE_START
G1 F8640
G1 X125.955 Y111.128 E-.0405
G1 X127.062 Y110.023 E-.36125
G1 X128.339 Y109.141 E-.35824
;WIPE_END
G1 E-.04 F2100
G1 Z.6 F720
G1 X134.669 Y111.897 F10800
G1 Z.2 F720
G1 E.8 F2100
M204 S800
;TYPE:Support material
G1 F1200
G1 X134.702 Y112.221 E.01021
G1 X134.68 Y112.428 E.00653
G1 X134.564 Y112.745 E.01059
G1 X134.523 Y112.95 E.00656
G1 X134.526 Y113.085 E.00422
G1 X134.568 Y113.259 E.0056
G1 X134.663 Y113.446 E.00659
G1 X134.806 Y113.599 E.00656
G1 X134.944 Y113.688 E.00513
G1 X135.268 Y113.845 E.01131
G1 X135.404 Y113.898 E.00458
G1 X135.597 Y113.926 E.0061
G1 X135.791 Y113.905 E.0061
G1 X135.973 Y113.837 E.0061
G1 X136.176 Y113.684 E.00798
G1 X136.443 Y113.277 E.01525
G1 X136.586 Y113.136 E.00631
G1 X136.803 Y112.989 E.00821
G1 X136.959 Y112.91 E.00548
G1 X136.939 Y113.014 E.00334
G1 X136.829 Y113.321 E.01021
G1 X136.719 Y113.497 E.00653
G1 X136.382 Y113.848 E.01525
G1 X136.296 Y114.023 E.0061
G1 X136.255 Y114.213 E.00611
G1 X136.263 Y114.408 E.0061
G1 X136.339 Y114.636 E.00754
G1 X136.635 Y115.03 E.01545
G1 X136.781 Y115.174 E.00645
G1 X136.896 Y115.245 E.00422
G1 X137.079 Y115.31 E.00611
G1 X137.333 Y115.324 E.00798
G1 X137.522 Y115.278 E.0061
G1 X137.939 Y115.028 E.01525
G1 X138.129 Y114.962 E.00631
G1 X138.389 Y114.924 E.00821
G1 X138.563 Y114.92 E.00548
G1 X138.501 Y115.006 E.00334
G1 X138.269 Y115.234 E.01021
G1 X138.093 Y115.346 E.00653
G1 X137.637 Y115.516 E.01525
G1 X137.483 Y115.635 E.00611
G1 X137.364 Y115.789 E.0061
G1 X137.283 Y115.982 E.00655
G1 X137.256 Y116.16 E.00565
G1 X137.272 Y116.338 E.00559
G1 X137.352 Y116.689 E.0113
G1 X137.395 Y116.829 E.00458
G1 X137.493 Y116.997 E.0061
G1 X137.63 Y117.135 E.0061
G1 X137.797 Y117.235 E.00611
G1 X138.044 Y117.298 E.00798
G1 X138.528 Y117.254 E.01525
G1 X138.728 Y117.277 E.00631
G1 X138.978 Y117.356 E.00821
G1 X139.137 Y117.428 E.00548
G1 X139.043 Y117.478 E.00334
G1 X138.735 Y117.583 E.01021
G1 X138.528 Y117.607 E.00653
G1 X138.044 Y117.562 E.01525
G1 X137.854 Y117.603 E.0061
G1 X137.679 Y117.69 E.0061
G1 X137.493 Y117.864 E.00798
G1 X137.395 Y118.032 E.0061
G1 X137.277 Y118.496 E.01501
G1 X137.256 Y118.701 E.00645
G1 X137.287 Y118.893 E.0061
G1 X137.335 Y119.019 E.00422
G1 X137.483 Y119.226 E.00798
G1 X137.652 Y119.352 E.0066
G1 X138.093 Y119.515 E.01474
G1 X138.263 Y119.623 E.00631
G1 X138.454 Y119.802 E.00821
G1 X138.566 Y119.936 E.00548
G1 X138.46 Y119.94 E.00334
G1 X138.136 Y119.901 E.01021
G1 X137.939 Y119.833 E.00653
G1 X137.522 Y119.583 E.01525
G1 X137.333 Y119.537 E.0061
G1 X137.139 Y119.54 E.0061
G1 X136.951 Y119.591 E.0061
G1 X136.781 Y119.687 E.00611
G1 X136.652 Y119.81 E.00559
G1 X136.427 Y120.092 E.01131
G1 X136.319 Y120.267 E.00646
G1 X136.263 Y120.453 E.0061
G1 X136.255 Y120.648 E.0061
G1 X136.282 Y120.794 E.00465
G1 X136.382 Y121.012 E.00755
G1 X136.719 Y121.363 E.01525
G1 X136.826 Y121.534 E.00631
G1 X136.92 Y121.778 E.00821
G1 X136.963 Y121.948 E.00548
G1 X136.865 Y121.906 E.00334
G1 X136.591 Y121.73 E.01021
G1 X136.443 Y121.583 E.00653
G1 X136.176 Y121.177 E.01525
G1 X136.025 Y121.054 E.0061
G1 X135.836 Y120.968 E.00652
G1 X135.596 Y120.935 E.0076
G1 X135.404 Y120.963 E.00606
G1 X134.968 Y121.16 E.01501
G1 X134.795 Y121.271 E.00646
G1 X134.663 Y121.415 E.0061
G1 X134.596 Y121.531 E.00422
G1 X134.526 Y121.776 E.00798
G1 X134.529 Y121.971 E.00611
G1 X134.68 Y122.433 E.01524
G1 X134.702 Y122.633 E.00631
G1 X134.681 Y122.894 E.00821
G1 X134.646 Y123.065 E.00548
G1 X134.576 Y122.985 E.00334
G1 X134.405 Y122.708 E.01021
G1 X134.336 Y122.511 E.00653
G1 X134.271 Y122.029 E.01525
G1 X134.189 Y121.853 E.0061
G1 X134.066 Y121.702 E.0061
G1 X133.909 Y121.587 E.0061
G1 X133.714 Y121.512 E.00655
G1 X133.551 Y121.491 E.00515
G1 X133.19 Y121.49 E.01132
G1 X132.986 Y121.514 E.00645
G1 X132.847 Y121.566 E.00465
G1 X132.694 Y121.662 E.00568
G1 X132.559 Y121.803 E.0061
G1 X132.439 Y122.045 E.00847
G1 X132.378 Y122.511 E.01474
G1 X132.311 Y122.701 E.00631
G1 X132.179 Y122.927 E.00821
G1 X132.073 Y123.066 E.00548
G1 X132.045 Y122.964 E.00334
G1 X132.011 Y122.64 E.01021
G1 X132.034 Y122.433 E.00653
G1 X132.185 Y121.97 E.01525
G1 X132.188 Y121.776 E.0061
G1 X132.142 Y121.587 E.0061
G1 X132.05 Y121.415 E.0061
G1 X131.919 Y121.271 E.0061
G1 X131.77 Y121.173 E.00559
G1 X131.446 Y121.016 E.01131
G1 X131.309 Y120.963 E.00458
G1 X131.117 Y120.935 E.0061
G1 X130.909 Y120.96 E.00656
G1 X130.738 Y121.025 E.00573
G1 X130.537 Y121.178 E.00794
G1 X130.271 Y121.583 E.0152
G1 X130.128 Y121.725 E.00631
G1 X129.911 Y121.872 E.00821
G1 X129.755 Y121.951 E.00548
G1 X129.774 Y121.847 E.00334
G1 X129.884 Y121.54 E.01021
G1 X129.995 Y121.363 E.00653
G1 X130.331 Y121.013 E.01525
G1 X130.418 Y120.838 E.0061
G1 X130.459 Y120.648 E.00611
G1 X130.451 Y120.453 E.0061
G1 X130.375 Y120.225 E.00754
G1 X130.079 Y119.831 E.01544
G1 X129.933 Y119.687 E.00646
G1 X129.763 Y119.591 E.0061
G1 X129.635 Y119.55 E.00422
G1 X129.381 Y119.537 E.00798
G1 X129.191 Y119.583 E.0061
G1 X128.774 Y119.833 E.01525
G1 X128.584 Y119.899 E.00631
G1 X128.325 Y119.937 E.00821
G1 X128.15 Y119.941 E.00548
G1 X128.213 Y119.855 E.00334
G1 X128.445 Y119.626 E.01021
G1 X128.621 Y119.515 E.00653
G1 X128.942 Y119.408 E.01059
G1 X129.088 Y119.338 E.00509
G1 X129.232 Y119.224 E.00576
G1 X129.35 Y119.072 E.00603
G1 X129.427 Y118.893 E.0061
G1 X129.458 Y118.701 E.0061
G1 X129.442 Y118.523 E.00559
G1 X129.362 Y118.172 E.0113
G1 X129.319 Y118.032 E.00458
G1 X129.22 Y117.864 E.00611
G1 X129.084 Y117.726 E.0061
G1 X128.917 Y117.625 E.00611
G1 X128.67 Y117.562 E.00798
G1 X128.186 Y117.607 E.01525
G1 X127.986 Y117.584 E.00631
G1 X127.736 Y117.505 E.00821
G1 X127.577 Y117.433 E.00548
G1 X127.671 Y117.383 E.00334
G1 X127.979 Y117.278 E.01021
G1 X128.186 Y117.254 E.00653
G1 X128.67 Y117.298 E.01525
G1 X128.873 Y117.252 E.00653
G1 X129.035 Y117.171 E.00568
G1 X129.22 Y116.997 E.00798
G1 X129.319 Y116.829 E.00611
G1 X129.436 Y116.365 E.015
G1 X129.458 Y116.16 E.00646
G1 X129.442 Y116.026 E.00422
G1 X129.385 Y115.857 E.0056
G1 X129.231 Y115.635 E.00847
G1 X129.077 Y115.516 E.00611
G1 X128.621 Y115.346 E.01525
G1 X128.451 Y115.238 E.00631
G1 X128.26 Y115.059 E.00821
G1 X128.148 Y114.925 E.00548
G1 X128.254 Y114.92 E.00334
G1 X128.578 Y114.96 E.01021
G1 X128.774 Y115.028 E.00653
G1 X129.191 Y115.278 E.01525
G1 X129.381 Y115.324 E.0061
G1 X129.575 Y115.321 E.0061
G1 X129.763 Y115.27 E.0061
G1 X129.933 Y115.174 E.00611
G1 X130.061 Y115.051 E.00559
G1 X130.287 Y114.769 E.01131
G1 X130.395 Y114.594 E.00646
G1 X130.448 Y114.422 E.00564
G1 X130.462 Y114.273 E.00469
G1 X130.432 Y114.067 E.00655
G1 X130.33 Y113.847 E.00758
G1 X129.995 Y113.497 E.0152
G1 X129.888 Y113.327 E.00631
G1 X129.794 Y113.082 E.00821
G1 X129.751 Y112.913 E.00548
G1 X129.849 Y112.955 E.00334
G1 X130.123 Y113.131 E.01021
G1 X130.271 Y113.277 E.00653
G1 X130.538 Y113.684 E.01525
G1 X130.688 Y113.807 E.0061
G1 X130.865 Y113.889 E.0061
G1 X131.056 Y113.925 E.0061
G1 X131.309 Y113.898 E.00798
G1 X131.746 Y113.701 E.015
G1 X131.919 Y113.59 E.00646
G1 X132.014 Y113.494 E.00422
G1 X132.118 Y113.33 E.0061
G1 X132.188 Y113.069 E.00847
G1 X132.185 Y112.89 E.00559
G1 X132.034 Y112.428 E.01525
G1 X132.012 Y112.228 E.00631
G1 X132.033 Y111.967 E.00821
G1 X132.068 Y111.796 E.00548
G1 X132.138 Y111.876 E.00334
G1 X132.309 Y112.153 E.01021
G1 X132.378 Y112.35 E.00653
G1 X132.443 Y112.832 E.01525
G1 X132.559 Y113.058 E.00798
G1 X132.694 Y113.199 E.0061
G1 X132.846 Y113.294 E.00565
G1 X132.986 Y113.346 E.00467
G1 X133.19 Y113.371 E.00646
G1 X133.551 Y113.37 E.01131
G1 X133.728 Y113.346 E.00559
G1 X133.896 Y113.28 E.00566
G1 X134.066 Y113.159 E.00654
G1 X134.189 Y113.008 E.0061
G1 X134.266 Y112.844 E.00569
G1 X134.302 Y112.686 E.00509
G1 X134.336 Y112.35 E.01059
G1 X134.403 Y112.16 E.00631
G1 X134.535 Y111.934 E.00821
G1 X134.64 Y111.795 E.00548
G1 X134.654 Y111.843 E.00156
M204 S1000
;WIPE_START
G1 F8640
G1 X134.64 Y111.795 E-.01152
G1 X134.535 Y111.934 E-.04035
G1 X134.403 Y112.16 E-.06048
G1 X134.336 Y112.35 E-.04645
G1 X134.302 Y112.686 E-.078
G1 X134.266 Y112.844 E-.03748
G1 X134.189 Y113.008 E-.04187
G1 X134.066 Y113.159 E-.04496
G1 X133.896 Y113.28 E-.04818
G1 X133.728 Y113.346 E-.0417
G1 X133.551 Y113.37 E-.0412
G1 X133.19 Y113.371 E-.08326
G1 X132.986 Y113.346 E-.04756
G1 X132.846 Y113.294 E-.0344
G1 X132.694 Y113.199 E-.04163
G1 X132.559 Y113.058 E-.04496
G1 X132.527 Y112.996 E-.016
;WIPE_END
G1 E-.04 F2100
G1 Z.6 F720
G1 X137.14 Y118.349 F10800
G1 Z.2 F720
G1 E.8 F2100
M204 S800
G1 F1200
G1 X137.14 Y117.073 E.04001
G1 X137.033 Y116.812 E.00883
G1 X136.917 Y116.244 E.01818
G1 X136.943 Y115.942 E.00952
G1 X137.053 Y115.651 E.00976
G1 X136.829 Y115.588 E.0073
G1 X136.721 Y115.536 E.00376
G1 X136.721 Y119.325 E.11881
G1 X136.504 Y119.474 E.00825
G1 X136.302 Y119.708 E.0097
G1 X136.302 Y115.153 E.14284
G1 X136.132 Y114.942 E.00848
G1 X136.016 Y114.746 E.00713
G1 X135.926 Y114.456 E.00954
G1 X135.915 Y114.223 E.0073
G1 X135.883 Y114.232 E.00104
G1 X135.883 Y120.629 E.20058
G1 X135.682 Y120.597 E.00637
G1 X135.464 Y120.608 E.00686
G1 X135.464 Y114.253 E.19925
G1 X135.306 Y114.223 E.00504
G1 X135.045 Y114.112 E.00889
G1 X135.045 Y120.749 E.20808
G1 X134.778 Y120.877 E.00929
G1 X134.626 Y120.972 E.00562
G1 X134.626 Y113.888 E.2221
G1 X134.444 Y113.717 E.00783
G1 X134.27 Y113.431 E.01051
G1 X134.207 Y113.482 E.00254
G1 X134.207 Y121.379 E.2476
G1 X133.989 Y121.247 E.00798
G1 X133.788 Y121.18 E.00664
G1 X133.788 Y113.681 E.23515
G1 X133.572 Y113.709 E.00682
G1 X133.369 Y113.708 E.00638
G1 X133.369 Y121.153 E.23345
G1 X133.141 Y121.152 E.00713
G1 X132.95 Y121.175 E.00605
G1 X132.95 Y113.686 E.23481
G1 X132.702 Y113.602 E.00819
G1 X132.531 Y113.498 E.00629
G1 X132.531 Y121.363 E.24659
G1 X132.444 Y121.43 E.00344
G1 X132.333 Y121.225 E.0073
G1 X132.112 Y120.991 E.0101
G1 X132.112 Y113.87 E.22327
G1 X131.936 Y113.984 E.00657
G1 X131.693 Y114.1 E.00845
G1 X131.693 Y120.761 E.20885
G1 X131.408 Y120.638 E.00973
G1 X131.274 Y120.61 E.0043
G1 X131.274 Y114.251 E.1994
G1 X131.028 Y114.264 E.00771
G1 X130.855 Y114.238 E.0055
G1 X130.855 Y120.624 E.20022
G1 X130.799 Y120.638 E.0018
G1 X130.788 Y120.405 E.00731
G1 X130.698 Y120.114 E.00954
G1 X130.582 Y119.919 E.00713
G1 X130.436 Y119.739 E.00727
G1 X130.436 Y115.122 E.14474
G1 X130.21 Y115.386 E.01091
G1 X130.017 Y115.521 E.00737
G1 X130.017 Y119.34 E.11974
G1 X129.885 Y119.273 E.00463
G1 X129.661 Y119.21 E.0073
G1 X129.776 Y118.896 E.01051
G1 X129.797 Y118.617 E.00878
G1 X129.693 Y118.095 E.01669
G1 X129.598 Y117.829 E.00883
G1 X129.598 Y116.418 E.04426
M204 S1000
;WIPE_START
G1 F8640
G1 X129.598 Y117.829 E-.32596
G1 X129.693 Y118.095 E-.06503
G1 X129.797 Y118.617 E-.1229
G1 X129.776 Y118.896 E-.06463
G1 X129.661 Y119.21 E-.07737
G1 X129.885 Y119.273 E-.05377
