; generated by PrusaSlicer 2.4.1+x64 on 2022-04-12 at 07:08:18 UTC

; 

; external perimeters extrusion width = 0.45mm
; perimeters extrusion width = 0.45mm
; infill extrusion width = 0.45mm
; solid infill extrusion width = 0.45mm
; top infill extrusion width = 0.40mm
; support material extrusion width = 0.35mm
; first layer extrusion width = 0.42mm

M73 P0 R23
M73 Q0 S23
M201 X1000 Y1000 Z200 E5000 ; sets maximum accelerations, mm/sec^2
M203 X200 Y200 Z12 E120 ; sets maximum feedrates, mm / sec
M204 P1250 R1250 T1250 ; sets acceleration (P, T) and retract acceleration (R), mm/sec^2
M205 X8.00 Y8.00 Z0.40 E4.50 ; sets the jerk limits, mm/sec
M205 S0 T0 ; sets the minimum extruding and travel feed rate, mm/sec
M107
;TYPE:Custom
M862.3 P "MK3S" ; printer model check
M862.1 P0.4 ; nozzle diameter check
M115 U3.10.1 ; tell printer latest fw version
G90 ; use absolute coordinates
M83 ; extruder relative mode
M104 S215 ; set extruder temp
M140 S60 ; set bed temp
M190 S60 ; wait for bed temp
M109 S215 ; wait for extruder temp
G28 W ; home all without mesh bed level
G80 ; mesh bed leveling
G1 Z0.2 F720
G1 Y-3 F1000 ; go outside print area
G92 E0
G1 X60 E9 F1000 ; intro line
G1 X100 E12.5 F1000 ; intro line
G92 E0
M221 S95

; Don't change E values below. Excessive value can damage the printer.
M907 E430 ; set extruder motor current
G21 ; set units to millimeters
G90 ; use absolute coordinates
M83 ; use relative distances for extrusion
M900 K0.05 ; Filament gcode LA 1.5
M900 K30 ; Filament gcode LA 1.0
M107
;LAYER_CHANGE
;Z:0.2
;HEIGHT:0.2
;BEFORE_LAYER_CHANGE
G92 E0.0
;0.2


G1 E-.8 F2100
G1 Z.4 F720
;AFTER_LAYER_CHANGE
;0.2
G1 X114.372 Y95.316 F10800
G1 Z.2 F720
G1 E.8 F2100
M204 S800
;TYPE:Skirt/Brim
;WIDTH:0.42
G1 F1200
G1 X115.438 Y94.303 E.04612
G1 X116.733 Y93.979 E.04186
G1 X133.267 Y93.979 E.51839
G1 X134.684 Y94.372 E.04612
G1 X135.697 Y95.438 E.04612
G1 X136.021 Y96.733 E.04186
G1 X136.021 Y113.267 E.51839
G1 X135.628 Y114.684 E.04612
G1 X134.562 Y115.697 E.04612
G1 X133.267 Y116.021 E.04186
G1 X116.733 Y116.021 E.51839
G1 X115.316 Y115.628 E.04612
G1 X114.303 Y114.562 E.04612
G1 X113.979 Y113.267 E.04186
G1 X113.979 Y96.733 E.51839
G1 X114.356 Y95.374 E.04424
M204 S1000
G1 X114.73 Y95.486 F10800
M204 S800
G1 F1200
G1 X114.748 Y95.426 E.00195
G1 X115.794 Y94.55 E.04278
G1 X116.733 Y94.356 E.03008
G1 X133.267 Y94.356 E.51839
G1 X134.574 Y94.748 E.04278
G1 X135.45 Y95.794 E.04278
G1 X135.644 Y96.733 E.03008
G1 X135.644 Y113.267 E.51839
G1 X135.252 Y114.574 E.04278
G1 X134.206 Y115.45 E.04278
G1 X133.267 Y115.644 E.03008
G1 X116.733 Y115.644 E.51839
G1 X115.426 Y115.252 E.04278
M73 P1 R23
M73 Q1 S23
G1 X114.55 Y114.206 E.04278
G1 X114.356 Y113.267 E.03008
G1 X114.356 Y96.733 E.51839
G1 X114.713 Y95.543 E.03895
M204 S1000
; printing object window_blind_plug_mesh.stl id:0 copy 0
;WIPE_START
G1 F8640
G1 X114.748 Y95.426 E-.0282
G1 X115.794 Y94.55 E-.31505
G1 X116.733 Y94.356 E-.22155
G1 X117.579 Y94.356 E-.1952
;WIPE_END
G1 E-.04 F2100
G1 Z.6 F720
G1 X133.267 Y113.267 F10800
G1 Z.2 F720
G1 E.8 F2100
M204 S800
;TYPE:Support material
G1 F1200
G1 X116.733 Y113.267 E.51839
G1 X116.733 Y96.733 E.51839
G1 X133.267 Y96.733 E.51839
G1 X133.267 Y113.21 E.51661
M204 S1000
;WIPE_START
G1 F8640
G1 X133.267 Y109.919 E-.76
;WIPE_END
G1 E-.04 F2100
G1 Z.6 F720
G1 X124.711 Y99.778 F10800
G1 Z.2 F720
G1 E.8 F2100
M204 S800
G1 F1200
G1 X123.666 Y99.943 E.03318
G1 X122.675 Y100.315 E.03318
G1 X121.779 Y100.879 E.03318
G1 X121.016 Y101.612 E.03318
G1 X120.415 Y102.483 E.03318
G1 X120.003 Y103.458 E.03318
G1 X119.794 Y104.495 E.03318
G1 X119.794 Y105.505 E.03166
G1 X120.003 Y106.542 E.03318
G1 X120.415 Y107.517 E.03318
G1 X121.016 Y108.388 E.03318
G1 X121.779 Y109.121 E.03318
G1 X122.675 Y109.685 E.03318
G1 X123.665 Y110.057 E.03318
G1 X124.759 Y110.225 E.0347
G1 X125.816 Y110.166 E.03318
G1 X126.839 Y109.896 E.03318
G1 X127.787 Y109.426 E.03318
G1 X128.621 Y108.774 E.03318
G1 X129.306 Y107.968 E.03318
G1 X129.797 Y107.085 E.03166
G1 X130.118 Y106.077 E.03318
G1 X130.23 Y105.024 E.03318
G1 X130.128 Y103.971 E.03318
G1 X129.816 Y102.96 E.03318
G1 X129.306 Y102.032 E.03318
G1 X128.621 Y101.226 E.03318
G1 X127.787 Y100.574 E.03318
G1 X126.839 Y100.104 E.03318
G1 X125.816 Y99.834 E.03318
G1 X124.767 Y99.776 E.03293
M204 S1000
;WIPE_START
G1 F8640
G1 X125.816 Y99.834 E-.24252
G1 X126.839 Y100.104 E-.24436
G1 X127.787 Y100.574 E-.24434
G1 X127.885 Y100.651 E-.02877
;WIPE_END
G1 E-.04 F2100
G1 Z.6 F720
G1 X132.542 Y113.097 F10800
G1 Z.2 F720
G1 E.8 F2100
M204 S800
G1 F1200
G1 X132.542 Y97.073 E.50243
G1 X132.123 Y97.073 E.01314
G1 X132.123 Y112.927 E.49711
G1 X131.704 Y112.927 E.01314
G1 X131.704 Y97.073 E.49711
G1 X131.285 Y97.073 E.01314
G1 X131.285 Y112.927 E.49711
G1 X130.866 Y112.927 E.01314
G1 X130.866 Y97.073 E.49711
G1 X130.447 Y97.073 E.01314
G1 X130.447 Y112.927 E.49711
G1 X130.028 Y112.927 E.01314
G1 X130.028 Y107.368 E.17432
G1 X129.609 Y108.123 E.02707
G1 X129.609 Y112.927 E.15065
G1 X129.19 Y112.927 E.01314
G1 X129.19 Y108.632 E.13467
G1 X128.867 Y109.008 E.01553
G1 X128.771 Y109.093 E.00404
G1 X128.771 Y112.927 E.12021
G1 X128.352 Y112.927 E.01314
M73 Q2 S23
G1 X128.352 Y109.418 E.11004
G1 X127.933 Y109.735 E.01647
M73 P2 R23
G1 X127.933 Y112.927 E.1001
G1 X127.514 Y112.927 E.01314
G1 X127.514 Y109.943 E.09357
G1 X127.095 Y110.149 E.01463
G1 X127.095 Y112.927 E.08712
G1 X126.676 Y112.927 E.01314
G1 X126.676 Y110.294 E.08257
G1 X126.257 Y110.402 E.01357
G1 X126.257 Y112.927 E.07916
G1 X125.838 Y112.927 E.01314
G1 X125.838 Y110.506 E.07592
G1 X125.419 Y110.531 E.01316
G1 X125.419 Y112.927 E.07514
G1 X125 Y112.927 E.01314
G1 X125 Y110.552 E.07447
G1 X124.759 Y110.564 E.00755
G1 X124.581 Y110.546 E.00562
G1 X124.581 Y112.927 E.07468
G1 X124.162 Y112.927 E.01314
G1 X124.162 Y110.481 E.07669
G1 X123.743 Y110.417 E.01329
G1 X123.743 Y112.927 E.0787
G1 X123.324 Y112.927 E.01314
G1 X123.324 Y110.292 E.08261
G1 X122.905 Y110.137 E.01401
G1 X122.905 Y112.927 E.08748
G1 X122.486 Y112.927 E.01314
G1 X122.486 Y109.967 E.09282
G1 X122.067 Y109.706 E.01548
G1 X122.067 Y112.927 E.101
G1 X121.648 Y112.927 E.01314
G1 X121.648 Y109.445 E.10919
G1 X121.229 Y109.066 E.01771
G1 X121.229 Y112.927 E.12107
G1 X120.81 Y112.927 E.01314
G1 X120.81 Y108.668 E.13355
G1 X120.391 Y108.085 E.02251
G1 X120.391 Y112.927 E.15183
G1 X119.972 Y112.927 E.01314
G1 X119.972 Y106.915 E.18852
M204 S1000
;WIPE_START
G1 F8640
M73 P2 R22
G1 X119.972 Y110.206 E-.76
;WIPE_END
G1 E-.04 F2100
G1 Z.6 F720
G1 X130.028 Y103.069 F10800
G1 Z.2 F720
G1 E.8 F2100
M204 S800
G1 F1200
G1 X130.028 Y97.073 E.188
G1 X129.609 Y97.073 E.01314
G1 X129.609 Y101.877 E.15065
G1 X129.19 Y101.368 E.02069
G1 X129.19 Y97.073 E.13467
G1 X128.771 Y97.073 E.01314
G1 X128.771 Y100.907 E.12021
G1 X128.352 Y100.582 E.01661
G1 X128.352 Y97.073 E.11004
G1 X127.933 Y97.073 E.01314
G1 X127.933 Y100.265 E.1001
G1 X127.514 Y100.057 E.01467
G1 X127.514 Y97.073 E.09357
G1 X127.095 Y97.073 E.01314
G1 X127.095 Y99.851 E.08712
G1 X126.895 Y99.763 E.00685
G1 X126.676 Y99.706 E.00711
G1 X126.676 Y97.073 E.08257
G1 X126.257 Y97.073 E.01314
G1 X126.257 Y99.598 E.07916
G1 X125.838 Y99.494 E.01353
G1 X125.838 Y97.073 E.07592
G1 X125.419 Y97.073 E.01314
M73 Q2 S22
G1 X125.419 Y99.469 E.07514
G1 X125 Y99.448 E.01315
G1 X125 Y97.073 E.07447
G1 X124.581 Y97.073 E.01314
G1 X124.581 Y99.454 E.07468
G1 X124.162 Y99.519 E.01329
G1 X124.162 Y97.073 E.07669
G1 X123.743 Y97.073 E.01314
G1 X123.743 Y99.583 E.0787
G1 X123.564 Y99.619 E.00573
G1 X123.324 Y99.708 E.00801
G1 X123.324 Y97.073 E.08261
G1 X122.905 Y97.073 E.01314
G1 X122.905 Y99.863 E.08748
G1 X122.486 Y100.033 E.01418
G1 X122.486 Y97.073 E.09282
G1 X122.067 Y97.073 E.01314
G1 X122.067 Y100.294 E.101
G1 X121.648 Y100.555 E.01548
G1 X121.648 Y97.073 E.10919
G1 X121.229 Y97.073 E.01314
G1 X121.229 Y100.934 E.12107
G1 X120.81 Y101.332 E.01812
G1 X120.81 Y97.073 E.13355
G1 X120.391 Y97.073 E.01314
G1 X120.391 Y101.915 E.15183
G1 X120.151 Y102.261 E.01321
G1 X119.972 Y102.655 E.01357
G1 X119.972 Y97.073 E.17503
G1 X119.553 Y97.073 E.01314
G1 X119.553 Y112.927 E.49711
G1 X119.134 Y112.927 E.01314
G1 X119.134 Y97.073 E.49711
G1 X118.715 Y97.073 E.01314
G1 X118.715 Y112.927 E.49711
G1 X118.296 Y112.927 E.01314
G1 X118.296 Y97.073 E.49711
G1 X117.877 Y97.073 E.01314
G1 X117.877 Y112.927 E.49711
G1 X117.458 Y112.927 E.01314
M73 Q3 S22
G1 X117.458 Y96.903 E.50243
M204 S1000
;WIPE_START
G1 F8640
M73 P3 R22
G1 X117.458 Y100.194 E-.76
;WIPE_END
G1 E-.04 F2100
G1 Z.6 F720
G1 X122.577 Y101.869 F10800
G1 Z.2 F720
G1 E.8 F2100
M204 S800
;TYPE:Perimeter
G1 F1200
G1 X123.257 Y101.446 E.02512
G1 X124.008 Y101.168 E.02512
G1 X124.799 Y101.046 E.02512
G1 X125.205 Y101.067 E.01273
G1 X125.599 Y101.087 E.01238
G1 X126.375 Y101.288 E.02512
G1 X127.094 Y101.64 E.02512
G1 X127.728 Y102.131 E.02512
G1 X128.249 Y102.738 E.02512
G1 X128.638 Y103.439 E.02512
G1 X128.878 Y104.203 E.02512
G1 X128.959 Y105 E.02512
G1 X128.878 Y105.797 E.02512
G1 X128.638 Y106.561 E.02512
G1 X128.249 Y107.262 E.02512
G1 X127.728 Y107.869 E.02512
G1 X127.094 Y108.36 E.02512
G1 X126.375 Y108.712 E.02512
G1 X125.599 Y108.913 E.02512
G1 X124.799 Y108.954 E.02512
G1 X124.008 Y108.832 E.02512
G1 X123.257 Y108.554 E.02512
G1 X122.577 Y108.131 E.02512
G1 X121.996 Y107.579 E.02512
G1 X121.539 Y106.921 E.02512
G1 X121.223 Y106.185 E.02512
G1 X121.061 Y105.401 E.02512
G1 X121.061 Y104.599 E.02512
G1 X121.223 Y103.815 E.02512
G1 X121.539 Y103.079 E.02512
G1 X121.996 Y102.421 E.02512
G1 X122.533 Y101.911 E.02323
M204 S1000
G1 X122.345 Y101.57 F10800
M204 S800
;TYPE:External perimeter
G1 F1200
G1 X123.09 Y101.105 E.02752
G1 X123.913 Y100.801 E.02752
G1 X124.78 Y100.668 E.02752
G1 X125.657 Y100.712 E.02752
G1 X126.507 Y100.932 E.02752
G1 X127.295 Y101.319 E.02752
G1 X127.989 Y101.856 E.02752
G1 X128.56 Y102.522 E.02752
G1 X128.986 Y103.289 E.02752
G1 X129.249 Y104.127 E.02752
G1 X129.338 Y105 E.02752
G1 X129.249 Y105.873 E.02752
G1 X128.986 Y106.711 E.02752
G1 X128.56 Y107.478 E.02752
G1 X127.989 Y108.144 E.02752
G1 X127.295 Y108.681 E.02752
G1 X126.507 Y109.068 E.02752
G1 X125.657 Y109.288 E.02752
G1 X124.78 Y109.332 E.02752
G1 X123.913 Y109.199 E.02752
G1 X123.09 Y108.895 E.02752
G1 X122.345 Y108.43 E.02752
G1 X121.709 Y107.826 E.02752
G1 X121.207 Y107.105 E.02752
G1 X120.861 Y106.299 E.02752
G1 X120.684 Y105.439 E.02752
G1 X120.684 Y104.561 E.02752
G1 X120.861 Y103.701 E.02752
G1 X121.207 Y102.895 E.02752
G1 X121.709 Y102.174 E.02752
G1 X122.301 Y101.611 E.02564
M204 S1000
G1 X122.715 Y101.721 F10800
;WIPE_START
G1 F8640
G1 X123.09 Y101.105 E-.21626
G1 X123.913 Y100.801 E-.20267
G1 X124.78 Y100.668 E-.20267
G1 X125.379 Y100.698 E-.13841
;WIPE_END
G1 E-.04 F2100
G1 Z.6 F720
G1 X128.359 Y103.169 F10800
G1 Z.2 F720
G1 E.8 F2100
M204 S800
;TYPE:Solid infill
;WIDTH:0.428711
G1 F1200
G1 X127.51 Y102.32 E.03851
G1 X126.944 Y101.882 E.02296
G1 X126.276 Y101.554 E.02385
G1 X126.171 Y101.527 E.00347
G1 X128.46 Y103.815 E.10381
G1 X128.599 Y104.26 E.01496
G1 X128.627 Y104.528 E.00862
G1 X125.462 Y101.363 E.14357
G1 X124.887 Y101.334 E.01846
G1 X128.663 Y105.11 E.17132
G1 X128.613 Y105.605 E.01597
G1 X124.401 Y101.393 E.19108
G1 X124.079 Y101.443 E.01045
G1 X123.952 Y101.49 E.00435
G1 X128.504 Y106.042 E.20653
G1 X128.373 Y106.456 E.01393
G1 X123.554 Y101.637 E.21862
G1 X123.382 Y101.701 E.00588
G1 X123.191 Y101.82 E.00722
G1 X128.178 Y106.807 E.22625
G1 X127.974 Y107.148 E.01276
G1 X122.855 Y102.029 E.23223
G1 X122.751 Y102.094 E.00393
G1 X122.558 Y102.278 E.00855
G1 X127.722 Y107.442 E.23428
G1 X127.532 Y107.663 E.00936
G1 X127.456 Y107.722 E.00307
G1 X122.278 Y102.544 E.23491
G1 X122.212 Y102.606 E.00292
G1 X122.041 Y102.852 E.00961
G1 X127.149 Y107.96 E.23172
G1 X126.944 Y108.118 E.00831
G1 X126.821 Y108.178 E.00437
G1 X121.817 Y103.174 E.22704
G1 X121.645 Y103.548 E.0132
G1 X126.455 Y108.358 E.21822
G1 X126.276 Y108.446 E.0064
G1 X126.055 Y108.503 E.00733
G1 X121.487 Y103.935 E.20724
G1 X121.394 Y104.388 E.01482
G1 X125.622 Y108.615 E.1918
G1 X125.115 Y108.655 E.01629
G1 X121.344 Y104.884 E.17107
G1 X121.344 Y105.372 E.01566
G1 X121.359 Y105.444 E.00237
G1 X124.543 Y108.628 E.14446
G1 X124.079 Y108.557 E.01508
G1 X123.837 Y108.468 E.00827
G1 X121.512 Y106.143 E.10547
G1 X121.787 Y106.783 E.02236
G1 X122.199 Y107.375 E.02314
G1 X123.225 Y108.402 E.04656
M204 S1000
; stop printing object window_blind_plug_mesh.stl id:0 copy 0
M106 S84.15
;LAYER_CHANGE
;Z:0.35
;HEIGHT:0.15
;BEFORE_LAYER_CHANGE
G92 E0.0
;0.35


;WIPE_START
G1 F8640
G1 X122.199 Y107.375 E-.33511
G1 X121.787 Y106.783 E-.16657
G1 X121.512 Y106.143 E-.16092
G1 X121.811 Y106.441 E-.09739
;WIPE_END
G1 E-.04 F2100
G1 Z.6 F720
;AFTER_LAYER_CHANGE
;0.35
G1 X113.979 Y106.441 F10800
G1 Z.35 F720
G1 E.8 F2100
;TYPE:Skirt/Brim
;WIDTH:0.42
G1 F1403
G1 X113.979 Y96.733 E.23478
G1 X114.372 Y95.316 E.03557
G1 X115.438 Y94.303 E.03557
G1 X116.733 Y93.979 E.03229
G1 X133.267 Y93.979 E.39985
G1 X134.684 Y94.372 E.03557
G1 X135.697 Y95.438 E.03557
G1 X136.021 Y96.733 E.03229
G1 X136.021 Y113.267 E.39985
G1 X135.628 Y114.684 E.03557
G1 X134.562 Y115.697 E.03557
G1 X133.267 Y116.021 E.03229
G1 X116.733 Y116.021 E.39985
G1 X115.316 Y115.628 E.03557
M73 Q4 S22
G1 X114.303 Y114.562 E.03557
G1 X113.979 Y113.267 E.03229
M73 P4 R22
G1 X113.979 Y106.501 E.16362
G1 X114.356 Y106.501 F10800
G1 F1403
G1 X114.356 Y96.733 E.23623
G1 X114.748 Y95.426 E.033
G1 X115.794 Y94.55 E.033
G1 X116.733 Y94.356 E.02321
G1 X133.267 Y94.356 E.39985
G1 X134.574 Y94.748 E.033
G1 X135.45 Y95.794 E.033
G1 X135.644 Y96.733 E.02321
G1 X135.644 Y113.267 E.39985
G1 X135.252 Y114.574 E.033
G1 X134.206 Y115.45 E.033
G1 X133.267 Y115.644 E.02321
G1 X116.733 Y115.644 E.39985
G1 X115.426 Y115.252 E.033
G1 X114.55 Y114.206 E.033
G1 X114.356 Y113.267 E.02321
G1 X114.356 Y106.561 E.16217
; printing object window_blind_plug_mesh.stl id:0 copy 0
;WIPE_START
G1 F8640
G1 X114.356 Y103.27 E-.76
;WIPE_END
G1 E-.04 F2100
G1 Z.75 F720
G1 X120.917 Y105.415 F10800
G1 Z.35 F720
G1 E.8 F2100
M204 S800
;TYPE:Perimeter
;WIDTH:0.45
G1 F1403
G1 X120.917 Y104.585 E.02164
G1 X121.084 Y103.771 E.02164
G1 X121.412 Y103.008 E.02164
G1 X121.886 Y102.327 E.02164
G1 X122.488 Y101.755 E.02164
G1 X123.193 Y101.316 E.02164
G1 X123.969 Y101.028 E.02158
G1 X124.821 Y100.903 E.02243
G1 X125.621 Y100.943 E.02088
G1 X126.425 Y101.152 E.02164
G1 X127.171 Y101.517 E.02164
G1 X127.827 Y102.026 E.02164
G1 X128.368 Y102.656 E.02164
G1 X128.771 Y103.382 E.02164
G1 X129.02 Y104.174 E.02164
G1 X129.104 Y105 E.02164
G1 X129.02 Y105.826 E.02164
G1 X128.771 Y106.618 E.02164
G1 X128.368 Y107.344 E.02164
G1 X127.827 Y107.974 E.02164
G1 X127.171 Y108.483 E.02164
G1 X126.425 Y108.848 E.02164
G1 X125.621 Y109.057 E.02164
G1 X124.792 Y109.099 E.02164
G1 X123.971 Y108.973 E.02164
G1 X123.193 Y108.684 E.02164
G1 X122.488 Y108.245 E.02164
G1 X121.886 Y107.673 E.02164
G1 X121.412 Y106.992 E.02164
G1 X121.084 Y106.229 E.02164
G1 X120.929 Y105.474 E.02007
M204 S1000
G1 X120.499 Y105.458 F10800
M204 S800
;TYPE:External perimeter
G1 F1403
G1 X120.499 Y104.542 E.02385
G1 X120.684 Y103.646 E.02385
G1 X121.045 Y102.805 E.02385
G1 X121.567 Y102.053 E.02385
G1 X122.231 Y101.423 E.02385
G1 X123.008 Y100.938 E.02385
G1 X123.865 Y100.621 E.02383
G1 X124.801 Y100.484 E.02464
G1 X125.685 Y100.528 E.02306
G1 X126.571 Y100.758 E.02385
G1 X127.393 Y101.161 E.02385
G1 X128.117 Y101.721 E.02385
G1 X128.713 Y102.416 E.02385
G1 X129.157 Y103.216 E.02385
G1 X129.431 Y104.089 E.02385
G1 X129.524 Y105 E.02385
G1 X129.431 Y105.911 E.02385
G1 X129.157 Y106.784 E.02385
G1 X128.713 Y107.584 E.02385
G1 X128.117 Y108.279 E.02385
G1 X127.393 Y108.839 E.02385
G1 X126.571 Y109.242 E.02385
G1 X125.685 Y109.472 E.02385
G1 X124.771 Y109.518 E.02385
G1 X123.866 Y109.379 E.02385
G1 X123.008 Y109.062 E.02385
G1 X122.231 Y108.577 E.02385
G1 X121.567 Y107.947 E.02385
G1 X121.045 Y107.195 E.02385
G1 X120.684 Y106.354 E.02385
G1 X120.511 Y105.516 E.02229
M204 S1000
G1 X120.824 Y105.224 F10800
;WIPE_START
G1 F8640
G1 X120.499 Y104.542 E-.22494
G1 X120.684 Y103.646 E-.21136
G1 X121.045 Y102.805 E-.21135
